; generated by Slic3r 1.2.9 on 2017-07-09 at 20:55:59

; external perimeters extrusion width = 0.50mm
; perimeters extrusion width = 0.50mm
; infill extrusion width = 0.50mm
; solid infill extrusion width = 0.50mm
; top infill extrusion width = 0.50mm

M107
M190 S70 ; set bed temperature
M104 S218 ; set temperature
G28 ; home all axes
M109 S218 ; wait for temperature to be reached
G21 ; set units to millimeters
G90 ; use absolute coordinates
M82 ; use absolute distances for extrusion
G92 E0
G1 E-2.00000 F1800.00000
G92 E0
G1 Z0.250 F9600.000
G1 X36.321 Y21.663 F9600.000
G1 E2.00000 F1800.00000
M204 S600
G1 X37.116 Y20.627 E2.02011 F1800.000
G1 X38.127 Y19.616 E2.04215
G1 X39.163 Y18.821 E2.06226
G1 X40.402 Y18.105 E2.08430
G1 X41.608 Y17.606 E2.10441
G1 X42.990 Y17.236 E2.12646
G1 X44.285 Y17.065 E2.14657
G1 X45.000 Y17.018 E2.15761
G1 X125.000 Y17.018 E3.38999
G1 X125.716 Y17.065 E3.40104
G1 X127.010 Y17.236 E3.42115 F1800.000
G1 X128.392 Y17.606 E3.44319
G1 X129.598 Y18.106 E3.46330
G1 X130.837 Y18.821 E3.48534
G1 X131.847 Y19.596 E3.50495
G1 X132.885 Y20.627 E3.52749
G1 X133.679 Y21.663 E3.54760
G1 X134.395 Y22.902 E3.56964
G1 X134.894 Y24.108 E3.58975
G1 X135.264 Y25.490 E3.61179
G1 X135.435 Y26.785 E3.63191
G1 X135.482 Y27.500 E3.64295
G1 X135.482 Y112.500 E4.95235
G1 X135.435 Y113.215 E4.96339
G1 X135.264 Y114.510 E4.98351
G1 X134.894 Y115.892 E5.00555
G1 X134.395 Y117.098 E5.02566
G1 X133.679 Y118.337 E5.04770
G1 X132.885 Y119.373 E5.06781
G1 X131.873 Y120.385 E5.08985
G1 X130.837 Y121.179 E5.10996
G1 X129.598 Y121.895 E5.13201
G1 X128.392 Y122.394 E5.15211
G1 X127.010 Y122.764 E5.17416
G1 X125.715 Y122.935 E5.19427
G1 X125.000 Y122.982 E5.20531
G1 X45.000 Y122.982 E6.43769
G1 X44.285 Y122.935 E6.44873
G1 X42.990 Y122.764 E6.46885
G1 X41.608 Y122.394 E6.49089
G1 X40.402 Y121.895 E6.51100
G1 X39.163 Y121.179 E6.53304
G1 X38.127 Y120.385 E6.55315
G1 X37.116 Y119.373 E6.57519
G1 X36.321 Y118.337 E6.59530
G1 X35.605 Y117.098 E6.61735
G1 X35.106 Y115.892 E6.63746
G1 X34.736 Y114.510 E6.65950
G1 X34.565 Y113.215 E6.67961
G1 X34.518 Y112.500 E6.69065
G1 X34.518 Y27.500 E8.00006
G1 X34.565 Y26.785 E8.01110
G1 X34.736 Y25.490 E8.03121
G1 X35.106 Y24.108 E8.05326
G1 X35.605 Y22.902 E8.07337
G1 X36.283 Y21.728 E8.09425
G1 X36.715 Y21.965 F9600.000
G4 P30
G1 X37.509 Y20.929 E8.11436 F1800.000
G1 X38.430 Y20.009 E8.13441
G1 X39.465 Y19.215 E8.15452
G1 X40.592 Y18.564 E8.17457
G1 X41.798 Y18.064 E8.19468
G1 X43.055 Y17.728 E8.21472
G1 X44.349 Y17.557 E8.23483
G1 X45.000 Y17.515 E8.24487
G1 X125.000 Y17.515 E9.47726
G1 X125.651 Y17.557 E9.48730
G1 X126.945 Y17.728 E9.50741 F1800.000
G1 X128.202 Y18.064 E9.52746
G1 X129.408 Y18.564 E9.54757
G1 X130.535 Y19.215 E9.56761
G1 X131.571 Y20.009 E9.58772
G1 X132.491 Y20.930 E9.60777
G1 X133.285 Y21.965 E9.62788
G1 X133.936 Y23.092 E9.64793
G1 X134.436 Y24.298 E9.66803
G1 X134.772 Y25.555 E9.68808
G1 X134.943 Y26.850 E9.70820
G1 X134.985 Y27.500 E9.71824
G1 X134.985 Y112.500 E11.02764
G1 X134.943 Y113.150 E11.03768
G1 X134.772 Y114.445 E11.05780
G1 X134.436 Y115.702 E11.07784
G1 X133.936 Y116.908 E11.09795
G1 X133.285 Y118.035 E11.11800
G1 X132.491 Y119.070 E11.13811
G1 X131.570 Y119.991 E11.15816
G1 X130.535 Y120.785 E11.17826
G1 X129.408 Y121.436 E11.19831
G1 X128.202 Y121.936 E11.21842
G1 X126.945 Y122.272 E11.23847
G1 X125.650 Y122.443 E11.25858
G1 X125.000 Y122.485 E11.26862
G1 X45.000 Y122.485 E12.50100
G1 X44.350 Y122.443 E12.51104
G1 X43.055 Y122.272 E12.53116
G1 X41.798 Y121.936 E12.55120
G1 X40.592 Y121.436 E12.57131
G1 X39.465 Y120.785 E12.59136
G1 X38.430 Y119.991 E12.61147
G1 X37.509 Y119.071 E12.63151
G1 X36.715 Y118.035 E12.65162
G1 X36.064 Y116.908 E12.67167
G1 X35.564 Y115.702 E12.69178
G1 X35.228 Y114.445 E12.71183
G1 X35.057 Y113.151 E12.73194
G1 X35.015 Y112.500 E12.74198
G1 X35.015 Y27.500 E14.05139
G1 X35.057 Y26.849 E14.06143
G1 X35.228 Y25.555 E14.08154
G1 X35.564 Y24.298 E14.10159
G1 X36.064 Y23.092 E14.12170
G1 X36.677 Y22.030 E14.14059
G1 X37.108 Y22.267 F9600.000
G4 P30
G1 X37.903 Y21.232 E14.16070 F1800.000
G1 X38.732 Y20.403 E14.17875
G1 X39.767 Y19.608 E14.19886
G1 X40.782 Y19.023 E14.21691
G1 X41.988 Y18.523 E14.23702
G1 X43.120 Y18.220 E14.25507
G1 X44.414 Y18.049 E14.27518
G1 X45.000 Y18.011 E14.28422
G1 X125.000 Y18.011 E15.51660
G1 X125.586 Y18.049 E15.52565
G1 X126.880 Y18.220 E15.54576 F1800.000
G1 X128.012 Y18.523 E15.56381
G1 X129.218 Y19.023 E15.58392
G1 X130.233 Y19.608 E15.60197
G1 X131.242 Y20.383 E15.62158
G1 X132.097 Y21.232 E15.64013
G1 X132.892 Y22.267 E15.66024
G1 X133.477 Y23.282 E15.67829
G1 X133.977 Y24.488 E15.69839
G1 X134.280 Y25.620 E15.71644
G1 X134.451 Y26.914 E15.73656
G1 X134.489 Y27.500 E15.74560
G1 X134.489 Y112.500 E17.05500
G1 X134.451 Y113.086 E17.06405
G1 X134.280 Y114.380 E17.08416
G1 X133.977 Y115.512 E17.10221
G1 X133.477 Y116.718 E17.12232
G1 X132.892 Y117.733 E17.14037
G1 X132.097 Y118.768 E17.16048
G1 X131.268 Y119.597 E17.17853
G1 X130.233 Y120.392 E17.19864
G1 X129.218 Y120.977 E17.21669
G1 X128.012 Y121.477 E17.23680
G1 X126.880 Y121.780 E17.25485
G1 X125.586 Y121.951 E17.27496
G1 X125.000 Y121.989 E17.28400
G1 X45.000 Y121.989 E18.51638
G1 X44.414 Y121.951 E18.52542
G1 X43.120 Y121.780 E18.54554
G1 X41.988 Y121.477 E18.56359
G1 X40.782 Y120.977 E18.58370
G1 X39.767 Y120.392 E18.60175
G1 X38.732 Y119.597 E18.62186
G1 X37.903 Y118.768 E18.63991
G1 X37.108 Y117.733 E18.66002
G1 X36.523 Y116.718 E18.67807
G1 X36.023 Y115.512 E18.69818
G1 X35.720 Y114.380 E18.71623
G1 X35.549 Y113.086 E18.73634
G1 X35.511 Y112.500 E18.74538
G1 X35.511 Y27.500 E20.05479
G1 X35.549 Y26.914 E20.06383
G1 X35.720 Y25.620 E20.08394
G1 X36.023 Y24.488 E20.10199
G1 X36.523 Y23.282 E20.12210
G1 X37.071 Y22.332 E20.13900
G1 X37.502 Y22.569 F9600.000
G4 P30
G1 X38.297 Y21.534 E20.15911 F1800.000
G1 X39.034 Y20.797 E20.17516
G1 X40.069 Y20.002 E20.19527
G1 X40.972 Y19.481 E20.21133
G1 X42.178 Y18.982 E20.23144
G1 X43.185 Y18.712 E20.24749
G1 X44.479 Y18.541 E20.26760
G1 X45.000 Y18.507 E20.27564
G1 X125.000 Y18.507 E21.50803
G1 X125.521 Y18.541 E21.51607
G1 X126.815 Y18.712 E21.53618 F1800.000
G1 X127.822 Y18.982 E21.55223
G1 X129.028 Y19.481 E21.57235
G1 X129.931 Y20.002 E21.58840
G1 X130.940 Y20.777 E21.60800
G1 X131.703 Y21.534 E21.62456
G1 X132.498 Y22.570 E21.64467
G1 X133.019 Y23.472 E21.66072
G1 X133.518 Y24.678 E21.68083
G1 X133.788 Y25.685 E21.69689
G1 X133.959 Y26.979 E21.71700
G1 X133.993 Y27.500 E21.72504
G1 X133.993 Y112.500 E23.03444
G1 X133.959 Y113.021 E23.04249
G1 X133.788 Y114.315 E23.06260
G1 X133.518 Y115.322 E23.07865
G1 X133.019 Y116.528 E23.09876
G1 X132.498 Y117.431 E23.11482
G1 X131.703 Y118.466 E23.13492
G1 X130.966 Y119.203 E23.15098
G1 X129.931 Y119.998 E23.17109
G1 X129.028 Y120.519 E23.18715
G1 X127.822 Y121.018 E23.20725
G1 X126.815 Y121.288 E23.22331
G1 X125.521 Y121.459 E23.24342
G1 X125.000 Y121.493 E23.25146
G1 X45.000 Y121.493 E24.48384
G1 X44.479 Y121.459 E24.49188
G1 X43.185 Y121.288 E24.51200
G1 X42.178 Y121.018 E24.52805
G1 X40.972 Y120.519 E24.54816
G1 X40.069 Y119.998 E24.56422
G1 X39.034 Y119.203 E24.58432
G1 X38.297 Y118.466 E24.60038
G1 X37.502 Y117.431 E24.62049
G1 X36.981 Y116.528 E24.63654
G1 X36.482 Y115.322 E24.65665
G1 X36.212 Y114.315 E24.67271
G1 X36.041 Y113.021 E24.69282
G1 X36.007 Y112.500 E24.70086
G1 X36.007 Y27.500 E26.01027
G1 X36.041 Y26.979 E26.01831
G1 X36.212 Y25.685 E26.03842
G1 X36.482 Y24.678 E26.05448
G1 X36.981 Y23.472 E26.07459
G1 X37.465 Y22.634 E26.08949
G1 X37.896 Y22.872 F9600.000
G4 P30
G1 X38.691 Y21.836 E26.10959 F1800.000
G1 X39.336 Y21.191 E26.12365
G1 X40.372 Y20.396 E26.14376
G1 X41.162 Y19.940 E26.15782
G1 X42.368 Y19.440 E26.17793
G1 X43.250 Y19.204 E26.19199
G1 X44.544 Y19.034 E26.21210
G1 X45.000 Y19.004 E26.21914
G1 X125.000 Y19.004 E27.45152
G1 X125.456 Y19.034 E27.45857
G1 X126.751 Y19.204 E27.47868 F1800.000
G1 X127.632 Y19.440 E27.49274
G1 X128.838 Y19.940 E27.51285
G1 X129.628 Y20.396 E27.52690
G1 X130.638 Y21.171 E27.54651
G1 X131.309 Y21.836 E27.56107
G1 X132.104 Y22.872 E27.58118
G1 X132.560 Y23.662 E27.59524
G1 X133.060 Y24.868 E27.61534
G1 X133.296 Y25.750 E27.62940
G1 X133.466 Y27.044 E27.64952
G1 X133.496 Y27.500 E27.65656
G1 X133.496 Y112.500 E28.96596
G1 X133.466 Y112.956 E28.97300
G1 X133.296 Y114.250 E28.99312
G1 X133.060 Y115.132 E29.00718
G1 X132.560 Y116.338 E29.02728
G1 X132.104 Y117.128 E29.04134
G1 X131.309 Y118.164 E29.06145
G1 X130.664 Y118.809 E29.07551
G1 X129.628 Y119.604 E29.09562
G1 X128.838 Y120.060 E29.10968
G1 X127.632 Y120.560 E29.12979
G1 X126.750 Y120.796 E29.14385
G1 X125.456 Y120.966 E29.16396
G1 X125.000 Y120.996 E29.17100
G1 X45.000 Y120.996 E30.40338
G1 X44.544 Y120.966 E30.41042
G1 X43.250 Y120.796 E30.43053
G1 X42.368 Y120.560 E30.44459
G1 X41.162 Y120.060 E30.46470
G1 X40.372 Y119.604 E30.47876
G1 X39.336 Y118.809 E30.49887
G1 X38.691 Y118.164 E30.51293
G1 X37.896 Y117.128 E30.53304
G1 X37.440 Y116.338 E30.54710
G1 X36.940 Y115.132 E30.56721
G1 X36.704 Y114.250 E30.58127
G1 X36.534 Y112.956 E30.60137
G1 X36.504 Y112.500 E30.60842
G1 X36.504 Y27.500 E31.91782
G1 X36.534 Y27.044 E31.92487
G1 X36.704 Y25.750 E31.94498
G1 X36.940 Y24.868 E31.95904
G1 X37.440 Y23.662 E31.97915
G1 X37.859 Y22.937 E31.99205
G1 F7680
G1 X38.691 Y21.836 E31.68483
G1 F7680
G1 X39.336 Y21.191 E31.48164
G1 F7680
G1 X40.372 Y20.396 E31.19099
G1 F7680
G1 X41.162 Y19.940 E30.98779
G1 F7680
G1 X42.368 Y19.440 E30.69713
G1 F7680
G1 X43.250 Y19.204 E30.49394
G1 F7680
G1 X44.544 Y19.034 E30.20328
G1 F7680
G1 X45.000 Y19.004 E30.10148
G1 F7680
G1 X45.042 Y19.004 E30.09205
G1 E29.99205 F1800.00000
G92 E0
G1 X46.595 Y109.986 F9600.000
G1 E2.00000 F1800.00000
G1 X47.172 Y110.463 E2.01153 F1800.000
G1 X47.615 Y111.081 E2.02324
G1 X47.884 Y111.760 E2.03449
G1 X47.977 Y112.500 E2.04598
G1 X47.884 Y113.240 E2.05748
G1 X47.615 Y113.919 E2.06873
G1 X47.171 Y114.539 E2.08047
G1 X46.581 Y115.021 E2.09221
G1 X45.920 Y115.332 E2.10346
G1 X45.187 Y115.472 E2.11496
G1 X44.442 Y115.425 E2.12645
G1 X43.748 Y115.199 E2.13770
G1 X43.104 Y114.796 E2.14940
G1 X42.591 Y114.250 E2.16094
G1 X42.232 Y113.596 E2.17244
G1 X42.046 Y112.873 E2.18393
G1 X42.046 Y112.127 E2.19543
G1 X42.232 Y111.404 E2.20693
G1 X42.591 Y110.750 E2.21843
G1 X43.102 Y110.206 E2.22992
G1 X43.732 Y109.806 E2.24142
G1 X44.442 Y109.575 E2.25292
G1 X45.171 Y109.529 E2.26417 F1800.000
G1 X45.918 Y109.667 E2.27587
G1 X46.528 Y109.954 E2.28625
G1 X46.327 Y110.408 F9600.000
G4 P30
G1 X46.806 Y110.805 E2.29583 F1800.000
G1 X47.176 Y111.320 E2.30560
G1 X47.399 Y111.884 E2.31494
G1 X47.477 Y112.500 E2.32450
G1 X47.399 Y113.116 E2.33407
G1 X47.176 Y113.680 E2.34341
G1 X46.806 Y114.196 E2.35319
G1 X46.314 Y114.598 E2.36298
G1 X45.765 Y114.856 E2.37232
G1 X45.156 Y114.972 E2.38188
G1 X44.536 Y114.933 E2.39145
G1 X43.959 Y114.746 E2.40079
G1 X43.422 Y114.409 E2.41056
G1 X42.996 Y113.956 E2.42014
G1 X42.697 Y113.412 E2.42971
G1 X42.542 Y112.810 E2.43927
G1 X42.542 Y112.190 E2.44884
G1 X42.697 Y111.588 E2.45840
G1 X42.996 Y111.044 E2.46797
G1 X43.421 Y110.591 E2.47753
G1 X43.945 Y110.259 E2.48710
G1 X44.536 Y110.067 E2.49666
G1 X45.141 Y110.029 E2.50600 F1800.000
G1 X45.765 Y110.144 E2.51578
G1 X46.259 Y110.377 E2.52420
G1 X46.780 Y110.196 F9600.000
G1 F7680
G4 P29
G1 X46.806 Y110.805 E2.36952
G1 F7680
G1 X47.176 Y111.320 E2.22829
G1 F7680
G1 X47.399 Y111.884 E2.09329
G1 F7680
G1 X47.477 Y112.500 E1.95503
G1 F7680
G1 X47.399 Y113.116 E1.81677
G1 F7680
G1 X47.176 Y113.680 E1.68177
G1 F7680
G1 X46.806 Y114.196 E1.54035
G1 F7680
G1 X46.314 Y114.598 E1.39893
G1 F7680
G1 X45.765 Y114.856 E1.26393
G1 F7680
G1 X45.156 Y114.972 E1.12567
G1 F7680
G1 X44.536 Y114.933 E0.98741
G1 F7680
G1 X43.959 Y114.746 E0.85241
G1 F7680
G1 X43.422 Y114.409 E0.71118
G1 F7680
G1 X43.154 Y114.125 E0.62420
G1 E0.52420 F1800.00000
G92 E0
G1 X92.122 Y112.500 F9600.000
G1 E2.00000 F1800.00000
G1 X92.213 Y111.784 E2.01111 F1800.000
G1 X92.478 Y111.114 E2.02222
G1 X92.902 Y110.530 E2.03334
G1 X93.466 Y110.064 E2.04461
G1 X94.148 Y109.756 E2.05614
G1 X94.819 Y109.628 E2.06666 F1800.000
G1 X95.539 Y109.673 E2.07778
G1 X96.225 Y109.896 E2.08889
G1 X96.834 Y110.283 E2.10000
G1 X97.328 Y110.808 E2.11111
G1 X97.676 Y111.441 E2.12222
G1 X97.855 Y112.139 E2.13334
G1 X97.855 Y112.861 E2.14445
G1 X97.676 Y113.559 E2.15556
G1 X97.328 Y114.192 E2.16667
G1 X96.834 Y114.717 E2.17779
G1 X96.258 Y115.083 E2.18831
G1 X95.550 Y115.326 E2.19984
G1 X94.819 Y115.372 E2.21111
G1 X94.111 Y115.237 E2.22222
G1 X93.458 Y114.930 E2.23334
G1 X92.902 Y114.470 E2.24445
G1 X92.478 Y113.886 E2.25556
G1 X92.213 Y113.216 E2.26667
G1 X92.132 Y112.574 E2.27663
G1 X92.623 Y112.500 F9600.000
G1 X92.697 Y111.909 E2.28581 F1800.000
G1 X92.917 Y111.355 E2.29499
G1 X93.267 Y110.873 E2.30417
G1 X93.731 Y110.489 E2.31345
G1 X94.299 Y110.232 E2.32305
G1 X94.851 Y110.127 E2.33170 F1800.000
G1 X95.446 Y110.165 E2.34088
G1 X96.012 Y110.349 E2.35006
G1 X96.515 Y110.668 E2.35924
G1 X96.923 Y111.103 E2.36842
G1 X97.211 Y111.625 E2.37760
G1 X97.359 Y112.202 E2.38679
G1 X97.359 Y112.798 E2.39597
G1 X97.211 Y113.375 E2.40515
G1 X96.923 Y113.897 E2.41433
G1 X96.515 Y114.332 E2.42351
G1 X96.041 Y114.633 E2.43216
G1 X95.452 Y114.835 E2.44176
G1 X94.851 Y114.873 E2.45104
G1 X94.265 Y114.761 E2.46022
G1 X93.726 Y114.507 E2.46940
G1 X93.267 Y114.127 E2.47858
G1 X92.917 Y113.645 E2.48776
G1 X92.697 Y113.091 E2.49694
G1 X92.632 Y112.574 E2.50497
G1 X93.123 Y112.500 F9600.000
G1 X93.182 Y112.033 E2.51221 F1800.000
G1 X93.355 Y111.596 E2.51946
G1 X93.632 Y111.215 E2.52671
G1 X93.996 Y110.914 E2.53399
G1 X94.449 Y110.709 E2.54166
G1 X94.882 Y110.627 E2.54844 F1800.000
G1 X95.352 Y110.656 E2.55569
G1 X95.799 Y110.801 E2.56294
G1 X96.197 Y111.054 E2.57019
G1 X96.519 Y111.397 E2.57744
G1 X96.745 Y111.809 E2.58469
G1 X96.862 Y112.265 E2.59194
G1 X96.862 Y112.735 E2.59919
G1 X96.745 Y113.191 E2.60643
G1 X96.519 Y113.603 E2.61368
G1 X96.197 Y113.946 E2.62093
G1 X95.825 Y114.182 E2.62772
G1 X95.354 Y114.344 E2.63538
G1 X94.882 Y114.373 E2.64267
G1 X94.420 Y114.285 E2.64991
G1 X93.994 Y114.085 E2.65716
G1 X93.632 Y113.785 E2.66441
G1 X93.355 Y113.404 E2.67166
G1 X93.182 Y112.967 E2.67891
G1 X93.132 Y112.574 E2.68500
G1 X92.726 Y112.248 F9600.000
G1 X91.112 Y113.768 F9600.000
G4 P19
G1 X91.405 Y111.537 E2.71966 F1800.000
G1 X91.777 Y110.639 E2.73463
G1 X92.369 Y109.869 E2.74959
G1 X93.139 Y109.277 E2.76456
G1 X94.037 Y108.905 E2.77953
G1 X95.000 Y108.779 E2.79449
G1 X95.963 Y108.905 E2.80946
G1 X96.861 Y109.277 E2.82442
G1 X97.631 Y109.869 E2.83939
G1 X98.223 Y110.639 E2.85435
G1 X98.595 Y111.537 E2.86932
G1 X98.888 Y113.768 E2.90398
G1 X121.760 Y113.768 E3.25631
G1 X122.186 Y114.544 E3.26996
G1 X122.786 Y115.183 E3.28345
G1 X123.536 Y115.652 E3.29708
G1 X124.348 Y115.916 E3.31024
G1 X124.788 Y115.944 E3.31703
G1 X124.779 Y116.232 E3.32147
G1 X45.288 Y116.232 E4.54602
G1 X45.262 Y115.963 E4.55019
G1 X46.075 Y115.808 E4.56293
G1 X46.847 Y115.444 E4.57609
G1 X47.536 Y114.881 E4.58978
G1 X48.054 Y114.159 E4.60348
G1 X48.209 Y113.768 E4.60996
G1 X91.037 Y113.768 E5.26971
G1 F7680
G1 X91.405 Y111.537 E4.76626
G1 F7680
G1 X91.777 Y110.639 E4.54996
G1 F7680
G1 X92.369 Y109.869 E4.33365
G1 F7680
G1 X93.139 Y109.277 E4.11735
G1 F7680
G1 X94.037 Y108.905 E3.90105
G1 F7680
G1 X95.000 Y108.779 E3.68474
G1 F7680
G1 X95.963 Y108.905 E3.46844
G1 F7680
G1 X96.373 Y109.075 E3.36971
G1 E3.26971 F1800.00000
G92 E0
G1 X122.046 Y112.873 F9600.000
G1 E2.00000 F1800.00000
G1 X122.046 Y112.127 E2.01150 F1800.000
G1 X122.232 Y111.404 E2.02299
G1 X122.591 Y110.750 E2.03449
G1 X123.102 Y110.206 E2.04599
G1 X123.732 Y109.806 E2.05749
G1 X124.442 Y109.575 E2.06898
G1 X125.171 Y109.529 E2.08023 F1800.000
G1 X125.918 Y109.667 E2.09194
G1 X126.595 Y109.986 E2.10347
G1 X127.170 Y110.462 E2.11497
G1 X127.609 Y111.066 E2.12647
G1 X127.884 Y111.760 E2.13796
G1 X127.977 Y112.500 E2.14946
G1 X127.884 Y113.240 E2.16096
G1 X127.609 Y113.934 E2.17246
G1 X127.169 Y114.540 E2.18399
G1 X126.581 Y115.021 E2.19569
G1 X125.920 Y115.332 E2.20694
G1 X125.187 Y115.472 E2.21844
G1 X124.442 Y115.425 E2.22994
G1 X123.748 Y115.199 E2.24118
