; generated by Slic3r 1.2.9 on 2017-07-10 at 21:21:48

; external perimeters extrusion width = 0.50mm
; perimeters extrusion width = 0.50mm
; infill extrusion width = 0.50mm
; solid infill extrusion width = 0.50mm
; top infill extrusion width = 0.50mm

M107
M190 S60 ; set bed temperature
M104 S210 ; set temperature
G28 ; home all axes
M109 S210 ; wait for temperature to be reached
G21 ; set units to millimeters
G90 ; use absolute coordinates
M82 ; use absolute distances for extrusion
G92 E0
G1 E-2.00000 F1800.00000
G92 E0
G1 Z0.250 F7800.000
G1 X52.690 Y44.795 F7800.000
G1 E2.00000 F1800.00000
M204 S3000
G1 X53.241 Y44.244 E2.00592 F1800.000
G1 X54.212 Y43.499 E2.01522
G1 X54.952 Y43.059 E2.02175
G1 X56.158 Y42.560 E2.03167
G1 X56.910 Y42.358 E2.03759
G1 X58.205 Y42.188 E2.04751
G1 X58.594 Y42.162 E2.05047
G1 X88.594 Y42.162 E2.27839
G1 X88.984 Y42.188 E2.28136
G1 X90.278 Y42.358 E2.29128 F1800.000
G1 X91.031 Y42.560 E2.29720
G1 X92.237 Y43.059 E2.30711
G1 X92.912 Y43.449 E2.31303
G1 X94.072 Y44.344 E2.32417
G1 X110.307 Y58.248 E2.48656
G1 X117.476 Y65.405 E2.56352
G1 X117.739 Y65.705 E2.56655
G1 X118.368 Y66.525 E2.57440
G1 X118.646 Y66.960 E2.57833
G1 X119.157 Y68.161 E2.58824
G1 X119.259 Y68.449 E2.59056
G1 X119.351 Y68.852 E2.59370
G1 X119.518 Y70.188 E2.60393
G1 X119.496 Y70.742 E2.60814
G1 X119.361 Y71.766 E2.61599
G1 X119.287 Y72.141 E2.61889
G1 X119.158 Y72.525 E2.62197
G1 X118.749 Y73.511 E2.63008
G1 X118.554 Y73.892 E2.63334
G1 X118.367 Y74.165 E2.63585
G1 X117.714 Y75.017 E2.64400
G1 X117.476 Y75.284 E2.64672
G1 X110.476 Y82.284 E2.72192
G1 X110.241 Y82.495 E2.72433
G1 X93.874 Y95.711 E2.88415
G1 X92.781 Y96.551 E2.89462
G1 X92.106 Y96.941 E2.90055
G1 X90.900 Y97.440 E2.91046
G1 X90.147 Y97.642 E2.91638
G1 X88.853 Y97.812 E2.92630
G1 X88.463 Y97.838 E2.92927
G1 X58.463 Y97.838 E3.15718
G1 X58.073 Y97.812 E3.16015
G1 X56.779 Y97.642 E3.17007
G1 X56.027 Y97.440 E3.17599
G1 X54.821 Y96.941 E3.18590
G1 X54.146 Y96.551 E3.19183
G1 X53.110 Y95.756 E3.20174
G1 X52.559 Y95.205 E3.20766
G1 X51.765 Y94.170 E3.21758
G1 X51.375 Y93.495 E3.22350
G1 X50.875 Y92.289 E3.23342
G1 X50.674 Y91.536 E3.23934
G1 X50.503 Y90.242 E3.24925
G1 X50.478 Y89.843 E3.25229
G1 X50.609 Y50.138 E3.55395
G1 X50.634 Y49.758 E3.55684
G1 X50.805 Y48.464 E3.56675
G1 X51.006 Y47.711 E3.57267
G1 X51.506 Y46.505 E3.58259
G1 X51.896 Y45.830 E3.58851
G1 X52.645 Y44.854 E3.59786
G1 X52.886 Y44.945 F7800.000
G4 P31
G1 X53.391 Y44.439 E3.60329 F1800.000
G1 X54.427 Y43.644 E3.61321
G1 X55.046 Y43.287 E3.61864
G1 X56.252 Y42.787 E3.62856
G1 X56.943 Y42.602 E3.63399
G1 X58.237 Y42.432 E3.64390
G1 X58.594 Y42.408 E3.64663
G1 X88.594 Y42.408 E3.87454
G1 X88.952 Y42.432 E3.87727
G1 X90.246 Y42.602 E3.88718 F1800.000
G1 X90.937 Y42.787 E3.89262
G1 X92.142 Y43.287 E3.90253
G1 X92.762 Y43.644 E3.90796
G1 X93.911 Y44.532 E3.91900
G1 X110.147 Y58.435 E4.08139
G1 X117.302 Y65.579 E4.15821
G1 X117.544 Y65.855 E4.16100
G1 X118.173 Y66.675 E4.16884
G1 X118.428 Y67.074 E4.17244
G1 X118.929 Y68.256 E4.18219
G1 X119.023 Y68.520 E4.18433
G1 X119.108 Y68.890 E4.18721
G1 X119.272 Y70.201 E4.19724
G1 X119.252 Y70.710 E4.20112
G1 X119.117 Y71.733 E4.20896
G1 X119.049 Y72.078 E4.21163
G1 X118.930 Y72.431 E4.21446
G1 X118.522 Y73.415 E4.22255
G1 X118.343 Y73.764 E4.22553
G1 X118.172 Y74.015 E4.22784
G1 X117.520 Y74.864 E4.23597
G1 X117.302 Y75.110 E4.23846
G1 X110.302 Y82.109 E4.31367
G1 X110.086 Y82.304 E4.31588
G1 X93.719 Y95.519 E4.47570
G1 X92.631 Y96.356 E4.48613
G1 X92.011 Y96.713 E4.49156
G1 X90.805 Y97.213 E4.50148
G1 X90.115 Y97.398 E4.50691
G1 X88.821 Y97.568 E4.51683
G1 X88.463 Y97.592 E4.51955
G1 X58.463 Y97.592 E4.74747
G1 X58.106 Y97.568 E4.75019
G1 X56.812 Y97.398 E4.76010
G1 X56.121 Y97.213 E4.76554
G1 X54.915 Y96.713 E4.77545
G1 X54.296 Y96.356 E4.78088
G1 X53.260 Y95.561 E4.79080
G1 X52.755 Y95.055 E4.79623
G1 X51.960 Y94.020 E4.80615
G1 X51.602 Y93.401 E4.81158
G1 X51.103 Y92.195 E4.82150
G1 X50.918 Y91.504 E4.82693
G1 X50.747 Y90.210 E4.83685
G1 X50.724 Y89.843 E4.83964
G1 X50.855 Y50.138 E5.14129
G1 X50.879 Y49.790 E5.14394
G1 X51.049 Y48.496 E5.15386
G1 X51.234 Y47.805 E5.15929
G1 X51.734 Y46.599 E5.16921
G1 X52.091 Y45.980 E5.17464
G1 X52.840 Y45.004 E5.18399
G1 X53.081 Y45.095 F7800.000
G4 P31
G1 X53.541 Y44.634 E5.18893 F1800.000
G1 X54.512 Y43.889 E5.19823
G1 X55.140 Y43.514 E5.20378
G1 X56.346 Y43.015 E5.21370
G1 X56.975 Y42.847 E5.21864
G1 X58.269 Y42.676 E5.22856
G1 X58.594 Y42.655 E5.23104
G1 X88.594 Y42.655 E5.45896
G1 X88.920 Y42.676 E5.46143
G1 X90.214 Y42.847 E5.47135 F1800.000
G1 X90.842 Y43.015 E5.47629
G1 X92.048 Y43.514 E5.48621
G1 X92.612 Y43.840 E5.49115
G1 X93.751 Y44.719 E5.50209
G1 X109.987 Y58.623 E5.66448
G1 X117.128 Y65.753 E5.74115
G1 X117.349 Y66.005 E5.74370
G1 X117.977 Y66.825 E5.75154
G1 X118.209 Y67.188 E5.75482
G1 X118.702 Y68.350 E5.76440
G1 X118.788 Y68.592 E5.76635
G1 X118.864 Y68.928 E5.76897
G1 X119.026 Y70.214 E5.77882
G1 X119.008 Y70.678 E5.78235
G1 X118.873 Y71.701 E5.79019
G1 X118.811 Y72.016 E5.79263
G1 X118.703 Y72.337 E5.79520
G1 X118.296 Y73.318 E5.80327
G1 X118.132 Y73.636 E5.80599
G1 X117.976 Y73.865 E5.80809
G1 X117.326 Y74.712 E5.81620
G1 X117.128 Y74.935 E5.81847
G1 X110.128 Y81.935 E5.89368
G1 X109.931 Y82.112 E5.89569
G1 X93.565 Y95.327 E6.05551
G1 X92.481 Y96.160 E6.06589
G1 X91.917 Y96.486 E6.07083
G1 X90.711 Y96.985 E6.08075
G1 X90.083 Y97.153 E6.08569
G1 X88.788 Y97.324 E6.09561
G1 X88.463 Y97.345 E6.09809
G1 X58.463 Y97.345 E6.32601
G1 X58.138 Y97.324 E6.32848
G1 X56.844 Y97.153 E6.33840
G1 X56.215 Y96.985 E6.34334
G1 X55.009 Y96.486 E6.35326
G1 X54.446 Y96.160 E6.35820
G1 X53.410 Y95.366 E6.36812
G1 X52.950 Y94.905 E6.37306
G1 X52.155 Y93.870 E6.38298
G1 X51.830 Y93.306 E6.38792
G1 X51.331 Y92.100 E6.39784
G1 X51.162 Y91.472 E6.40278
G1 X50.992 Y90.178 E6.41270
G1 X50.970 Y89.844 E6.41524
G1 X51.102 Y50.139 E6.71689
G1 X51.123 Y49.822 E6.71930
G1 X51.293 Y48.528 E6.72922
G1 X51.462 Y47.900 E6.73416
G1 X51.961 Y46.694 E6.74408
G1 X52.287 Y46.130 E6.74903
G1 X53.035 Y45.154 E6.75837
G1 X53.277 Y45.245 F7800.000
G4 P31
G1 X53.691 Y44.830 E6.76283 F1800.000
G1 X54.662 Y44.085 E6.77212
G1 X55.235 Y43.742 E6.77719
G1 X56.441 Y43.243 E6.78711
G1 X57.007 Y43.091 E6.79157
G1 X58.301 Y42.920 E6.80148
G1 X58.594 Y42.901 E6.80371
G1 X88.594 Y42.901 E7.03163
G1 X88.887 Y42.920 E7.03386
G1 X90.182 Y43.091 E7.04378 F1800.000
G1 X90.748 Y43.243 E7.04824
G1 X91.954 Y43.742 E7.05815
G1 X92.462 Y44.035 E7.06261
G1 X93.591 Y44.906 E7.07344
G1 X109.826 Y58.810 E7.23583
G1 X116.954 Y65.927 E7.31236
G1 X117.153 Y66.155 E7.31466
G1 X117.782 Y66.975 E7.32251
G1 X117.991 Y67.303 E7.32546
G1 X118.474 Y68.444 E7.33488
G1 X118.552 Y68.663 E7.33664
G1 X118.621 Y68.966 E7.33900
G1 X118.780 Y70.226 E7.34866
G1 X118.774 Y70.553 E7.35114
G1 X118.629 Y71.669 E7.35969
G1 X118.572 Y71.953 E7.36189
G1 X118.475 Y72.242 E7.36421
G1 X118.069 Y73.222 E7.37226
G1 X117.922 Y73.508 E7.37471
G1 X117.152 Y74.535 E7.38446
G1 X116.954 Y74.761 E7.38674
G1 X109.777 Y81.920 E7.46376
G1 X93.410 Y95.136 E7.62358
G1 X92.331 Y95.965 E7.63391
G1 X91.823 Y96.258 E7.63837
G1 X90.617 Y96.757 E7.64829
G1 X90.050 Y96.909 E7.65274
G1 X88.756 Y97.080 E7.66266
G1 X88.463 Y97.099 E7.66489
G1 X58.463 Y97.099 E7.89281
G1 X58.170 Y97.080 E7.89504
G1 X56.876 Y96.909 E7.90496
G1 X56.309 Y96.757 E7.90941
G1 X55.103 Y96.258 E7.91933
G1 X54.596 Y95.965 E7.92378
G1 X53.560 Y95.170 E7.93370
G1 X53.145 Y94.755 E7.93815
G1 X52.351 Y93.720 E7.94807
G1 X52.058 Y93.212 E7.95253
G1 X51.558 Y92.006 E7.96244
G1 X51.406 Y91.440 E7.96690
G1 X51.236 Y90.146 E7.97681
G1 X51.217 Y89.845 E7.97910
G1 X51.348 Y50.140 E8.28075
G1 X51.367 Y49.854 E8.28293
G1 X51.538 Y48.560 E8.29285
G1 X51.689 Y47.994 E8.29730
G1 X52.189 Y46.788 E8.30722
G1 X52.482 Y46.280 E8.31167
G1 X53.231 Y45.304 E8.32102
G1 F6240
G1 X53.691 Y44.830 E8.13992
G1 F6240
G1 X54.662 Y44.085 E7.80459
G1 F6240
G1 X55.235 Y43.742 E7.62170
G1 F6240
G1 X56.441 Y43.243 E7.26400
G1 F6240
G1 X57.007 Y43.091 E7.10331
G1 F6240
G1 X58.301 Y42.920 E6.74561
G1 F6240
G1 X58.594 Y42.901 E6.66509
G1 F6240
G1 X59.485 Y42.901 E6.42102
G1 E6.32102 F1800.00000
G92 E0
G1 X60.539 Y91.802 F7800.000
G1 E2.00000 F1800.00000
G1 X59.989 Y92.257 E2.00542 F1800.000
G1 X59.379 Y92.544 E2.01055
G1 X58.647 Y92.695 E2.01623
G1 X57.929 Y92.650 E2.02169
G1 X57.249 Y92.429 E2.02712
G1 X56.648 Y92.047 E2.03253
G1 X56.159 Y91.526 E2.03796
G1 X55.834 Y90.935 E2.04308
G1 X55.638 Y90.214 E2.04876
G1 X55.638 Y89.496 E2.05422
G1 X55.815 Y88.804 E2.05964
G1 X56.159 Y88.179 E2.06506
G1 X56.648 Y87.658 E2.07049
G1 X57.251 Y87.276 E2.07591
G1 X57.929 Y87.055 E2.08133
G1 X58.603 Y87.013 E2.08646 F1800.000
G1 X59.339 Y87.142 E2.09214
G1 X59.989 Y87.448 E2.09760
G1 X60.539 Y87.903 E2.10302
G1 X60.959 Y88.481 E2.10844
G1 X61.221 Y89.144 E2.11387
G1 X61.311 Y89.852 E2.11929
G1 X61.221 Y90.561 E2.12471
G1 X60.959 Y91.224 E2.13014
G1 X60.583 Y91.741 E2.13499
G1 X60.358 Y91.632 F7800.000
G4 P31
G1 X59.856 Y92.047 E2.13994 F1800.000
G1 X59.300 Y92.309 E2.14461
G1 X58.629 Y92.447 E2.14981
G1 X57.976 Y92.406 E2.15478
G1 X57.354 Y92.204 E2.15975
G1 X56.806 Y91.855 E2.16469
G1 X56.360 Y91.380 E2.16964
G1 X56.064 Y90.842 E2.17430
G1 X55.884 Y90.181 E2.17951
G1 X55.884 Y89.527 E2.18448
G1 X56.046 Y88.896 E2.18943
G1 X56.360 Y88.325 E2.19438
G1 X56.806 Y87.850 E2.19933
G1 X57.356 Y87.500 E2.20428
G1 X57.976 Y87.299 E2.20923
G1 X58.589 Y87.260 E2.21390 F1800.000
G1 X59.264 Y87.379 E2.21910
G1 X59.856 Y87.658 E2.22408
G1 X60.358 Y88.073 E2.22903
G1 X60.741 Y88.600 E2.23398
G1 X60.981 Y89.206 E2.23893
G1 X61.063 Y89.852 E2.24388
G1 X60.981 Y90.499 E2.24883
G1 X60.741 Y91.105 E2.25378
G1 X60.402 Y91.571 E2.25816
G1 X60.177 Y91.462 F7800.000
G4 P31
G1 X59.723 Y91.838 E2.26264 F1800.000
G1 X59.222 Y92.073 E2.26684
G1 X58.612 Y92.199 E2.27158
G1 X58.023 Y92.162 E2.27606
G1 X57.460 Y91.979 E2.28055
G1 X56.964 Y91.664 E2.28502
G1 X56.561 Y91.234 E2.28949
G1 X56.294 Y90.749 E2.29370
G1 X56.130 Y90.148 E2.29843
G1 X56.130 Y89.558 E2.30292
G1 X56.277 Y88.987 E2.30740
G1 X56.561 Y88.470 E2.31187
G1 X56.964 Y88.041 E2.31635
G1 X57.462 Y87.725 E2.32083
G1 X58.023 Y87.543 E2.32531
G1 X58.575 Y87.508 E2.32951 F1800.000
G1 X59.189 Y87.616 E2.33425
G1 X59.723 Y87.867 E2.33873
G1 X60.177 Y88.243 E2.34321
G1 X60.523 Y88.720 E2.34769
G1 X60.740 Y89.268 E2.35216
G1 X60.814 Y89.852 E2.35664
G1 X60.740 Y90.437 E2.36112
G1 X60.523 Y90.985 E2.36560
G1 X60.221 Y91.401 E2.36951
G1 X60.301 Y91.946 F7800.000
G1 F6240
G4 P29
G1 X59.723 Y91.838 E2.18802
G1 F6240
G4 P27
G1 X59.222 Y92.073 E2.03626
G1 F6240
G1 X58.612 Y92.199 E1.86559
G1 F6240
G4 P22
G1 X58.023 Y92.162 E1.70377
G1 F6240
G1 X57.460 Y91.979 E1.54175
G1 F6240
G1 X56.964 Y91.664 E1.38072
G1 F6240
G1 X56.561 Y91.234 E1.21923
G1 F6240
G1 X56.294 Y90.749 E1.06747
G1 F6240
G1 X56.130 Y90.148 E0.89680
G1 F6240
G1 X56.130 Y89.558 E0.73498
G1 F6240
G1 X56.277 Y88.987 E0.57347
G1 F6240
G1 X56.460 Y88.654 E0.46951
G1 E0.36951 F1800.00000
G92 E0
G1 X86.233 Y90.134 F7800.000
G1 E2.00000 F1800.00000
G1 X86.233 Y89.571 E2.00428 F1800.000
G1 X86.377 Y89.009 E2.00869
G1 X86.647 Y88.529 E2.01287
G1 X87.030 Y88.120 E2.01713
G1 X87.506 Y87.819 E2.02141
G1 X88.042 Y87.644 E2.02569
G1 X88.574 Y87.611 E2.02974 F1800.000
G1 X89.153 Y87.713 E2.03421
G1 X89.668 Y87.955 E2.03852
G1 X90.102 Y88.314 E2.04280
G1 X90.433 Y88.770 E2.04709
G1 X90.640 Y89.293 E2.05137
G1 X90.711 Y89.852 E2.05565
G1 X90.640 Y90.411 E2.05993
G1 X90.433 Y90.935 E2.06421
G1 X90.102 Y91.391 E2.06849
G1 X89.668 Y91.750 E2.07277
G1 X89.158 Y91.990 E2.07705
G1 X88.604 Y92.096 E2.08133
G1 X88.042 Y92.060 E2.08561
G1 X87.506 Y91.886 E2.08989
G1 X87.030 Y91.584 E2.09417
G1 X86.647 Y91.176 E2.09843
G1 X86.377 Y90.696 E2.10261
G1 X86.252 Y90.207 E2.10645
G1 X86.479 Y90.103 F7800.000
G1 X86.479 Y89.602 E2.11026 F1800.000
G1 X86.608 Y89.101 E2.11418
G1 X86.847 Y88.676 E2.11789
G1 X87.189 Y88.312 E2.12168
G1 X87.612 Y88.043 E2.12549
G1 X88.088 Y87.888 E2.12930
G1 X88.561 Y87.859 E2.13289 F1800.000
G1 X89.078 Y87.950 E2.13689
G1 X89.535 Y88.164 E2.14072
G1 X89.921 Y88.484 E2.14452
G1 X90.215 Y88.889 E2.14833
G1 X90.400 Y89.355 E2.15214
G1 X90.463 Y89.852 E2.15595
G1 X90.400 Y90.350 E2.15976
G1 X90.215 Y90.816 E2.16356
G1 X89.921 Y91.221 E2.16737
G1 X89.535 Y91.541 E2.17118
G1 X89.081 Y91.754 E2.17499
G1 X88.589 Y91.848 E2.17879
G1 X88.088 Y91.817 E2.18260
G1 X87.612 Y91.662 E2.18641
G1 X87.189 Y91.393 E2.19022
G1 X86.847 Y91.029 E2.19401
G1 X86.608 Y90.603 E2.19772
G1 X86.498 Y90.176 E2.20107
G1 X86.726 Y90.072 F7800.000
G1 X86.726 Y89.633 E2.20441 F1800.000
G1 X86.838 Y89.194 E2.20785
G1 X87.047 Y88.823 E2.21109
G1 X87.347 Y88.503 E2.21442
G1 X87.717 Y88.268 E2.21775
G1 X88.135 Y88.132 E2.22109
G1 X88.547 Y88.106 E2.22422 F1800.000
G1 X89.003 Y88.186 E2.22774
G1 X89.401 Y88.374 E2.23109
G1 X89.740 Y88.654 E2.23442
G1 X89.998 Y89.009 E2.23776
G1 X90.159 Y89.417 E2.24109
G1 X90.214 Y89.852 E2.24443
G1 X90.159 Y90.288 E2.24776
G1 X89.998 Y90.696 E2.25110
G1 X89.740 Y91.051 E2.25443
G1 X89.401 Y91.331 E2.25777
G1 X89.004 Y91.518 E2.26110
G1 X88.573 Y91.600 E2.26444
G1 X88.135 Y91.573 E2.26777
G1 X87.717 Y91.437 E2.27111
G1 X87.347 Y91.202 E2.27444
G1 X87.047 Y90.882 E2.27777
G1 X86.838 Y90.511 E2.28101
G1 X86.744 Y90.145 E2.28388
G1 X86.329 Y89.885 F7800.000
G1 F6240
G1 X86.726 Y89.633 E2.14358
G1 F6240
G1 X86.838 Y89.194 E2.01937
G1 F6240
G1 X87.047 Y88.823 E1.90269
G1 F6240
G1 X87.347 Y88.503 E1.78258
G1 F6240
G1 X87.717 Y88.268 E1.66229
G1 F6240
G1 X88.135 Y88.132 E1.54200
G1 E0.28388 F1800.00000
G92 E0
G4 P7
G1 X86.726 Y94.210 F7800.000
G1 E2.00000 F1800.00000
G1 X58.505 Y94.210 E2.21440 F1800.000
G1 X57.337 Y94.056 E2.22335
G1 X56.287 Y93.621 E2.23198
G1 X55.386 Y92.930 E2.24061
G1 X54.694 Y92.028 E2.24924
G1 X54.260 Y90.979 E2.25787
G1 X54.111 Y89.852 E2.26651
G1 X54.260 Y88.726 E2.27514
G1 X54.694 Y87.677 E2.28377
G1 X55.386 Y86.775 E2.29240
G1 X56.287 Y86.084 E2.30103
G1 X57.337 Y85.649 E2.30966
G1 X58.505 Y85.495 E2.31861
G1 X88.421 Y85.495 E2.54589
G1 X89.589 Y85.649 E2.55484
G1 X90.639 Y86.084 E2.56348 F1800.000
G1 X91.540 Y86.775 E2.57211
G1 X92.232 Y87.677 E2.58074
G1 X92.667 Y88.726 E2.58937
G1 X92.815 Y89.852 E2.59800
G1 X92.667 Y90.979 E2.60663
G1 X92.232 Y92.028 E2.61526
G1 X91.540 Y92.930 E2.62389
G1 X90.639 Y93.621 E2.63252
G1 X89.589 Y94.056 E2.64115
G1 X88.421 Y94.210 E2.65011
G1 X86.801 Y94.210 E2.66242
G1 X86.726 Y94.456 F7800.000
G1 X58.489 Y94.456 E2.87694 F1800.000
G1 X57.272 Y94.296 E2.88626
G1 X56.163 Y93.836 E2.89538
G1 X55.210 Y93.105 E2.90451
G1 X54.479 Y92.153 E2.91363
G1 X54.020 Y91.043 E2.92275
G1 X53.863 Y89.852 E2.93188
G1 X54.020 Y88.662 E2.94100
G1 X54.479 Y87.552 E2.95012
G1 X55.210 Y86.600 E2.95925
G1 X56.163 Y85.869 E2.96837
G1 X57.272 Y85.409 E2.97749
G1 X58.489 Y85.249 E2.98682
G1 X88.437 Y85.249 E3.21434
G1 X89.625 Y85.405 E3.22344
G1 X90.763 Y85.869 E3.23278 F1800.000
G1 X91.716 Y86.600 E3.24190
G1 X92.447 Y87.552 E3.25103
G1 X92.907 Y88.662 E3.26015
G1 X93.063 Y89.852 E3.26927
G1 X92.907 Y91.043 E3.27840
G1 X92.447 Y92.153 E3.28752
G1 X91.716 Y93.105 E3.29664
G1 X90.763 Y93.836 E3.30577
G1 X89.654 Y94.296 E3.31489
G1 X88.437 Y94.456 E3.32421
G1 X86.801 Y94.456 E3.33665
G1 X86.726 Y94.702 F7800.000
G1 X58.473 Y94.702 E3.55129 F1800.000
G1 X57.208 Y94.536 E3.56098
G1 X56.039 Y94.052 E3.57060
G1 X55.035 Y93.281 E3.58021
G1 X54.264 Y92.277 E3.58983
G1 X53.780 Y91.107 E3.59945
G1 X53.614 Y89.852 E3.60906
G1 X53.780 Y88.598 E3.61868
G1 X54.264 Y87.428 E3.62830
G1 X55.035 Y86.424 E3.63791
G1 X56.039 Y85.653 E3.64753
G1 X57.208 Y85.169 E3.65714
G1 X58.473 Y85.002 E3.66684
G1 X88.453 Y85.002 E3.89460
G1 X89.657 Y85.161 E3.90383
G1 X89.718 Y85.169 E3.90430 F1800.000
G1 X90.887 Y85.653 E3.91391
G1 X91.892 Y86.424 E3.92353
G1 X92.662 Y87.428 E3.93315
G1 X93.147 Y88.598 E3.94276
G1 X93.312 Y89.852 E3.95238
G1 X93.147 Y91.107 E3.96199
G1 X92.662 Y92.277 E3.97161
G1 X91.892 Y93.281 E3.98123
G1 X90.887 Y94.052 E3.99084
G1 X89.718 Y94.536 E4.00046
G1 X88.453 Y94.702 E4.01015
G1 X86.801 Y94.702 E4.02271
G1 X86.476 Y94.269 F7800.000
G1 F6240
G4 P29
