; generated by Slic3r 1.2.9 on 2017-07-10 at 20:38:44

; external perimeters extrusion width = 0.50mm
; perimeters extrusion width = 0.50mm
; infill extrusion width = 0.50mm
; solid infill extrusion width = 0.50mm
; top infill extrusion width = 0.50mm

M107
M190 S60 ; set bed temperature
M104 S210 ; set temperature
G28 ; home all axes
M109 S210 ; wait for temperature to be reached
G21 ; set units to millimeters
G90 ; use absolute coordinates
M82 ; use absolute distances for extrusion
G92 E0
G1 E-2.00000 F1800.00000
G92 E0
G1 Z0.250 F7800.000
G1 X66.917 Y45.183 F7800.000
G1 E2.00000 F1800.00000
M204 S3000
G1 X67.553 Y44.354 E2.00793 F1800.000
G1 X68.104 Y43.803 E2.01385
G1 X68.933 Y43.167 E2.02179
G1 X69.607 Y42.778 E2.02771
G1 X70.572 Y42.378 E2.03564
G1 X71.325 Y42.176 E2.04156
G1 X72.361 Y42.040 E2.04950
G1 X72.750 Y42.015 E2.05246
G1 X97.445 Y42.021 E2.24008
G1 X97.968 Y42.055 E2.24406 F1800.000
G1 X98.355 Y42.106 E2.24702
G1 X98.868 Y42.208 E2.25100
G1 X99.245 Y42.309 E2.25396
G1 X99.733 Y42.475 E2.25788
G1 X100.101 Y42.627 E2.26090
G1 X100.570 Y42.858 E2.26488
G1 X100.909 Y43.054 E2.26785
G1 X101.344 Y43.344 E2.27182
G1 X101.653 Y43.582 E2.27479
G1 X102.047 Y43.927 E2.27876
G1 X102.323 Y44.203 E2.28173
G1 X102.668 Y44.597 E2.28570
G1 X102.906 Y44.906 E2.28867
G1 X103.196 Y45.341 E2.29265
G1 X103.392 Y45.680 E2.29561
G1 X103.623 Y46.149 E2.29959
G1 X103.772 Y46.510 E2.30256
G1 X103.941 Y47.005 E2.30653
G1 X104.042 Y47.382 E2.30950
G1 X104.144 Y47.895 E2.31347
G1 X104.195 Y48.283 E2.31644
G1 X104.235 Y49.000 E2.32190
G1 X104.235 Y91.000 E2.64098
G1 X104.195 Y91.717 E2.64644
G1 X104.144 Y92.105 E2.64941
G1 X104.042 Y92.618 E2.65338
G1 X103.941 Y92.995 E2.65635
G1 X103.772 Y93.490 E2.66032
G1 X103.623 Y93.851 E2.66329
G1 X103.392 Y94.321 E2.66727
G1 X103.196 Y94.659 E2.67023
G1 X102.906 Y95.094 E2.67421
G1 X102.668 Y95.403 E2.67718
G1 X102.323 Y95.797 E2.68115
G1 X102.047 Y96.073 E2.68412
G1 X101.653 Y96.418 E2.68809
G1 X101.344 Y96.656 E2.69106
G1 X100.909 Y96.946 E2.69503
G1 X100.570 Y97.142 E2.69800
G1 X100.108 Y97.369 E2.70191
G1 X99.741 Y97.522 E2.70494
G1 X99.245 Y97.691 E2.70892
G1 X98.868 Y97.792 E2.71188
G1 X98.354 Y97.894 E2.71586
G1 X97.967 Y97.945 E2.71883
G1 X97.250 Y97.985 E2.72429
G1 X72.750 Y97.985 E2.91042
G1 X72.360 Y97.960 E2.91338
G1 X71.325 Y97.824 E2.92132
G1 X70.572 Y97.622 E2.92724
G1 X69.608 Y97.222 E2.93517
G1 X68.933 Y96.833 E2.94109
G1 X68.104 Y96.197 E2.94903
G1 X67.553 Y95.646 E2.95495
G1 X66.917 Y94.817 E2.96288
G1 X66.528 Y94.142 E2.96880
G1 X66.128 Y93.178 E2.97673
G1 X65.926 Y92.425 E2.98266
G1 X65.790 Y91.389 E2.99059
G1 X65.765 Y91.000 E2.99356
G1 X65.765 Y49.000 E3.31264
G1 X65.790 Y48.610 E3.31561
G1 X65.926 Y47.575 E3.32354
G1 X66.128 Y46.822 E3.32946
G1 X66.528 Y45.858 E3.33739
G1 X66.880 Y45.248 E3.34274
G1 X67.113 Y45.333 F7800.000
G4 P31
G1 X67.749 Y44.504 E3.35068 F1800.000
G1 X68.254 Y43.999 E3.35611
G1 X69.083 Y43.363 E3.36405
G1 X69.702 Y43.005 E3.36947
G1 X70.667 Y42.606 E3.37741
G1 X71.357 Y42.421 E3.38284
G1 X72.393 Y42.284 E3.39078
G1 X72.750 Y42.261 E3.39350
G1 X97.429 Y42.267 E3.58099
G1 X97.952 Y42.301 E3.58497 F1800.000
G1 X98.306 Y42.348 E3.58769
G1 X98.820 Y42.450 E3.59166
G1 X99.166 Y42.543 E3.59438
G1 X99.653 Y42.708 E3.59830
G1 X99.992 Y42.848 E3.60108
G1 X100.461 Y43.079 E3.60506
G1 X100.772 Y43.258 E3.60778
G1 X101.207 Y43.549 E3.61175
G1 X101.491 Y43.767 E3.61448
G1 X101.884 Y44.112 E3.61845
G1 X102.138 Y44.366 E3.62117
G1 X102.483 Y44.759 E3.62515
G1 X102.701 Y45.043 E3.62787
G1 X102.992 Y45.478 E3.63185
G1 X103.171 Y45.789 E3.63457
G1 X103.402 Y46.258 E3.63854
G1 X103.539 Y46.589 E3.64126
G1 X103.707 Y47.084 E3.64524
G1 X103.800 Y47.430 E3.64796
G1 X103.902 Y47.944 E3.65194
G1 X103.949 Y48.299 E3.65466
G1 X103.989 Y49.000 E3.65999
G1 X103.989 Y91.000 E3.97908
G1 X103.949 Y91.701 E3.98442
G1 X103.902 Y92.056 E3.98714
G1 X103.800 Y92.570 E3.99111
G1 X103.707 Y92.916 E3.99383
G1 X103.539 Y93.411 E3.99781
G1 X103.402 Y93.742 E4.00053
G1 X103.171 Y94.212 E4.00451
G1 X102.992 Y94.522 E4.00723
G1 X102.701 Y94.957 E4.01120
G1 X102.483 Y95.241 E4.01393
G1 X102.138 Y95.635 E4.01790
G1 X101.884 Y95.888 E4.02062
G1 X101.491 Y96.233 E4.02460
G1 X101.207 Y96.451 E4.02732
G1 X100.772 Y96.742 E4.03129
G1 X100.461 Y96.921 E4.03402
G1 X100.000 Y97.148 E4.03793
G1 X99.661 Y97.289 E4.04071
G1 X99.166 Y97.457 E4.04469
G1 X98.820 Y97.550 E4.04741
G1 X98.306 Y97.652 E4.05139
G1 X97.951 Y97.699 E4.05411
G1 X97.250 Y97.739 E4.05944
G1 X72.750 Y97.739 E4.24558
G1 X72.392 Y97.716 E4.24830
G1 X71.357 Y97.579 E4.25623
G1 X70.667 Y97.394 E4.26166
G1 X69.702 Y96.995 E4.26960
G1 X69.083 Y96.637 E4.27503
G1 X68.254 Y96.001 E4.28296
G1 X67.749 Y95.496 E4.28839
G1 X67.113 Y94.667 E4.29633
G1 X66.755 Y94.048 E4.30176
G1 X66.356 Y93.083 E4.30969
G1 X66.171 Y92.393 E4.31513
G1 X66.034 Y91.357 E4.32306
G1 X66.011 Y91.000 E4.32578
G1 X66.011 Y49.000 E4.64487
G1 X66.034 Y48.643 E4.64759
G1 X66.171 Y47.607 E4.65552
G1 X66.356 Y46.917 E4.66095
G1 X66.755 Y45.952 E4.66889
G1 X67.075 Y45.398 E4.67375
G1 X67.308 Y45.483 F7800.000
G4 P31
G1 X67.944 Y44.654 E4.68168 F1800.000
G1 X68.404 Y44.194 E4.68663
G1 X69.233 Y43.558 E4.69456
G1 X69.796 Y43.233 E4.69950
G1 X70.761 Y42.833 E4.70744
G1 X71.389 Y42.665 E4.71238
G1 X72.425 Y42.529 E4.72031
G1 X72.750 Y42.507 E4.72279
G1 X97.413 Y42.513 E4.91016
G1 X97.936 Y42.547 E4.91414 F1800.000
G1 X98.258 Y42.589 E4.91661
G1 X98.772 Y42.692 E4.92059
G1 X99.087 Y42.776 E4.92307
G1 X99.574 Y42.941 E4.92698
G1 X99.883 Y43.069 E4.92952
G1 X100.352 Y43.300 E4.93349
G1 X100.635 Y43.463 E4.93597
G1 X101.070 Y43.754 E4.93995
G1 X101.329 Y43.952 E4.94242
G1 X101.722 Y44.297 E4.94640
G1 X101.953 Y44.528 E4.94887
G1 X102.298 Y44.921 E4.95285
G1 X102.496 Y45.180 E4.95533
G1 X102.787 Y45.615 E4.95930
G1 X102.950 Y45.897 E4.96178
G1 X103.181 Y46.367 E4.96575
G1 X103.306 Y46.668 E4.96823
G1 X103.474 Y47.163 E4.97221
G1 X103.559 Y47.478 E4.97468
G1 X103.661 Y47.992 E4.97866
G1 X103.703 Y48.315 E4.98114
G1 X103.743 Y49.000 E4.98635
G1 X103.743 Y91.000 E5.30543
G1 X103.703 Y91.685 E5.31065
G1 X103.661 Y92.008 E5.31313
G1 X103.559 Y92.522 E5.31710
G1 X103.474 Y92.837 E5.31958
G1 X103.306 Y93.332 E5.32355
G1 X103.181 Y93.633 E5.32603
G1 X102.950 Y94.103 E5.33001
G1 X102.787 Y94.385 E5.33248
G1 X102.496 Y94.820 E5.33646
G1 X102.298 Y95.079 E5.33893
G1 X101.952 Y95.472 E5.34291
G1 X101.722 Y95.703 E5.34539
G1 X101.329 Y96.048 E5.34936
G1 X101.070 Y96.246 E5.35184
G1 X100.635 Y96.537 E5.35581
G1 X100.352 Y96.700 E5.35829
G1 X99.891 Y96.928 E5.36220
G1 X99.582 Y97.056 E5.36474
G1 X99.087 Y97.224 E5.36872
G1 X98.772 Y97.309 E5.37120
G1 X98.258 Y97.411 E5.37517
G1 X97.935 Y97.453 E5.37765
G1 X97.250 Y97.493 E5.38286
G1 X72.750 Y97.493 E5.56899
G1 X72.425 Y97.471 E5.57147
G1 X71.389 Y97.335 E5.57940
G1 X70.761 Y97.167 E5.58435
G1 X69.796 Y96.767 E5.59228
G1 X69.233 Y96.442 E5.59723
G1 X68.404 Y95.806 E5.60516
G1 X67.944 Y95.346 E5.61010
G1 X67.308 Y94.517 E5.61804
G1 X66.983 Y93.954 E5.62298
G1 X66.583 Y92.989 E5.63091
G1 X66.415 Y92.361 E5.63586
G1 X66.279 Y91.325 E5.64379
G1 X66.257 Y91.000 E5.64627
G1 X66.257 Y49.000 E5.96535
G1 X66.279 Y48.675 E5.96783
G1 X66.415 Y47.639 E5.97576
G1 X66.583 Y47.011 E5.98070
G1 X66.983 Y46.046 E5.98864
G1 X67.271 Y45.548 E5.99301
G1 X67.504 Y45.633 F7800.000
G4 P31
G1 X68.139 Y44.804 E6.00095 F1800.000
G1 X68.554 Y44.389 E6.00540
G1 X69.383 Y43.754 E6.01334
G1 X69.890 Y43.461 E6.01779
G1 X70.855 Y43.061 E6.02572
G1 X71.422 Y42.909 E6.03018
G1 X72.457 Y42.773 E6.03811
G1 X72.750 Y42.754 E6.04034
G1 X97.397 Y42.758 E6.22759
G1 X97.919 Y42.793 E6.23157 F1800.000
G1 X98.724 Y42.933 E6.23777
G1 X99.495 Y43.175 E6.24391
G1 X99.774 Y43.290 E6.24621
G1 X100.244 Y43.521 E6.25018
G1 X100.933 Y43.959 E6.25639
G1 X101.166 Y44.138 E6.25862
G1 X101.767 Y44.690 E6.26482
G1 X102.291 Y45.317 E6.27103
G1 X102.582 Y45.752 E6.27500
G1 X102.960 Y46.476 E6.28121
G1 X103.073 Y46.747 E6.28344
G1 X103.241 Y47.243 E6.28741
G1 X103.419 Y48.040 E6.29362
G1 X103.457 Y48.331 E6.29585
G1 X103.496 Y49.000 E6.30094
G1 X103.496 Y91.000 E6.62003
G1 X103.457 Y91.669 E6.62512
G1 X103.317 Y92.474 E6.63132
G1 X103.241 Y92.757 E6.63356
G1 X102.960 Y93.524 E6.63976
G1 X102.729 Y93.994 E6.64374
G1 X102.291 Y94.683 E6.64994
G1 X101.767 Y95.310 E6.65615
G1 X101.166 Y95.862 E6.66235
G1 X100.933 Y96.041 E6.66458
G1 X100.498 Y96.332 E6.66856
G1 X99.782 Y96.707 E6.67470
G1 X99.503 Y96.823 E6.67699
G1 X99.007 Y96.991 E6.68097
G1 X98.724 Y97.067 E6.68320
G1 X97.919 Y97.207 E6.68940
G1 X97.250 Y97.246 E6.69450
G1 X72.750 Y97.246 E6.88063
G1 X72.457 Y97.227 E6.88286
G1 X71.422 Y97.091 E6.89079
G1 X70.855 Y96.939 E6.89525
G1 X69.890 Y96.539 E6.90318
G1 X69.383 Y96.246 E6.90764
G1 X68.554 Y95.610 E6.91557
G1 X68.139 Y95.196 E6.92003
G1 X67.504 Y94.367 E6.92796
G1 X67.211 Y93.860 E6.93241
G1 X66.811 Y92.895 E6.94035
G1 X66.659 Y92.328 E6.94480
G1 X66.523 Y91.293 E6.95274
G1 X66.504 Y91.000 E6.95497
G1 X66.504 Y49.000 E7.27405
G1 X66.523 Y48.707 E7.27629
G1 X66.659 Y47.671 E7.28422
G1 X66.811 Y47.105 E7.28867
G1 X67.211 Y46.140 E7.29661
G1 X67.466 Y45.697 E7.30049
G1 F6240
G1 X68.139 Y44.804 E6.99395
G1 F6240
G1 X68.554 Y44.389 E6.83325
G1 F6240
G1 X69.383 Y43.754 E6.54701
G1 F6240
G1 X69.890 Y43.461 E6.38646
G1 F6240
G1 X70.855 Y43.061 E6.10023
G1 F6240
G1 X71.422 Y42.909 E5.93953
G1 F6240
G1 X72.457 Y42.773 E5.65332
G1 F6240
G1 X72.750 Y42.754 E5.57286
G1 F6240
G1 X73.379 Y42.754 E5.40049
G1 E5.30049 F1800.00000
G92 E0
G1 X99.284 Y91.805 F7800.000
G1 E2.00000 F1800.00000
G1 X99.020 Y92.286 E2.00417 F1800.000
G1 X98.645 Y92.686 E2.00833
G1 X98.182 Y92.980 E2.01250
G1 X97.660 Y93.149 E2.01667
G1 X97.113 Y93.183 E2.02083
G1 X96.574 Y93.081 E2.02500
G1 X96.078 Y92.847 E2.02916
G1 X95.655 Y92.498 E2.03333
G1 X95.333 Y92.054 E2.03750
G1 X95.131 Y91.544 E2.04166
G1 X95.062 Y91.000 E2.04583
G1 X95.131 Y90.456 E2.05000
G1 X95.333 Y89.946 E2.05416
G1 X95.655 Y89.502 E2.05833
G1 X96.078 Y89.153 E2.06250
G1 X96.574 Y88.919 E2.06666
G1 X97.113 Y88.817 E2.07083 F1800.000
G1 X97.660 Y88.851 E2.07500
G1 X98.182 Y89.020 E2.07916
G1 X98.645 Y89.314 E2.08333
G1 X99.020 Y89.714 E2.08749
G1 X99.284 Y90.195 E2.09166
G1 X99.421 Y90.726 E2.09583
G1 X99.421 Y91.274 E2.09999
G1 X99.303 Y91.733 E2.10359
G1 X99.053 Y91.714 F7800.000
G4 P31
G1 X98.819 Y92.140 E2.10728 F1800.000
G1 X98.486 Y92.494 E2.11098
G1 X98.076 Y92.755 E2.11467
G1 X97.613 Y92.905 E2.11836
G1 X97.128 Y92.936 E2.12206
G1 X96.651 Y92.845 E2.12575
G1 X96.211 Y92.638 E2.12944
G1 X95.836 Y92.328 E2.13314
G1 X95.550 Y91.934 E2.13683
G1 X95.371 Y91.482 E2.14053
G1 X95.311 Y91.000 E2.14422
G1 X95.371 Y90.518 E2.14791
G1 X95.550 Y90.066 E2.15161
G1 X95.836 Y89.672 E2.15530
G1 X96.211 Y89.362 E2.15899
G1 X96.651 Y89.155 E2.16269
G1 X97.128 Y89.064 E2.16638 F1800.000
G1 X97.613 Y89.095 E2.17007
G1 X98.076 Y89.245 E2.17377
G1 X98.486 Y89.506 E2.17746
G1 X98.819 Y89.860 E2.18115
G1 X99.053 Y90.286 E2.18485
G1 X99.174 Y90.757 E2.18854
G1 X99.174 Y91.243 E2.19223
G1 X99.072 Y91.641 E2.19536
G1 X98.822 Y91.623 F7800.000
G4 P31
G1 X98.618 Y91.994 E2.19858 F1800.000
G1 X98.328 Y92.303 E2.20180
G1 X97.970 Y92.530 E2.20502
G1 X97.567 Y92.661 E2.20824
G1 X97.144 Y92.688 E2.21146
G1 X96.727 Y92.608 E2.21468
G1 X96.344 Y92.428 E2.21790
G1 X96.017 Y92.158 E2.22112
G1 X95.768 Y91.815 E2.22434
G1 X95.612 Y91.421 E2.22756
G1 X95.559 Y91.000 E2.23079
G1 X95.612 Y90.579 E2.23401
G1 X95.768 Y90.185 E2.23723
G1 X96.017 Y89.842 E2.24045
G1 X96.344 Y89.572 E2.24367
G1 X96.727 Y89.392 E2.24689
G1 X97.144 Y89.312 E2.25011 F1800.000
G1 X97.567 Y89.339 E2.25333
G1 X97.970 Y89.470 E2.25655
G1 X98.328 Y89.697 E2.25977
G1 X98.618 Y90.006 E2.26299
G1 X98.822 Y90.377 E2.26621
G1 X98.928 Y90.788 E2.26943
G1 X98.928 Y91.212 E2.27265
G1 X98.841 Y91.550 E2.27530
G4 P21
G1 X99.072 Y91.966 F7800.000
G1 F6240
G4 P29
G1 X98.618 Y91.994 E2.13913
G1 F6240
G1 X98.328 Y92.303 E2.02296
G1 F6240
G1 X97.970 Y92.530 E1.90679
G1 F6240
G1 X97.567 Y92.661 E1.79062
G1 F6240
G1 X97.144 Y92.688 E1.67445
G1 F6240
G1 X96.727 Y92.608 E1.55827
G1 F6240
G1 X96.344 Y92.428 E1.44210
G1 F6240
G1 X96.017 Y92.158 E1.32593
G1 F6240
G1 X95.768 Y91.815 E1.20976
G1 F6240
G1 X95.612 Y91.421 E1.09359
G1 F6240
G1 X95.559 Y91.000 E0.97742
G1 F6240
G1 X95.612 Y90.579 E0.86125
G1 F6240
G1 X95.768 Y90.185 E0.74508
G1 F6240
G1 X96.017 Y89.842 E0.62891
G1 F6240
G1 X96.344 Y89.572 E0.51273
G1 F6240
G1 X96.727 Y89.392 E0.39656
G1 E0.27530 F1800.00000
G92 E0
G1 X97.660 Y79.149 F7800.000
G1 E2.00000 F1800.00000
G1 X97.113 Y79.183 E2.00417 F1800.000
G4 P15
G1 X96.574 Y79.081 E2.00833
G1 X96.078 Y78.847 E2.01250
G1 X95.655 Y78.498 E2.01667
G1 X95.333 Y78.054 E2.02083
G1 X95.131 Y77.544 E2.02500
G1 X95.062 Y77.000 E2.02916
G1 X95.131 Y76.456 E2.03333
G1 X95.333 Y75.946 E2.03750
G1 X95.655 Y75.502 E2.04166
G1 X96.078 Y75.153 E2.04583
G1 X96.574 Y74.919 E2.05000
G1 X97.113 Y74.817 E2.05416 F1800.000
G1 X97.660 Y74.851 E2.05833
G1 X98.182 Y75.020 E2.06250
G1 X98.645 Y75.314 E2.06666
G1 X99.020 Y75.714 E2.07083
G1 X99.284 Y76.195 E2.07500
G1 X99.421 Y76.726 E2.07916
G1 X99.421 Y77.274 E2.08333
G1 X99.284 Y77.805 E2.08749
G1 X99.020 Y78.286 E2.09166
G1 X98.645 Y78.686 E2.09583
G1 X98.182 Y78.980 E2.09999
G1 X97.731 Y79.126 E2.10359
G1 X97.613 Y78.905 F7800.000
G4 P31
G1 X97.128 Y78.936 E2.10728 F1800.000
G4 P17
G1 X96.651 Y78.845 E2.11098
G1 X96.211 Y78.638 E2.11467
G1 X95.836 Y78.328 E2.11836
G1 X95.550 Y77.934 E2.12206
G1 X95.371 Y77.482 E2.12575
G1 X95.311 Y77.000 E2.12944
G1 X95.371 Y76.518 E2.13314
G1 X95.550 Y76.066 E2.13683
G1 X95.836 Y75.672 E2.14053
G1 X96.211 Y75.362 E2.14422
G1 X96.651 Y75.155 E2.14791
G1 X97.128 Y75.064 E2.15161 F1800.000
G1 X97.613 Y75.095 E2.15530
G1 X98.076 Y75.245 E2.15899
G1 X98.486 Y75.506 E2.16269
G1 X98.819 Y75.860 E2.16638
G1 X99.053 Y76.286 E2.17007
G1 X99.174 Y76.757 E2.17377
G1 X99.174 Y77.243 E2.17746
G1 X99.053 Y77.714 E2.18115
G1 X98.819 Y78.140 E2.18485
G1 X98.486 Y78.494 E2.18854
G1 X98.076 Y78.755 E2.19223
G1 X97.685 Y78.882 E2.19536
G1 X97.567 Y78.661 F7800.000
G4 P31
G1 X97.144 Y78.688 E2.19858 F1800.000
G4 P19
G1 X96.727 Y78.608 E2.20180
G1 X96.344 Y78.428 E2.20502
G1 X96.017 Y78.158 E2.20824
G1 X95.768 Y77.815 E2.21146
G1 X95.612 Y77.421 E2.21468
G1 X95.559 Y77.000 E2.21790
G1 X95.612 Y76.579 E2.22112
G1 X95.768 Y76.185 E2.22434
G1 X96.017 Y75.842 E2.22756
G1 X96.344 Y75.572 E2.23079
G1 X96.727 Y75.392 E2.23401
G1 X97.144 Y75.312 E2.23723 F1800.000
G1 X97.567 Y75.339 E2.24045
G1 X97.970 Y75.470 E2.24367
G1 X98.328 Y75.697 E2.24689
G1 X98.618 Y76.006 E2.25011
G1 X98.822 Y76.377 E2.25333
G1 X98.928 Y76.788 E2.25655
G1 X98.928 Y77.212 E2.25977
G1 X98.822 Y77.623 E2.26299
G1 X98.618 Y77.994 E2.26621
G1 X98.328 Y78.303 E2.26943
G1 X97.970 Y78.530 E2.27265
G1 X97.638 Y78.638 E2.27530
G1 X97.411 Y79.055 F7800.000
G1 F6240
G1 X97.144 Y78.688 E2.13913
G1 F6240
G1 X96.727 Y78.608 E2.02296
G1 F6240
G1 X96.344 Y78.428 E1.90679
G1 F6240
G1 X96.017 Y78.158 E1.79062
G1 F6240
G1 X95.768 Y77.815 E1.67445
G1 F6240
G1 X95.612 Y77.421 E1.55828
G1 F6240
G1 X95.559 Y77.000 E1.44210
G1 F6240
G1 X95.612 Y76.579 E1.32593
G1 F6240
G1 X95.768 Y76.185 E1.20976
G1 F6240
G1 X96.017 Y75.842 E1.09359
G1 F6240
G1 X96.344 Y75.572 E0.97742
G1 F6240
G1 X96.727 Y75.392 E0.86125
G1 E0.27530 F1800.00000
G92 E0
G1 X100.607 Y78.661 F7800.000
G1 E2.00000 F1800.00000
G1 X100.607 Y90.979 E2.09358 F1800.000
G1 X100.577 Y91.438 E2.09708
G1 X100.492 Y91.869 E2.10041
G1 X100.350 Y92.284 E2.10375
G1 X100.156 Y92.678 E2.10708
G1 X99.912 Y93.043 E2.11042
G1 X99.623 Y93.373 E2.11375
G1 X99.293 Y93.662 E2.11709
G1 X98.928 Y93.906 E2.12042
G1 X98.534 Y94.100 E2.12376
G1 X98.119 Y94.242 E2.12709
G1 X97.688 Y94.327 E2.13043
G1 X97.250 Y94.356 E2.13376
G1 X96.812 Y94.327 E2.13710
G1 X96.381 Y94.242 E2.14043
G1 X95.973 Y94.103 E2.14371
G1 X95.571 Y93.906 E2.14711
G1 X95.207 Y93.662 E2.15044
G1 X94.877 Y93.373 E2.15377
G1 X94.588 Y93.043 E2.15711
G1 X94.344 Y92.678 E2.16044
G1 X94.150 Y92.284 E2.16378
G1 X94.008 Y91.869 E2.16711
G1 X93.923 Y91.438 E2.17045
G1 X93.893 Y90.979 E2.17394
G1 X93.893 Y77.021 E2.27998
G1 X93.923 Y76.562 E2.28348
