; generated by Slic3r 1.2.9 on 2017-07-15 at 23:10:06

; external perimeters extrusion width = 0.50mm
; perimeters extrusion width = 0.50mm
; infill extrusion width = 0.50mm
; solid infill extrusion width = 0.50mm
; top infill extrusion width = 0.50mm

M107
M190 S70 ; set bed temperature
M104 S218 ; set temperature
G28 ; home all axes
M109 S218 ; wait for temperature to be reached
G21 ; set units to millimeters
G90 ; use absolute coordinates
M82 ; use absolute distances for extrusion
G92 E0
G1 E-2.00000 F1800.00000
G92 E0
G1 Z0.250 F9600.000
G1 X39.212 Y54.141 F9600.000
G1 E2.00000 F1800.00000
M204 S600
G1 X40.451 Y53.425 E2.02204 F1800.000
G1 X41.657 Y52.926 E2.04215
G1 X43.040 Y52.555 E2.06420
G1 X44.334 Y52.385 E2.08431
G1 X45.049 Y52.338 E2.09535
G1 X125.049 Y52.338 E3.32773
G1 X125.765 Y52.385 E3.33878
G1 X127.059 Y52.555 E3.35889 F1800.000
G1 X128.441 Y52.926 E3.38093
G1 X129.647 Y53.425 E3.40104
G1 X130.886 Y54.141 E3.42308
G1 X131.922 Y54.935 E3.44319
G1 X132.934 Y55.947 E3.46523
G1 X133.728 Y56.983 E3.48534
G1 X134.444 Y58.222 E3.50739
G1 X134.943 Y59.428 E3.52750
G1 X135.314 Y60.810 E3.54954
G1 X135.484 Y62.104 E3.56965
G1 X135.531 Y62.820 E3.58069
G1 X135.531 Y67.820 E3.65772
G1 X135.432 Y82.218 E3.87952
G1 X135.022 Y84.262 E3.91163
G1 X133.878 Y86.004 E3.94375
G1 X132.167 Y87.194 E3.97586
G1 X129.951 Y87.662 E4.01075
G1 X39.951 Y87.662 E5.39718
G1 X37.904 Y87.266 E5.42929
G1 X36.154 Y86.134 E5.46140
G1 X34.952 Y84.431 E5.49351
G1 X34.469 Y82.180 E5.52897
G1 X34.469 Y77.143 E5.60657
G1 X34.568 Y62.782 E5.82780
G1 X34.614 Y62.104 E5.83827
G1 X34.785 Y60.810 E5.85838
G1 X35.155 Y59.428 E5.88042
G1 X35.655 Y58.222 E5.90053
G1 X36.370 Y56.983 E5.92257
G1 X37.165 Y55.947 E5.94268
G1 X38.177 Y54.935 E5.96472
G1 X39.153 Y54.186 E5.98367
G1 X39.514 Y54.534 F9600.000
G4 P30
G1 X40.641 Y53.884 E6.00372 F1800.000
G1 X41.847 Y53.384 E6.02383
G1 X43.104 Y53.047 E6.04388
G1 X44.399 Y52.877 E6.06399
G1 X45.049 Y52.834 E6.07403
G1 X125.049 Y52.834 E7.30641
G1 X125.700 Y52.877 E7.31646
G1 X126.994 Y53.047 E7.33657 F1800.000
G1 X128.251 Y53.384 E7.35662
G1 X129.457 Y53.884 E7.37672
G1 X130.584 Y54.534 E7.39677
G1 X131.620 Y55.329 E7.41688
G1 X132.540 Y56.249 E7.43693
G1 X133.334 Y57.285 E7.45704
G1 X133.985 Y58.412 E7.47708
G1 X134.485 Y59.618 E7.49719
G1 X134.822 Y60.875 E7.51724
G1 X134.992 Y62.169 E7.53735
G1 X135.035 Y62.820 E7.54739
G1 X135.035 Y67.820 E7.62442
G1 X134.936 Y82.214 E7.84617
G1 X134.527 Y84.159 E7.87678
G1 X133.391 Y85.789 E7.90739
G1 X131.708 Y86.846 E7.93800
G1 X129.951 Y87.166 E7.96551
G1 X39.951 Y87.166 E9.35194
G1 X38.004 Y86.770 E9.38255
G1 X36.366 Y85.645 E9.41316
G1 X35.297 Y83.969 E9.44377
G1 X34.965 Y82.180 E9.47180
G1 X34.966 Y77.146 E9.54935
G1 X35.064 Y62.786 E9.77058
G1 X35.106 Y62.169 E9.78010
G1 X35.277 Y60.875 E9.80021
G1 X35.614 Y59.618 E9.82026
G1 X36.113 Y58.412 E9.84036
G1 X36.764 Y57.285 E9.86041
G1 X37.558 Y56.249 E9.88052
G1 X38.479 Y55.329 E9.90057
G1 X39.455 Y54.580 E9.91952
G1 X39.816 Y54.928 F9600.000
G4 P30
G1 X40.831 Y54.342 E9.93757 F1800.000
G1 X42.037 Y53.843 E9.95768
G1 X43.169 Y53.539 E9.97573
G1 X44.463 Y53.369 E9.99584
G1 X45.049 Y53.331 E10.00489
G1 X125.049 Y53.331 E11.23727
G1 X125.635 Y53.369 E11.24631
G1 X126.929 Y53.539 E11.26642 F1800.000
G1 X128.061 Y53.843 E11.28447
G1 X129.267 Y54.342 E11.30458
G1 X130.282 Y54.928 E11.32263
G1 X131.318 Y55.723 E11.34274
G1 X132.146 Y56.551 E11.36079
G1 X132.941 Y57.587 E11.38090
G1 X133.527 Y58.602 E11.39895
G1 X134.026 Y59.808 E11.41906
G1 X134.329 Y60.940 E11.43711
G1 X134.500 Y62.234 E11.45722
G1 X134.538 Y62.820 E11.46627
G1 X134.538 Y67.850 E11.54376
G1 X134.440 Y82.211 E11.76499
G1 X134.032 Y84.051 E11.79402
G1 X132.904 Y85.561 E11.82305
G1 X131.257 Y86.475 E11.85208
G1 X129.951 Y86.669 E11.87242
G1 X39.951 Y86.669 E13.25885
G1 X38.108 Y86.274 E13.28788
G1 X36.591 Y85.157 E13.31691
G1 X35.665 Y83.515 E13.34594
G1 X35.462 Y82.180 E13.36674
G1 X35.462 Y77.150 E13.44424
G1 X35.560 Y62.789 E13.66547
G1 X35.599 Y62.234 E13.67404
G1 X35.769 Y60.940 E13.69415
G1 X36.072 Y59.808 E13.71220
G1 X36.572 Y58.602 E13.73231
G1 X37.158 Y57.587 E13.75036
G1 X37.952 Y56.551 E13.77047
G1 X38.781 Y55.723 E13.78852
G1 X39.757 Y54.974 E13.80747
G1 X40.119 Y55.322 F9600.000
G4 P30
G1 X41.021 Y54.801 E13.82353 F1800.000
G1 X42.227 Y54.301 E13.84363
G1 X43.234 Y54.031 E13.85969
G1 X44.528 Y53.861 E13.87980
G1 X45.049 Y53.827 E13.88784
G1 X125.049 Y53.827 E15.12023
G1 X125.570 Y53.861 E15.12827
G1 X126.864 Y54.031 E15.14838 F1800.000
G1 X127.871 Y54.301 E15.16443
G1 X129.002 Y54.770 E15.18329
G1 X129.980 Y55.322 E15.20059
G1 X131.015 Y56.117 E15.22070
G1 X131.752 Y56.853 E15.23675
G1 X132.547 Y57.889 E15.25686
G1 X133.068 Y58.792 E15.27292
G1 X133.568 Y59.998 E15.29302
G1 X133.837 Y61.004 E15.30908
G1 X134.008 Y62.299 E15.32919
G1 X134.042 Y62.820 E15.33723
G1 X134.042 Y67.847 E15.41468
G1 X133.943 Y82.208 E15.63591
G1 X133.537 Y83.936 E15.66327
G1 X132.420 Y85.318 E15.69062
G1 X129.951 Y86.173 E15.73088
G1 X39.951 Y86.173 E17.11731
G1 X38.219 Y85.778 E17.14467
G1 X36.830 Y84.671 E17.17203
G1 X36.059 Y83.072 E17.19939
G1 X35.958 Y82.180 E17.21321
G1 X35.958 Y77.153 E17.29065
G1 X36.057 Y62.792 E17.51188
G1 X36.091 Y62.299 E17.51950
G1 X36.261 Y61.004 E17.53961
G1 X36.531 Y59.998 E17.55567
G1 X37.030 Y58.792 E17.57578
G1 X37.551 Y57.889 E17.59183
G1 X38.346 Y56.854 E17.61194
G1 X39.083 Y56.117 E17.62800
G1 X40.059 Y55.368 E17.64695
G1 X40.421 Y55.716 F9600.000
G4 P30
G1 X41.211 Y55.259 E17.66101 F1800.000
G1 X42.417 Y54.760 E17.68112
G1 X43.299 Y54.524 E17.69518
G1 X44.593 Y54.353 E17.71528
G1 X45.049 Y54.323 E17.72233
G1 X125.049 Y54.323 E18.95471
G1 X125.506 Y54.353 E18.96176
G1 X126.800 Y54.524 E18.98186 F1800.000
G1 X127.681 Y54.760 E18.99592
G1 X128.887 Y55.259 E19.01603
G1 X129.678 Y55.716 E19.03009
G1 X130.713 Y56.510 E19.05020
G1 X131.359 Y57.156 E19.06426
G1 X132.153 Y58.191 E19.08437
G1 X132.610 Y58.982 E19.09843
G1 X133.109 Y60.188 E19.11854
G1 X133.345 Y61.069 E19.13260
G1 X133.516 Y62.363 E19.15270
G1 X133.546 Y62.820 E19.15975
G1 X133.545 Y67.844 E19.23714
G1 X133.447 Y82.204 E19.45837
G1 X133.042 Y83.815 E19.48395
G1 X131.939 Y85.056 E19.50953
G1 X129.951 Y85.677 E19.54162
G1 X39.951 Y85.677 E20.92805
G1 X38.338 Y85.282 E20.95362
G1 X37.089 Y84.188 E20.97920
G1 X36.454 Y82.180 E21.01165
G1 X36.455 Y77.156 E21.08904
G1 X36.553 Y62.796 E21.31027
G1 X36.583 Y62.363 E21.31694
G1 X36.753 Y61.069 E21.33705
G1 X36.989 Y60.188 E21.35111
G1 X37.489 Y58.982 E21.37122
G1 X37.945 Y58.191 E21.38528
G1 X38.740 Y57.156 E21.40539
G1 X39.385 Y56.510 E21.41945
G1 X40.361 Y55.761 E21.43840
G1 F7680
G1 X41.211 Y55.259 E21.21860
G1 F7680
G1 X42.417 Y54.760 E20.92798
G1 F7680
G1 X43.299 Y54.524 E20.72476
G1 F7680
G1 X44.593 Y54.353 E20.43411
G1 F7680
G1 X45.049 Y54.323 E20.33230
G1 F7680
G1 X48.615 Y54.323 E19.53840
G1 E19.43840 F1800.00000
G92 E0
G1 X46.591 Y65.249 F9600.000
G1 E2.00000 F1800.00000
G1 X45.938 Y65.557 E2.01111 F1800.000
G1 X45.230 Y65.692 E2.02222
G1 X44.510 Y65.646 E2.03334
G1 X43.824 Y65.424 E2.04445
G1 X43.215 Y65.037 E2.05556
G1 X42.721 Y64.511 E2.06667
G1 X42.373 Y63.879 E2.07779
G1 X42.194 Y63.180 E2.08890
G1 X42.194 Y62.459 E2.10001
G1 X42.373 Y61.760 E2.11112
G1 X42.721 Y61.128 E2.12224
G1 X43.215 Y60.602 E2.13335
G1 X43.824 Y60.216 E2.14446
G1 X44.510 Y59.993 E2.15557
G1 X45.230 Y59.948 E2.16669 F1800.000
G1 X45.938 Y60.083 E2.17780
G1 X46.591 Y60.390 E2.18891
G1 X47.147 Y60.850 E2.20002
G1 X47.571 Y61.433 E2.21114
G1 X47.837 Y62.104 E2.22225
G1 X47.927 Y62.820 E2.23336
G1 X47.837 Y63.535 E2.24447
G1 X47.571 Y64.206 E2.25559
G1 X47.147 Y64.790 E2.26670
G1 X46.649 Y65.202 E2.27666
G1 X46.323 Y64.827 F9600.000
G4 P30
G1 X45.784 Y65.081 E2.28584 F1800.000
G1 X45.198 Y65.192 E2.29502
G1 X44.604 Y65.155 E2.30420
G1 X44.037 Y64.971 E2.31338
G1 X43.534 Y64.652 E2.32256
G1 X43.126 Y64.217 E2.33174
G1 X42.839 Y63.695 E2.34092
G1 X42.690 Y63.118 E2.35010
G1 X42.690 Y62.522 E2.35928
G1 X42.839 Y61.944 E2.36846
G1 X43.126 Y61.422 E2.37764
G1 X43.534 Y60.988 E2.38682
G1 X44.037 Y60.668 E2.39600
G1 X44.604 Y60.484 E2.40518
G1 X45.198 Y60.447 E2.41436 F1800.000
G1 X45.784 Y60.559 E2.42354
G1 X46.323 Y60.812 E2.43272
G1 X46.782 Y61.192 E2.44191
G1 X47.133 Y61.674 E2.45109
G1 X47.352 Y62.228 E2.46027
G1 X47.427 Y62.820 E2.46945
G1 X47.352 Y63.411 E2.47863
G1 X47.133 Y63.965 E2.48781
G1 X46.782 Y64.447 E2.49699
G1 X46.381 Y64.779 E2.50501
G1 X46.055 Y64.405 F9600.000
G4 P30
G1 X45.629 Y64.605 E2.51226 F1800.000
G1 X45.167 Y64.693 E2.51951
G4 P1
G1 X44.697 Y64.664 E2.52676
G1 X44.250 Y64.518 E2.53401
G1 X43.853 Y64.266 E2.54126
G1 X43.531 Y63.923 E2.54851
G1 X43.304 Y63.511 E2.55575
G1 X43.187 Y63.055 E2.56300
G1 X43.187 Y62.584 E2.57025
G1 X43.304 Y62.129 E2.57750
G1 X43.531 Y61.716 E2.58475
G1 X43.853 Y61.373 E2.59200
G1 X44.250 Y61.121 E2.59925
G1 X44.697 Y60.976 E2.60650
G1 X45.167 Y60.946 E2.61374 F1800.000
G1 X45.629 Y61.034 E2.62099
G1 X46.055 Y61.235 E2.62824
G1 X46.418 Y61.535 E2.63549
G1 X46.694 Y61.915 E2.64274
G1 X46.867 Y62.353 E2.64999
G1 X46.926 Y62.820 E2.65724
G1 X46.867 Y63.286 E2.66448
G1 X46.694 Y63.724 E2.67173
G1 X46.418 Y64.105 E2.67898
G1 X46.113 Y64.357 E2.68508
G1 X46.055 Y64.875 F9600.000
G1 X122.194 Y63.180 F9600.000
G1 X122.194 Y62.459 E2.69619 F1800.000
G1 X122.373 Y61.760 E2.70730
G1 X122.721 Y61.128 E2.71841
G1 X123.215 Y60.602 E2.72953
G1 X123.824 Y60.216 E2.74064
G1 X124.510 Y59.993 E2.75175
G1 X125.230 Y59.948 E2.76286 F1800.000
G1 X125.938 Y60.083 E2.77397
G1 X126.591 Y60.390 E2.78509
G1 X127.147 Y60.850 E2.79620
G1 X127.571 Y61.433 E2.80731
G1 X127.837 Y62.104 E2.81842
G1 X127.927 Y62.820 E2.82954
G1 X127.837 Y63.535 E2.84065
G1 X127.571 Y64.206 E2.85176
G1 X127.147 Y64.790 E2.86287
G1 X126.591 Y65.249 E2.87399
G1 X125.938 Y65.557 E2.88510
G1 X125.230 Y65.692 E2.89621
G1 X124.510 Y65.646 E2.90732
G1 X123.824 Y65.424 E2.91844
G1 X123.215 Y65.037 E2.92955
G1 X122.721 Y64.511 E2.94066
G1 X122.373 Y63.879 E2.95177
G1 X122.213 Y63.253 E2.96173
G1 X122.690 Y63.118 F9600.000
G1 X122.690 Y62.522 E2.97091 F1800.000
G1 X122.839 Y61.944 E2.98009
G1 X123.126 Y61.422 E2.98927
G1 X123.534 Y60.988 E2.99845
G1 X124.037 Y60.668 E3.00763
G1 X124.604 Y60.484 E3.01681
G1 X125.198 Y60.447 E3.02599 F1800.000
G1 X125.784 Y60.559 E3.03517
G1 X126.323 Y60.812 E3.04436
G1 X126.782 Y61.192 E3.05354
G1 X127.133 Y61.674 E3.06272
G1 X127.352 Y62.228 E3.07190
G1 X127.427 Y62.820 E3.08108
G1 X127.352 Y63.411 E3.09026
G1 X127.133 Y63.965 E3.09944
G1 X126.782 Y64.447 E3.10862
G1 X126.323 Y64.827 E3.11780
G1 X125.784 Y65.081 E3.12698
G1 X125.198 Y65.192 E3.13616
G1 X124.604 Y65.155 E3.14534
G1 X124.037 Y64.971 E3.15452
G1 X123.534 Y64.652 E3.16370
G1 X123.126 Y64.217 E3.17288
G1 X122.839 Y63.695 E3.18206
G1 X122.709 Y63.190 E3.19009
G1 X123.187 Y63.055 F9600.000
G1 X123.187 Y62.584 E3.19734 F1800.000
G1 X123.304 Y62.129 E3.20459
G1 X123.531 Y61.716 E3.21184
G1 X123.853 Y61.373 E3.21908
G1 X124.250 Y61.121 E3.22633
G1 X124.697 Y60.976 E3.23358
G1 X125.167 Y60.946 E3.24083 F1800.000
G1 X125.629 Y61.034 E3.24808
G1 X126.055 Y61.235 E3.25533
G1 X126.418 Y61.535 E3.26258
G1 X126.694 Y61.915 E3.26982
G1 X126.867 Y62.353 E3.27707
G1 X126.926 Y62.820 E3.28432
G1 X126.867 Y63.287 E3.29157
G1 X126.694 Y63.724 E3.29882
G1 X126.418 Y64.105 E3.30607
G1 X126.055 Y64.405 E3.31332
G1 X125.629 Y64.605 E3.32056
G1 X125.167 Y64.693 E3.32781
G1 X124.697 Y64.664 E3.33506
G1 X124.250 Y64.518 E3.34231
G1 X123.853 Y64.266 E3.34956
G1 X123.531 Y63.923 E3.35681
G1 X123.304 Y63.511 E3.36406
G1 X123.205 Y63.128 E3.37015
G1 X122.761 Y62.855 F9600.000
G1 F7680
G1 X123.187 Y62.584 E3.24913
G1 F7680
G1 X123.304 Y62.129 E3.14436
G1 F7680
G1 X123.531 Y61.716 E3.03959
G1 F7680
G1 X123.853 Y61.373 E2.93482
G1 F7680
G1 X124.250 Y61.121 E2.83005
G1 F7680
G1 X124.697 Y60.976 E2.72528
G1 E1.37015 F1800.00000
G92 E0
G1 X128.781 Y66.552 F9600.000
G1 E2.00000 F1800.00000
G1 X41.317 Y66.552 E3.34737 F1800.000
G1 X41.317 Y62.903 E3.40359
G1 X41.455 Y61.856 E3.41985
G1 X41.826 Y60.959 E3.43481
G1 X42.418 Y60.188 E3.44978
G1 X43.188 Y59.597 E3.46474
G1 X44.086 Y59.225 E3.47971
G1 X45.132 Y59.087 E3.49596
G1 X124.966 Y59.087 E4.72579
G1 X126.012 Y59.225 E4.74204
G1 X126.910 Y59.597 E4.75701
G1 X127.681 Y60.188 E4.77197
G1 X128.272 Y60.959 E4.78694
G1 X128.644 Y61.857 E4.80190
G1 X128.781 Y62.903 E4.81816
G1 X128.781 Y66.477 E4.87322
G1 X129.278 Y67.048 F9600.000
G1 X40.821 Y67.048 E6.23589 F1800.000
G1 X40.821 Y62.870 E6.30025
G1 X40.971 Y61.727 E6.31801
G1 X41.393 Y60.709 E6.33499
G1 X42.064 Y59.834 E6.35197
G1 X42.938 Y59.163 E6.36895
G1 X43.956 Y58.742 E6.38593
G1 X45.100 Y58.591 E6.40369
G1 X124.999 Y58.591 E7.63452
G1 X126.142 Y58.742 E7.65228
G1 X127.160 Y59.163 E7.66926
G1 X128.035 Y59.834 E7.68624
G1 X128.706 Y60.709 E7.70322
G1 X129.127 Y61.727 E7.72019
G1 X129.278 Y62.870 E7.73796
G1 X129.278 Y66.973 E7.80117
G1 X129.774 Y67.545 F9600.000
G1 X40.324 Y67.545 E9.17912 F1800.000
G1 X40.324 Y62.838 E9.25163
G1 X40.487 Y61.597 E9.27091
G1 X40.959 Y60.458 E9.28990
G1 X41.710 Y59.480 E9.30889
G1 X42.688 Y58.730 E9.32788
G1 X43.827 Y58.258 E9.34687
G1 X45.067 Y58.095 E9.36615
G1 X125.031 Y58.095 E10.59797
G1 X126.271 Y58.258 E10.61724
G1 X127.410 Y58.730 E10.63624
G1 X128.389 Y59.480 E10.65523
G1 X129.139 Y60.458 E10.67422
G1 X129.611 Y61.597 E10.69321
G1 X129.774 Y62.838 E10.71248
G1 X129.774 Y67.470 E10.78384
G1 X129.341 Y67.295 F9600.000
G1 X128.435 Y64.757 F9600.000
G1 X128.180 Y64.501 E10.78969 F1800.000
G4 P1
G1 X127.610 Y64.670 E10.79931
G1 X128.435 Y65.495 E10.81819
G1 X128.402 Y66.199 E10.82961
G1 X127.278 Y65.075 E10.85535
G1 X126.874 Y65.409 E10.86383
G1 X127.671 Y66.206 E10.88208
G1 X126.933 Y66.206 E10.89402
G1 X126.680 Y65.953 E10.89981
G4 P21
G1 X126.329 Y66.022 F9600.000
G1 X125.234 Y66.122 E10.93550 F1800.000
G1 X124.450 Y66.098 E10.96098
G1 X123.769 Y65.993 E10.98334
G1 X128.212 Y64.133 F9600.000
G1 X128.305 Y63.626 E11.00007 F1800.000
G1 X128.349 Y62.931 E11.02269
G1 X128.237 Y61.979 E11.05382
G1 X127.903 Y61.172 E11.08219
G1 X127.378 Y60.491 E11.11012
G1 X126.829 Y60.053 E11.13292
G1 X126.695 Y59.969 E11.13806
G1 X126.085 Y59.699 E11.15974
G1 X125.901 Y59.641 E11.16600
G1 X125.276 Y59.540 E11.18656
G1 X124.937 Y59.526 E11.19756
G1 X124.398 Y59.546 E11.21509
G1 X123.769 Y59.646 E11.23575
G1 X123.408 Y59.688 F9600.000
G1 X123.153 Y59.434 E11.24131 F1800.000
G1 X122.450 Y59.434 E11.25217
G1 X123.240 Y60.224 E11.26942
G1 X122.855 Y60.543 E11.27713
G1 X121.746 Y59.434 E11.30134
G1 X121.043 Y59.434 E11.31220
G1 X122.515 Y60.906 E11.34433
G1 X122.250 Y61.344 E11.35223
G1 X120.340 Y59.434 E11.39394
G1 X119.636 Y59.434 E11.40479
G1 X122.024 Y61.821 E11.45691
G1 X121.880 Y62.381 E11.46583
G1 X118.933 Y59.434 E11.53017
G1 X118.230 Y59.434 E11.54102
G1 X121.848 Y63.052 E11.62001
G1 X121.990 Y63.898 E11.63324
G1 X117.526 Y59.434 E11.73069
G1 X116.823 Y59.434 E11.74154
G1 X123.427 Y66.038 E11.88570
G1 X122.892 Y66.206 E11.89436
G1 X116.120 Y59.434 E12.04219
G1 X115.416 Y59.434 E12.05305
G1 X122.189 Y66.206 E12.20087
G1 X121.485 Y66.206 E12.21173
G1 X114.713 Y59.434 E12.35955
G1 X114.010 Y59.434 E12.37041
G1 X120.782 Y66.206 E12.51824
G1 X120.079 Y66.206 E12.52909
G1 X113.306 Y59.434 E12.67692
G1 X112.603 Y59.434 E12.68777
G1 X119.375 Y66.206 E12.83560
G1 X118.672 Y66.206 E12.84646
G1 X111.900 Y59.434 E12.99428
G1 X111.196 Y59.434 E13.00514
G1 X117.969 Y66.206 E13.15296
G1 X117.265 Y66.206 E13.16382
G1 X110.493 Y59.434 E13.31165
G1 X109.790 Y59.434 E13.32250
G1 X116.562 Y66.206 E13.47033
G1 X115.859 Y66.206 E13.48118
G1 X109.086 Y59.434 E13.62901
G1 X108.383 Y59.434 E13.63986
G1 X115.155 Y66.206 E13.78769
G1 X114.452 Y66.206 E13.79855
G1 X107.680 Y59.434 E13.94637
G1 X106.976 Y59.434 E13.95723
G1 X113.749 Y66.206 E14.10505
G1 X113.045 Y66.206 E14.11591
G1 X106.273 Y59.434 E14.26374
G1 X105.570 Y59.434 E14.27459
G1 X112.342 Y66.206 E14.42242
G1 X111.639 Y66.206 E14.43327
G1 X104.866 Y59.434 E14.58110
G1 X104.163 Y59.434 E14.59196
G1 X110.935 Y66.206 E14.73978
G1 X110.232 Y66.206 E14.75064
G1 X103.460 Y59.434 E14.89846
G1 X102.757 Y59.434 E14.90932
