; generated by Slic3r 1.2.9 on 2017-07-13 at 00:41:45

; external perimeters extrusion width = 0.50mm
; perimeters extrusion width = 0.50mm
; infill extrusion width = 0.50mm
; solid infill extrusion width = 0.50mm
; top infill extrusion width = 0.50mm

M107
M190 S60 ; set bed temperature
M104 S210 ; set temperature
G28 ; home all axes
M109 S210 ; wait for temperature to be reached
G21 ; set units to millimeters
G90 ; use absolute coordinates
M82 ; use absolute distances for extrusion
G92 E0
G1 E-2.00000 F1800.00000
G92 E0
G1 Z0.250 F1800.000
G1 X66.850 Y61.438 F1800.000
G1 E2.00000 F1800.00000
M204 S3000
G1 X67.297 Y60.964 E2.00495 F900.000
G1 X67.909 Y60.387 E2.01134
G1 X68.408 Y59.968 E2.01629
G1 X69.082 Y59.466 E2.02267
G1 X69.626 Y59.108 E2.02762
G1 X70.354 Y58.688 E2.03401
G1 X70.937 Y58.395 E2.03896
G1 X71.709 Y58.062 E2.04535
G1 X72.320 Y57.840 E2.05029
G1 X73.126 Y57.598 E2.05668
G1 X73.761 Y57.448 E2.06164
G1 X74.588 Y57.302 E2.06802
G1 X75.237 Y57.226 E2.07299
G1 X76.074 Y57.178 E2.07936
G1 X93.926 Y57.178 E2.21498
G1 X94.765 Y57.227 E2.22137
G1 X95.412 Y57.302 E2.22631 F900.000
G1 X96.240 Y57.448 E2.23270
G1 X96.874 Y57.599 E2.23765
G1 X97.679 Y57.840 E2.24404
G1 X98.291 Y58.062 E2.24899
G1 X99.064 Y58.395 E2.25538
G1 X99.642 Y58.686 E2.26029
G1 X100.374 Y59.108 E2.26671
G1 X100.918 Y59.466 E2.27166
G1 X101.593 Y59.968 E2.27805
G1 X102.091 Y60.387 E2.28300
G1 X102.703 Y60.964 E2.28939
G1 X103.150 Y61.438 E2.29433
G1 X103.691 Y62.082 E2.30072
G1 X104.079 Y62.604 E2.30567
G1 X104.542 Y63.307 E2.31206
G1 X104.867 Y63.871 E2.31701
G1 X105.245 Y64.622 E2.32340
G1 X105.503 Y65.220 E2.32834
G1 X105.790 Y66.011 E2.33473
G1 X105.977 Y66.634 E2.33968
G1 X106.171 Y67.453 E2.34607
G1 X106.284 Y68.094 E2.35102
G1 X106.382 Y68.929 E2.35741
G1 X106.420 Y69.580 E2.36235
G1 X106.420 Y70.421 E2.36874
G1 X106.382 Y71.071 E2.37369
G1 X106.284 Y71.906 E2.38008
G1 X106.171 Y72.548 E2.38504
G1 X105.977 Y73.366 E2.39142
G1 X105.790 Y73.991 E2.39637
G1 X105.503 Y74.780 E2.40275
G1 X105.245 Y75.378 E2.40770
G1 X104.867 Y76.129 E2.41409
G1 X104.544 Y76.689 E2.41900
G1 X104.079 Y77.396 E2.42543
G1 X103.691 Y77.918 E2.43037
G1 X103.150 Y78.562 E2.43676
G1 X102.703 Y79.036 E2.44171
G1 X102.091 Y79.613 E2.44810
G1 X101.593 Y80.032 E2.45305
G1 X100.918 Y80.534 E2.45944
G1 X100.374 Y80.892 E2.46438
G1 X99.646 Y81.312 E2.47077
G1 X99.064 Y81.605 E2.47572
G1 X98.291 Y81.938 E2.48211
G1 X97.679 Y82.160 E2.48706
G1 X96.874 Y82.402 E2.49344
G1 X96.240 Y82.552 E2.49839
G1 X95.412 Y82.698 E2.50478
G1 X94.765 Y82.773 E2.50973
G1 X93.926 Y82.822 E2.51612
G1 X76.074 Y82.822 E2.65174
G1 X75.235 Y82.773 E2.65813
G1 X74.588 Y82.698 E2.66308
G1 X73.760 Y82.552 E2.66946
G1 X73.126 Y82.402 E2.67441
G1 X72.321 Y82.160 E2.68080
G1 X71.709 Y81.938 E2.68575
G1 X70.936 Y81.605 E2.69214
G1 X70.354 Y81.312 E2.69709
G1 X69.626 Y80.892 E2.70347
G1 X69.082 Y80.534 E2.70842
G1 X68.407 Y80.032 E2.71481
G1 X67.909 Y79.613 E2.71976
G1 X67.297 Y79.036 E2.72615
G1 X66.850 Y78.562 E2.73109
G1 X66.310 Y77.919 E2.73748
G1 X65.921 Y77.396 E2.74243
G1 X65.458 Y76.693 E2.74882
G1 X65.132 Y76.128 E2.75377
G1 X64.755 Y75.378 E2.76016
G1 X64.497 Y74.780 E2.76510
G1 X64.210 Y73.989 E2.77149
G1 X64.023 Y73.366 E2.77644
G1 X63.829 Y72.548 E2.78282
G1 X63.716 Y71.906 E2.78778
G1 X63.618 Y71.071 E2.79417
G1 X63.580 Y70.420 E2.79912
G1 X63.580 Y69.580 E2.80550
G1 X63.618 Y68.929 E2.81045
G1 X63.716 Y68.094 E2.81684
G1 X63.829 Y67.451 E2.82180
G1 X64.023 Y66.635 E2.82817
G1 X64.210 Y66.011 E2.83312
G1 X64.497 Y65.220 E2.83951
G1 X64.755 Y64.622 E2.84446
G1 X65.133 Y63.871 E2.85085
G1 X65.459 Y63.306 E2.85581
G1 X65.921 Y62.604 E2.86219
G1 X66.310 Y62.081 E2.86714
G1 X66.802 Y61.495 E2.87295
G1 X67.029 Y61.607 F1800.000
G4 P24
G1 X67.476 Y61.133 E2.87790 F900.000
G1 X68.067 Y60.576 E2.88407
G1 X68.567 Y60.156 E2.88903
G1 X69.217 Y59.672 E2.89519
G1 X69.761 Y59.314 E2.90014
G1 X70.465 Y58.908 E2.90631
G1 X71.048 Y58.615 E2.91126
G1 X71.793 Y58.294 E2.91743
G1 X72.405 Y58.071 E2.92238
G1 X73.183 Y57.838 E2.92855
G1 X73.814 Y57.689 E2.93347
G1 X74.617 Y57.547 E2.93967
G1 X75.266 Y57.471 E2.94463
G1 X76.074 Y57.424 E2.95079
G1 X93.926 Y57.424 E3.08641
G1 X94.737 Y57.471 E3.09258
G1 X95.383 Y57.547 E3.09753 F900.000
G1 X96.183 Y57.688 E3.10370
G1 X96.817 Y57.838 E3.10865
G1 X97.595 Y58.071 E3.11482
G1 X98.207 Y58.294 E3.11976
G1 X98.953 Y58.616 E3.12594
G1 X99.531 Y58.906 E3.13085
G1 X100.239 Y59.314 E3.13705
G1 X100.783 Y59.672 E3.14200
G1 X101.434 Y60.157 E3.14817
G1 X101.933 Y60.576 E3.15312
G1 X102.524 Y61.133 E3.15929
G1 X102.971 Y61.607 E3.16424
G1 X103.493 Y62.229 E3.17041
G1 X103.882 Y62.751 E3.17536
G1 X104.328 Y63.430 E3.18153
G1 X104.654 Y63.994 E3.18648
G1 X105.018 Y64.720 E3.19265
G1 X105.276 Y65.318 E3.19760
G1 X105.554 Y66.081 E3.20377
G1 X105.741 Y66.705 E3.20872
G1 X105.928 Y67.496 E3.21489
G1 X106.041 Y68.137 E3.21983
G1 X106.136 Y68.944 E3.22601
G1 X106.174 Y69.594 E3.23095
G1 X106.174 Y70.406 E3.23713
G1 X106.136 Y71.056 E3.24207
G1 X106.041 Y71.863 E3.24824
G1 X105.928 Y72.506 E3.25320
G1 X105.741 Y73.295 E3.25936
G1 X105.554 Y73.920 E3.26432
G1 X105.276 Y74.682 E3.27048
G1 X105.018 Y75.280 E3.27543
G1 X104.654 Y76.006 E3.28160
G1 X104.330 Y76.566 E3.28652
G1 X103.882 Y77.249 E3.29272
G1 X103.493 Y77.771 E3.29767
G1 X102.971 Y78.393 E3.30384
G1 X102.524 Y78.867 E3.30879
G1 X101.933 Y79.424 E3.31496
G1 X101.434 Y79.843 E3.31991
G1 X100.783 Y80.328 E3.32608
G1 X100.239 Y80.686 E3.33102
G1 X99.535 Y81.092 E3.33720
G1 X98.953 Y81.384 E3.34214
G1 X98.207 Y81.706 E3.34832
G1 X97.595 Y81.929 E3.35326
G1 X96.817 Y82.162 E3.35943
G1 X96.183 Y82.312 E3.36438
G1 X95.383 Y82.453 E3.37055
G1 X94.737 Y82.529 E3.37550
G1 X93.926 Y82.576 E3.38167
G1 X76.074 Y82.576 E3.51729
G1 X75.263 Y82.529 E3.52346
G1 X74.617 Y82.453 E3.52841
G1 X73.817 Y82.312 E3.53458
G1 X73.183 Y82.162 E3.53953
G1 X72.405 Y81.929 E3.54570
G1 X71.793 Y81.706 E3.55065
G1 X71.047 Y81.384 E3.55682
G1 X70.465 Y81.092 E3.56177
G1 X69.761 Y80.686 E3.56794
G1 X69.217 Y80.328 E3.57289
G1 X68.566 Y79.843 E3.57906
G1 X68.067 Y79.424 E3.58401
G1 X67.476 Y78.867 E3.59018
G1 X67.029 Y78.393 E3.59513
G1 X66.507 Y77.772 E3.60129
G1 X66.118 Y77.249 E3.60624
G1 X65.672 Y76.570 E3.61242
G1 X65.346 Y76.005 E3.61737
G1 X64.982 Y75.280 E3.62353
G1 X64.724 Y74.682 E3.62848
G1 X64.446 Y73.919 E3.63465
G1 X64.259 Y73.295 E3.63960
G1 X64.072 Y72.506 E3.64576
G1 X63.959 Y71.863 E3.65072
G1 X63.864 Y71.056 E3.65689
G1 X63.826 Y70.406 E3.66184
G1 X63.826 Y69.594 E3.66801
G1 X63.864 Y68.944 E3.67296
G1 X63.959 Y68.137 E3.67913
G1 X64.072 Y67.494 E3.68409
G1 X64.259 Y66.706 E3.69024
G1 X64.446 Y66.081 E3.69520
G1 X64.724 Y65.318 E3.70137
G1 X64.982 Y64.720 E3.70632
G1 X65.346 Y63.994 E3.71249
G1 X65.672 Y63.429 E3.71745
G1 X66.118 Y62.751 E3.72361
G1 X66.507 Y62.228 E3.72856
G1 X66.981 Y61.664 E3.73415
G1 X67.208 Y61.776 F1800.000
G4 P24
G1 X67.655 Y61.302 E3.73910 F900.000
G1 X68.225 Y60.764 E3.74506
G1 X68.725 Y60.345 E3.75001
G1 X69.353 Y59.878 E3.75596
G1 X69.897 Y59.520 E3.76090
G1 X70.576 Y59.128 E3.76686
G1 X71.158 Y58.835 E3.77181
G1 X71.877 Y58.525 E3.77776
G1 X72.489 Y58.303 E3.78271
G1 X73.240 Y58.078 E3.78866
G1 X73.869 Y57.929 E3.79358
G1 X74.645 Y57.792 E3.79956
G1 X75.294 Y57.716 E3.80453
G1 X76.074 Y57.670 E3.81046
G1 X93.926 Y57.670 E3.94608
G1 X94.708 Y57.716 E3.95204
G1 X95.355 Y57.792 E3.95699 F900.000
G1 X96.127 Y57.928 E3.96294
G1 X96.760 Y58.078 E3.96789
G1 X97.511 Y58.303 E3.97384
G1 X98.123 Y58.525 E3.97879
G1 X98.843 Y58.836 E3.98474
G1 X99.424 Y59.128 E3.98969
G1 X100.103 Y59.520 E3.99564
G1 X100.647 Y59.878 E4.00059
G1 X101.276 Y60.346 E4.00654
G1 X101.775 Y60.764 E4.01149
G1 X102.345 Y61.302 E4.01745
G1 X102.792 Y61.776 E4.02239
G1 X103.295 Y62.376 E4.02835
G1 X103.684 Y62.898 E4.03330
G1 X104.115 Y63.553 E4.03925
G1 X104.441 Y64.117 E4.04420
G1 X104.792 Y64.818 E4.05015
G1 X105.050 Y65.415 E4.05510
G1 X105.318 Y66.152 E4.06105
G1 X105.505 Y66.776 E4.06600
G1 X105.686 Y67.538 E4.07195
G1 X105.799 Y68.180 E4.07690
G1 X105.890 Y68.958 E4.08285
G1 X105.928 Y69.608 E4.08780
G1 X105.928 Y70.392 E4.09376
G1 X105.890 Y71.042 E4.09870
G1 X105.799 Y71.820 E4.10466
G1 X105.686 Y72.463 E4.10961
G1 X105.505 Y73.224 E4.11556
G1 X105.318 Y73.849 E4.12051
G1 X105.050 Y74.585 E4.12646
G1 X104.792 Y75.183 E4.13141
G1 X104.441 Y75.883 E4.13736
G1 X104.117 Y76.444 E4.14228
G1 X103.684 Y77.102 E4.14826
G1 X103.295 Y77.624 E4.15321
G1 X102.792 Y78.224 E4.15916
G1 X102.345 Y78.698 E4.16411
G1 X101.775 Y79.236 E4.17006
G1 X101.276 Y79.654 E4.17501
G1 X100.647 Y80.122 E4.18097
G1 X100.103 Y80.480 E4.18591
G1 X99.424 Y80.872 E4.19187
G1 X98.843 Y81.164 E4.19682
G1 X98.123 Y81.475 E4.20277
G1 X97.511 Y81.697 E4.20772
G1 X96.760 Y81.922 E4.21367
G1 X96.127 Y82.072 E4.21862
G1 X95.355 Y82.208 E4.22457
G1 X94.708 Y82.284 E4.22952
G1 X93.926 Y82.330 E4.23547
G1 X76.074 Y82.330 E4.37109
G1 X75.292 Y82.284 E4.37705
G1 X74.645 Y82.208 E4.38199
G1 X73.873 Y82.072 E4.38795
G1 X73.240 Y81.922 E4.39290
G1 X72.489 Y81.697 E4.39885
G1 X71.877 Y81.475 E4.40380
G1 X71.157 Y81.164 E4.40975
G1 X70.576 Y80.872 E4.41470
G1 X69.897 Y80.480 E4.42065
G1 X69.353 Y80.122 E4.42560
G1 X68.724 Y79.654 E4.43155
G1 X68.225 Y79.236 E4.43650
G1 X67.655 Y78.698 E4.44246
G1 X67.208 Y78.224 E4.44740
G1 X66.705 Y77.624 E4.45335
G1 X66.316 Y77.102 E4.45830
G1 X65.885 Y76.447 E4.46426
G1 X65.559 Y75.882 E4.46921
G1 X65.208 Y75.182 E4.47516
G1 X64.950 Y74.585 E4.48011
G1 X64.682 Y73.848 E4.48606
G1 X64.495 Y73.224 E4.49101
G1 X64.314 Y72.463 E4.49695
G1 X64.201 Y71.820 E4.50191
G1 X64.110 Y71.042 E4.50786
G1 X64.072 Y70.392 E4.51281
G1 X64.072 Y69.608 E4.51876
G1 X64.110 Y68.958 E4.52371
G1 X64.201 Y68.180 E4.52967
G1 X64.315 Y67.537 E4.53462
G1 X64.495 Y66.777 E4.54056
G1 X64.682 Y66.152 E4.54551
G1 X64.950 Y65.415 E4.55147
G1 X65.208 Y64.817 E4.55642
G1 X65.559 Y64.117 E4.56237
G1 X65.886 Y63.552 E4.56733
G1 X66.316 Y62.898 E4.57327
G1 X66.705 Y62.376 E4.57822
G1 X67.160 Y61.833 E4.58360
G1 X67.388 Y61.945 F1800.000
G4 P24
G1 X67.834 Y61.471 E4.58855 F900.000
G1 X68.384 Y60.953 E4.59429
G1 X68.883 Y60.534 E4.59924
G1 X69.488 Y60.084 E4.60497
G1 X70.032 Y59.726 E4.60992
G1 X70.686 Y59.348 E4.61565
G1 X71.269 Y59.056 E4.62061
G1 X71.961 Y58.757 E4.62634
G1 X72.573 Y58.534 E4.63129
G1 X73.297 Y58.318 E4.63702
G1 X73.926 Y58.168 E4.64194
G1 X74.674 Y58.036 E4.64770
G1 X75.323 Y57.960 E4.65267
G1 X76.074 Y57.917 E4.65839
G1 X93.926 Y57.917 E4.79401
G1 X94.679 Y57.961 E4.79975
G1 X95.326 Y58.036 E4.80469 F900.000
G1 X96.070 Y58.167 E4.81043
G1 X96.704 Y58.318 E4.81538
G1 X97.427 Y58.534 E4.82111
G1 X98.039 Y58.757 E4.82606
G1 X98.732 Y59.056 E4.83180
G1 X99.310 Y59.346 E4.83671
G1 X99.968 Y59.726 E4.84248
G1 X100.512 Y60.084 E4.84743
G1 X101.118 Y60.534 E4.85316
G1 X101.616 Y60.953 E4.85811
G1 X102.166 Y61.471 E4.86385
G1 X102.612 Y61.945 E4.86879
G1 X103.098 Y62.523 E4.87453
G1 X103.487 Y63.046 E4.87948
G1 X103.902 Y63.676 E4.88521
G1 X104.227 Y64.240 E4.89016
G1 X104.566 Y64.915 E4.89590
G1 X104.824 Y65.513 E4.90085
G1 X105.082 Y66.223 E4.90658
G1 X105.269 Y66.846 E4.91153
G1 X105.443 Y67.581 E4.91727
G1 X105.556 Y68.222 E4.92221
G1 X105.644 Y68.972 E4.92795
G1 X105.682 Y69.623 E4.93290
G1 X105.682 Y70.378 E4.93863
G1 X105.644 Y71.028 E4.94358
G1 X105.556 Y71.778 E4.94932
G1 X105.443 Y72.420 E4.95427
G1 X105.269 Y73.154 E4.96000
G1 X105.082 Y73.778 E4.96496
G1 X104.824 Y74.487 E4.97068
G1 X104.566 Y75.085 E4.97563
G1 X104.227 Y75.760 E4.98137
G1 X103.904 Y76.320 E4.98628
G1 X103.487 Y76.954 E4.99205
G1 X103.098 Y77.477 E4.99700
G1 X102.612 Y78.055 E5.00274
G1 X102.165 Y78.529 E5.00768
G1 X101.616 Y79.047 E5.01342
G1 X101.118 Y79.466 E5.01837
G1 X100.512 Y79.916 E5.02410
G1 X99.968 Y80.274 E5.02905
G1 X99.314 Y80.652 E5.03479
G1 X98.732 Y80.944 E5.03973
G1 X98.039 Y81.243 E5.04547
G1 X97.427 Y81.466 E5.05042
G1 X96.703 Y81.682 E5.05615
G1 X96.070 Y81.833 E5.06110
G1 X95.326 Y81.964 E5.06684
G1 X94.679 Y82.039 E5.07178
G1 X93.926 Y82.083 E5.07752
G1 X76.074 Y82.083 E5.21314
G1 X75.321 Y82.039 E5.21888
G1 X74.674 Y81.964 E5.22382
G1 X73.930 Y81.833 E5.22956
G1 X73.297 Y81.682 E5.23451
G1 X72.573 Y81.466 E5.24024
G1 X71.961 Y81.243 E5.24519
G1 X71.268 Y80.944 E5.25093
G1 X70.686 Y80.652 E5.25588
G1 X70.032 Y80.274 E5.26161
G1 X69.488 Y79.916 E5.26656
G1 X68.882 Y79.466 E5.27230
G1 X68.384 Y79.047 E5.27724
G1 X67.834 Y78.529 E5.28298
G1 X67.388 Y78.055 E5.28793
G1 X66.903 Y77.477 E5.29366
G1 X66.513 Y76.954 E5.29861
G1 X66.098 Y76.324 E5.30435
G1 X65.772 Y75.759 E5.30930
G1 X65.434 Y75.085 E5.31503
G1 X65.176 Y74.487 E5.31998
G1 X64.918 Y73.777 E5.32571
G1 X64.731 Y73.154 E5.33066
G1 X64.557 Y72.420 E5.33639
G1 X64.444 Y71.778 E5.34135
G1 X64.356 Y71.028 E5.34708
G1 X64.319 Y70.382 E5.35200
G1 X64.318 Y69.622 E5.35777
G1 X64.356 Y68.972 E5.36271
G1 X64.444 Y68.222 E5.36845
G1 X64.557 Y67.580 E5.37341
G1 X64.731 Y66.847 E5.37913
G1 X64.918 Y66.223 E5.38408
G1 X65.176 Y65.513 E5.38982
G1 X65.434 Y64.915 E5.39476
G1 X65.773 Y64.240 E5.40050
G1 X66.099 Y63.675 E5.40546
G1 X66.513 Y63.046 E5.41118
G1 X66.903 Y62.523 E5.41614
G1 X67.339 Y62.002 E5.42130
G1 X67.567 Y62.114 F1800.000
G4 P24
G1 X68.014 Y61.640 E5.42625 F900.000
G1 X68.542 Y61.142 E5.43176
G1 X69.042 Y60.722 E5.43672
G1 X69.623 Y60.289 E5.44223
G1 X70.168 Y59.932 E5.44718
G1 X70.797 Y59.568 E5.45270
G1 X71.379 Y59.276 E5.45765
G1 X72.046 Y58.988 E5.46316
G1 X72.658 Y58.766 E5.46811
G1 X73.353 Y58.557 E5.47363
G1 X73.988 Y58.407 E5.47858
G1 X74.702 Y58.281 E5.48409
G1 X75.351 Y58.205 E5.48906
G1 X76.074 Y58.163 E5.49456
G1 X93.926 Y58.163 E5.63018
G1 X94.651 Y58.205 E5.63570
G1 X95.298 Y58.281 E5.64065 F900.000
G1 X96.013 Y58.407 E5.64617
G1 X96.647 Y58.557 E5.65111
G1 X97.342 Y58.766 E5.65663
G1 X97.954 Y58.988 E5.66158
G1 X98.621 Y59.276 E5.66710
G1 X99.200 Y59.566 E5.67201
G1 X99.832 Y59.932 E5.67756
G1 X100.377 Y60.289 E5.68251
G1 X100.959 Y60.723 E5.68803
G1 X101.458 Y61.142 E5.69298
G1 X101.986 Y61.640 E5.69850
G1 X102.433 Y62.114 E5.70344
G1 X102.900 Y62.670 E5.70896
G1 X103.289 Y63.193 E5.71391
G1 X103.688 Y63.800 E5.71943
G1 X104.014 Y64.364 E5.72437
G1 X104.340 Y65.013 E5.72989
G1 X104.598 Y65.611 E5.73484
G1 X104.846 Y66.293 E5.74036
G1 X105.033 Y66.917 E5.74531
G1 X105.201 Y67.624 E5.75083
G1 X105.314 Y68.265 E5.75577
G1 X105.398 Y68.987 E5.76129
G1 X105.436 Y69.637 E5.76624
G1 X105.436 Y70.363 E5.77176
G1 X105.398 Y71.013 E5.77671
G1 X105.314 Y71.735 E5.78222
G1 X105.200 Y72.377 E5.78718
G1 X105.033 Y73.083 E5.79269
G1 X104.846 Y73.708 E5.79765
G1 X104.598 Y74.389 E5.80316
G1 X104.340 Y74.987 E5.80810
G1 X104.014 Y75.636 E5.81362
G1 X103.690 Y76.197 E5.81854
G1 X103.289 Y76.807 E5.82409
G1 X102.900 Y77.330 E5.82904
G1 X102.433 Y77.886 E5.83455
G1 X101.986 Y78.360 E5.83950
G1 X101.458 Y78.858 E5.84502
G1 X100.959 Y79.277 E5.84997
G1 X100.377 Y79.711 E5.85549
G1 X99.832 Y80.068 E5.86043
G1 X99.203 Y80.432 E5.86595
G1 X98.621 Y80.724 E5.87090
G1 X97.954 Y81.012 E5.87642
G1 X97.342 Y81.234 E5.88137
G1 X96.647 Y81.443 E5.88688
G1 X96.013 Y81.593 E5.89183
G1 X95.298 Y81.719 E5.89735
G1 X94.651 Y81.795 E5.90230
G1 X93.926 Y81.837 E5.90782
G1 X76.074 Y81.837 E6.04344
G1 X75.349 Y81.795 E6.04895
G1 X74.702 Y81.719 E6.05390
G1 X73.987 Y81.593 E6.05942
G1 X73.353 Y81.443 E6.06437
G1 X72.658 Y81.234 E6.06989
G1 X72.046 Y81.012 E6.07483
G1 X71.379 Y80.724 E6.08035
G1 X70.797 Y80.432 E6.08530
G1 X70.168 Y80.068 E6.09082
G1 X69.623 Y79.711 E6.09577
G1 X69.041 Y79.277 E6.10129
G1 X68.542 Y78.858 E6.10623
G1 X68.014 Y78.360 E6.11175
G1 X67.567 Y77.886 E6.11670
G1 X67.100 Y77.330 E6.12221
G1 X66.711 Y76.807 E6.12716
G1 X66.312 Y76.200 E6.13268
G1 X65.986 Y75.636 E6.13764
G1 X65.660 Y74.987 E6.14315
G1 X65.402 Y74.389 E6.14810
G1 X65.154 Y73.707 E6.15362
G1 X64.967 Y73.083 E6.15856
G1 X64.800 Y72.377 E6.16407
G1 X64.686 Y71.735 E6.16903
G1 X64.602 Y71.013 E6.17455
G1 X64.564 Y70.367 E6.17946
G1 X64.564 Y69.637 E6.18501
G1 X64.602 Y68.987 E6.18996
G1 X64.686 Y68.265 E6.19548
G1 X64.800 Y67.623 E6.20044
G1 X64.967 Y66.918 E6.20594
G1 X65.154 Y66.293 E6.21089
G1 X65.402 Y65.611 E6.21641
