; generated by Slic3r 1.2.9 on 2019-05-13 at 22:35:22

; external perimeters extrusion width = 0.50mm
; perimeters extrusion width = 0.50mm
; infill extrusion width = 0.50mm
; solid infill extrusion width = 0.50mm
; top infill extrusion width = 0.50mm

M190 S80 ; set bed temperature
M104 S218 ; set temperature
G28 ; home all axes
M109 S218 ; wait for temperature to be reached
G21 ; set units to millimeters
G90 ; use absolute coordinates
M82 ; use absolute distances for extrusion
G92 E0
G1 E-2.00000 F900.00000
G92 E0
G1 Z0.250 F7800.000
G1 X43.183 Y56.533 F7800.000
G1 E2.00000 F900.00000
M204 S3000
G1 X43.858 Y56.144 E2.00752 F1800.000
G1 X44.581 Y55.844 E2.01508
G1 X45.334 Y55.642 E2.02261
G1 X46.110 Y55.540 E2.03017
G1 X46.500 Y55.515 E2.03394
G1 X123.500 Y55.515 E2.77731
G1 X123.890 Y55.540 E2.78108
G1 X124.666 Y55.642 E2.78864 F1800.000
G1 X125.419 Y55.844 E2.79616
G1 X126.142 Y56.144 E2.80372
G1 X126.817 Y56.533 E2.81124
G1 X127.439 Y57.010 E2.81881
G1 X127.990 Y57.561 E2.82633
G1 X128.467 Y58.183 E2.83389
G1 X128.856 Y58.858 E2.84141
G1 X129.156 Y59.581 E2.84897
G1 X129.358 Y60.334 E2.85650
G1 X129.460 Y61.110 E2.86406
G1 X129.485 Y61.500 E2.86783
G1 X129.485 Y78.500 E3.03195
G1 X129.460 Y78.890 E3.03572
G1 X129.358 Y79.666 E3.04328
G1 X129.156 Y80.419 E3.05080
G1 X128.856 Y81.142 E3.05836
G1 X128.467 Y81.817 E3.06589
G1 X127.990 Y82.439 E3.07345
G1 X127.439 Y82.990 E3.08097
G1 X126.817 Y83.467 E3.08853
G1 X126.142 Y83.856 E3.09606
G1 X125.419 Y84.156 E3.10362
G1 X124.666 Y84.358 E3.11114
G1 X123.890 Y84.460 E3.11870
G1 X123.500 Y84.485 E3.12247
G1 X46.500 Y84.485 E3.86584
G1 X46.110 Y84.460 E3.86961
G1 X45.334 Y84.358 E3.87717
G1 X44.581 Y84.156 E3.88469
G1 X43.858 Y83.856 E3.89225
G1 X43.183 Y83.467 E3.89978
G1 X42.561 Y82.990 E3.90734
G1 X42.010 Y82.439 E3.91486
G1 X41.533 Y81.817 E3.92242
G1 X41.144 Y81.142 E3.92995
G1 X40.844 Y80.419 E3.93751
G1 X40.642 Y79.666 E3.94503
G1 X40.540 Y78.890 E3.95259
G1 X40.515 Y78.500 E3.95636
G1 X40.515 Y61.500 E4.12048
G1 X40.540 Y61.110 E4.12425
G1 X40.642 Y60.334 E4.13181
G1 X40.844 Y59.581 E4.13934
G1 X41.144 Y58.858 E4.14690
G1 X41.533 Y58.183 E4.15442
G1 X42.010 Y57.561 E4.16198
G1 X42.561 Y57.010 E4.16951
G1 X43.123 Y56.579 E4.17634
G1 X43.333 Y56.729 F7800.000
G4 P31
G1 X43.952 Y56.371 E4.18325 F1800.000
G1 X44.675 Y56.072 E4.19081
G1 X45.366 Y55.887 E4.19771
G1 X46.143 Y55.784 E4.20527
G1 X46.500 Y55.761 E4.20873
G1 X123.500 Y55.761 E4.95210
G1 X123.857 Y55.784 E4.95555
G1 X124.634 Y55.887 E4.96311 F1800.000
G1 X125.385 Y56.097 E4.97064
G1 X126.048 Y56.371 E4.97757
G1 X126.667 Y56.729 E4.98448
G1 X127.289 Y57.206 E4.99204
G1 X127.794 Y57.711 E4.99894
G1 X128.271 Y58.333 E5.00650
G1 X128.629 Y58.952 E5.01340
G1 X128.928 Y59.675 E5.02096
G1 X129.113 Y60.366 E5.02787
G1 X129.216 Y61.143 E5.03543
G1 X129.239 Y61.500 E5.03889
G1 X129.239 Y78.500 E5.20301
G1 X129.216 Y78.857 E5.20647
G1 X129.113 Y79.634 E5.21403
G1 X128.928 Y80.325 E5.22093
G1 X128.629 Y81.048 E5.22849
G1 X128.271 Y81.667 E5.23539
G1 X127.794 Y82.289 E5.24295
G1 X127.289 Y82.794 E5.24986
G1 X126.667 Y83.271 E5.25742
G1 X126.048 Y83.629 E5.26432
G1 X125.325 Y83.928 E5.27188
G1 X124.634 Y84.113 E5.27878
G1 X123.858 Y84.216 E5.28635
G1 X123.500 Y84.239 E5.28980
G1 X46.500 Y84.239 E6.03317
G1 X46.142 Y84.216 E6.03663
G1 X45.366 Y84.113 E6.04419
G1 X44.675 Y83.928 E6.05109
G1 X43.952 Y83.629 E6.05865
G1 X43.333 Y83.271 E6.06556
G1 X42.711 Y82.794 E6.07312
G1 X42.206 Y82.289 E6.08002
G1 X41.729 Y81.667 E6.08758
G1 X41.371 Y81.048 E6.09448
G1 X41.072 Y80.325 E6.10205
G1 X40.887 Y79.634 E6.10895
G1 X40.784 Y78.858 E6.11651
G1 X40.761 Y78.500 E6.11997
G1 X40.761 Y61.500 E6.28409
G1 X40.784 Y61.143 E6.28755
G1 X40.887 Y60.366 E6.29511
G1 X41.072 Y59.675 E6.30201
G1 X41.371 Y58.952 E6.30957
G1 X41.729 Y58.333 E6.31647
G1 X42.206 Y57.711 E6.32403
G1 X42.711 Y57.206 E6.33094
G1 X43.273 Y56.775 E6.33777
G1 X43.483 Y56.924 F7800.000
G4 P31
G1 X44.046 Y56.599 E6.34406 F1800.000
G1 X44.770 Y56.299 E6.35162
G1 X45.398 Y56.131 E6.35790
G1 X46.175 Y56.029 E6.36546
G1 X46.500 Y56.007 E6.36861
G1 X123.500 Y56.007 E7.11197
G1 X123.825 Y56.029 E7.11512
G1 X124.602 Y56.131 E7.12268 F1800.000
G1 X125.291 Y56.324 E7.12959
G1 X125.954 Y56.599 E7.13652
G1 X126.517 Y56.924 E7.14280
G1 X127.139 Y57.401 E7.15036
G1 X127.599 Y57.861 E7.15665
G1 X128.076 Y58.483 E7.16421
G1 X128.401 Y59.046 E7.17049
G1 X128.701 Y59.770 E7.17805
G1 X128.869 Y60.398 E7.18433
G1 X128.971 Y61.175 E7.19189
G1 X128.993 Y61.500 E7.19504
G1 X128.993 Y78.500 E7.35916
G1 X128.971 Y78.825 E7.36231
G1 X128.869 Y79.602 E7.36987
G1 X128.701 Y80.230 E7.37615
G1 X128.401 Y80.954 E7.38371
G1 X128.076 Y81.517 E7.38999
G1 X127.599 Y82.139 E7.39755
G1 X127.139 Y82.599 E7.40384
G1 X126.517 Y83.076 E7.41140
G1 X125.954 Y83.401 E7.41768
G1 X125.230 Y83.701 E7.42524
G1 X124.602 Y83.869 E7.43152
G1 X123.825 Y83.971 E7.43908
G1 X123.500 Y83.993 E7.44223
G1 X46.500 Y83.993 E8.18560
G1 X46.175 Y83.971 E8.18874
G1 X45.398 Y83.869 E8.19631
G1 X44.770 Y83.701 E8.20259
G1 X44.046 Y83.401 E8.21015
G1 X43.483 Y83.076 E8.21643
G1 X42.861 Y82.599 E8.22399
G1 X42.401 Y82.139 E8.23027
G1 X41.924 Y81.517 E8.23783
G1 X41.599 Y80.954 E8.24412
G1 X41.299 Y80.230 E8.25168
G1 X41.131 Y79.602 E8.25796
G1 X41.029 Y78.825 E8.26552
G1 X41.007 Y78.500 E8.26867
G1 X41.007 Y61.500 E8.43279
G1 X41.029 Y61.175 E8.43593
G1 X41.131 Y60.398 E8.44350
G1 X41.299 Y59.770 E8.44978
G1 X41.599 Y59.046 E8.45734
G1 X41.924 Y58.483 E8.46362
G1 X42.401 Y57.861 E8.47118
G1 X42.861 Y57.401 E8.47746
G1 X43.423 Y56.970 E8.48430
G1 X43.633 Y57.120 F7800.000
G4 P31
G1 X44.140 Y56.827 E8.48996 F1800.000
G1 X44.864 Y56.527 E8.49752
G1 X45.430 Y56.375 E8.50318
G1 X46.207 Y56.273 E8.51074
G1 X46.500 Y56.254 E8.51358
G1 X123.500 Y56.254 E9.25695
G1 X123.793 Y56.273 E9.25978
G1 X124.570 Y56.375 E9.26734 F1800.000
G1 X125.196 Y56.552 E9.27363
G1 X125.860 Y56.827 E9.28056
G1 X126.367 Y57.120 E9.28622
G1 X126.989 Y57.597 E9.29378
G1 X127.403 Y58.011 E9.29945
G1 X127.880 Y58.633 E9.30701
G1 X128.173 Y59.140 E9.31267
G1 X128.473 Y59.864 E9.32023
G1 X128.625 Y60.430 E9.32589
G1 X128.727 Y61.207 E9.33345
G1 X128.746 Y61.500 E9.33629
G1 X128.746 Y78.500 E9.50041
G1 X128.727 Y78.793 E9.50324
G1 X128.625 Y79.570 E9.51080
G1 X128.473 Y80.136 E9.51647
G1 X128.173 Y80.860 E9.52403
G1 X127.880 Y81.367 E9.52969
G1 X127.403 Y81.989 E9.53725
G1 X126.989 Y82.403 E9.54291
G1 X126.367 Y82.880 E9.55047
G1 X125.860 Y83.173 E9.55613
G1 X125.136 Y83.473 E9.56369
G1 X124.570 Y83.625 E9.56935
G1 X123.793 Y83.727 E9.57691
G1 X123.500 Y83.746 E9.57975
G1 X46.500 Y83.746 E10.32312
G1 X46.207 Y83.727 E10.32595
G1 X45.430 Y83.625 E10.33351
G1 X44.864 Y83.473 E10.33918
G1 X44.140 Y83.173 E10.34674
G1 X43.633 Y82.880 E10.35240
G1 X43.011 Y82.403 E10.35996
G1 X42.597 Y81.989 E10.36562
G1 X42.120 Y81.367 E10.37318
G1 X41.827 Y80.860 E10.37884
G1 X41.527 Y80.136 E10.38640
G1 X41.375 Y79.570 E10.39206
G1 X41.273 Y78.793 E10.39962
G1 X41.254 Y78.500 E10.40246
G1 X41.254 Y61.500 E10.56658
G1 X41.273 Y61.207 E10.56942
G1 X41.375 Y60.430 E10.57698
G1 X41.527 Y59.864 E10.58264
G1 X41.827 Y59.140 E10.59020
G1 X42.120 Y58.633 E10.59586
G1 X42.597 Y58.011 E10.60342
G1 X43.011 Y57.597 E10.60908
G1 X43.573 Y57.165 E10.61592
G1 F6240
G1 X44.140 Y56.827 E10.52537
G1 F6240
G1 X44.864 Y56.527 E10.41806
G1 F6240
G1 X45.430 Y56.375 E10.33771
G1 F6240
G1 X46.207 Y56.273 E10.23040
G1 F6240
G1 X46.500 Y56.254 E10.19014
G1 F6240
G1 X57.259 Y56.254 E8.71592
G1 E8.61592 F900.00000
G92 E0
G1 X48.383 Y79.299 F7800.000
G1 E2.00000 F900.00000
G1 X48.017 Y79.602 E2.00459 F1800.000
G1 X47.586 Y79.805 E2.00919
G1 X47.119 Y79.894 E2.01378
G1 X46.644 Y79.864 E2.01837
G1 X46.192 Y79.717 E2.02296
G1 X45.790 Y79.462 E2.02756
G1 X45.465 Y79.116 E2.03215
G1 X45.235 Y78.699 E2.03674
G1 X45.117 Y78.238 E2.04133
G1 X45.117 Y77.762 E2.04593
G1 X45.235 Y77.301 E2.05052
G1 X45.465 Y76.884 E2.05511
G1 X45.790 Y76.538 E2.05970
G1 X46.192 Y76.283 E2.06430
G1 X46.644 Y76.136 E2.06889
G1 X47.087 Y76.108 E2.07317 F1800.000
G1 X47.581 Y76.192 E2.07801
G1 X48.017 Y76.398 E2.08266
G1 X48.383 Y76.701 E2.08725
G1 X48.663 Y77.086 E2.09185
G1 X48.838 Y77.528 E2.09644
G1 X48.898 Y78.000 E2.10103
G1 X48.838 Y78.472 E2.10562
G1 X48.663 Y78.914 E2.11022
G1 X48.428 Y79.238 E2.11408
G1 X48.202 Y79.129 F7800.000
G4 P31
G1 X47.884 Y79.393 E2.11808 F1800.000
G1 X47.510 Y79.569 E2.12207
G1 X47.104 Y79.646 E2.12606
G1 X46.691 Y79.620 E2.13005
G1 X46.298 Y79.493 E2.13404
G1 X45.949 Y79.271 E2.13803
G1 X45.666 Y78.970 E2.14203
G1 X45.466 Y78.607 E2.14602
G1 X45.364 Y78.207 E2.15001
G1 X45.364 Y77.793 E2.15400
G1 X45.466 Y77.393 E2.15799
G1 X45.666 Y77.030 E2.16199
G1 X45.949 Y76.729 E2.16598
G1 X46.298 Y76.507 E2.16997
G1 X46.691 Y76.380 E2.17396
G1 X47.074 Y76.356 E2.17766 F1800.000
G1 X47.506 Y76.430 E2.18190
G1 X47.884 Y76.607 E2.18593
G1 X48.202 Y76.871 E2.18992
G1 X48.445 Y77.205 E2.19391
G1 X48.598 Y77.590 E2.19790
G1 X48.649 Y78.000 E2.20190
G1 X48.598 Y78.410 E2.20589
G1 X48.445 Y78.795 E2.20988
G1 X48.247 Y79.068 E2.21315
G1 X48.021 Y78.959 F7800.000
G4 P31
G1 X47.751 Y79.183 E2.21654 F1800.000
G1 X47.433 Y79.333 E2.21993
G1 X47.088 Y79.398 E2.22332
G1 X46.737 Y79.376 E2.22671
G1 X46.403 Y79.268 E2.23010
G1 X46.107 Y79.080 E2.23349
G1 X45.866 Y78.824 E2.23688
G1 X45.697 Y78.516 E2.24027
G1 X45.610 Y78.176 E2.24366
G1 X45.610 Y77.824 E2.24705
G1 X45.697 Y77.484 E2.25045
G1 X45.866 Y77.176 E2.25384
G1 X46.107 Y76.920 E2.25723
G1 X46.403 Y76.732 E2.26062
G1 X46.737 Y76.624 E2.26401
G1 X47.060 Y76.603 E2.26713 F1800.000
G1 X47.432 Y76.667 E2.27077
G1 X47.751 Y76.817 E2.27417
G1 X48.021 Y77.041 E2.27756
G1 X48.228 Y77.325 E2.28096
G1 X48.357 Y77.652 E2.28435
G1 X48.401 Y78.000 E2.28774
G1 X48.357 Y78.348 E2.29113
G1 X48.228 Y78.675 E2.29452
G1 X48.066 Y78.899 E2.29719
G4 P0
G1 X48.109 Y79.299 F7800.000
G1 F6240
G4 P30
G1 X47.751 Y79.183 E2.23905
G1 F6240
G4 P29
G1 X47.433 Y79.333 E2.19092
G1 F6240
G1 X47.088 Y79.398 E2.14280
G1 F6240
G4 P26
G1 X46.737 Y79.376 E2.09467
G1 F6240
G1 X46.403 Y79.268 E2.04655
G1 F6240
G1 X46.107 Y79.080 E1.99842
G1 F6240
G1 X45.866 Y78.824 E1.95030
G1 F6240
G1 X45.697 Y78.516 E1.90217
G1 F6240
G1 X45.610 Y78.176 E1.85405
G1 F6240
G1 X45.610 Y77.824 E1.80592
G1 F6240
G1 X45.697 Y77.484 E1.75779
G1 F6240
G1 X45.866 Y77.176 E1.70967
G1 F6240
G1 X46.107 Y76.920 E1.66154
G1 F6240
G1 X46.403 Y76.732 E1.61342
G1 F6240
G1 X46.737 Y76.624 E1.56529
G1 E0.29719 F900.00000
G92 E0
G1 X47.119 Y63.894 F7800.000
G1 E2.00000 F900.00000
G1 X46.644 Y63.864 E2.00459 F1800.000
G1 X46.192 Y63.717 E2.00919
G1 X45.790 Y63.462 E2.01378
G1 X45.465 Y63.115 E2.01837
G1 X45.235 Y62.699 E2.02296
G1 X45.117 Y62.238 E2.02756
G1 X45.117 Y61.762 E2.03215
G1 X45.235 Y61.301 E2.03674
G1 X45.465 Y60.884 E2.04133
G1 X45.790 Y60.538 E2.04593
G1 X46.192 Y60.283 E2.05052
G1 X46.644 Y60.136 E2.05511
G1 X47.087 Y60.108 E2.05939 F1800.000
G1 X47.581 Y60.192 E2.06423
G1 X48.017 Y60.398 E2.06888
G1 X48.383 Y60.701 E2.07347
G1 X48.663 Y61.086 E2.07807
G1 X48.838 Y61.528 E2.08266
G1 X48.898 Y62.000 E2.08725
G1 X48.838 Y62.472 E2.09185
G1 X48.663 Y62.914 E2.09644
G1 X48.383 Y63.299 E2.10103
G1 X48.017 Y63.602 E2.10562
G1 X47.586 Y63.805 E2.11022
G1 X47.193 Y63.880 E2.11408
G1 X47.104 Y63.646 F7800.000
G1 X46.691 Y63.620 E2.11808 F1800.000
G1 X46.298 Y63.493 E2.12207
G1 X45.949 Y63.271 E2.12606
G1 X45.666 Y62.970 E2.13005
G1 X45.466 Y62.607 E2.13404
G1 X45.364 Y62.207 E2.13803
G1 X45.364 Y61.793 E2.14203
G1 X45.466 Y61.393 E2.14602
G1 X45.666 Y61.030 E2.15001
G1 X45.949 Y60.729 E2.15400
G1 X46.298 Y60.507 E2.15799
G1 X46.691 Y60.380 E2.16199
G1 X47.074 Y60.356 E2.16569 F1800.000
G1 X47.506 Y60.430 E2.16992
G1 X47.884 Y60.607 E2.17395
G1 X48.202 Y60.871 E2.17794
G1 X48.445 Y61.205 E2.18194
G1 X48.598 Y61.590 E2.18593
G1 X48.649 Y62.000 E2.18992
G1 X48.598 Y62.410 E2.19391
G1 X48.445 Y62.795 E2.19790
G1 X48.202 Y63.129 E2.20190
G1 X47.884 Y63.393 E2.20589
G1 X47.510 Y63.569 E2.20988
G1 X47.177 Y63.632 E2.21315
G1 X47.088 Y63.398 F7800.000
G1 X46.737 Y63.376 E2.21654 F1800.000
G1 X46.403 Y63.268 E2.21993
G1 X46.107 Y63.080 E2.22332
G1 X45.866 Y62.824 E2.22671
G1 X45.697 Y62.516 E2.23010
G1 X45.610 Y62.176 E2.23349
G1 X45.610 Y61.824 E2.23688
G1 X45.697 Y61.484 E2.24027
G1 X45.866 Y61.176 E2.24366
G1 X46.107 Y60.920 E2.24705
G1 X46.403 Y60.732 E2.25045
G1 X46.737 Y60.624 E2.25384
G1 X47.060 Y60.603 E2.25696 F1800.000
G1 X47.432 Y60.667 E2.26060
G1 X47.751 Y60.817 E2.26400
G1 X48.021 Y61.041 E2.26739
G1 X48.228 Y61.325 E2.27078
G1 X48.357 Y61.652 E2.27417
G1 X48.401 Y62.000 E2.27756
G1 X48.357 Y62.348 E2.28096
G1 X48.228 Y62.675 E2.28435
G1 X48.021 Y62.959 E2.28774
G1 X47.751 Y63.183 E2.29113
G1 X47.433 Y63.333 E2.29452
G1 X47.162 Y63.384 E2.29719
G1 X46.919 Y63.706 F7800.000
G1 F6240
G1 X46.737 Y63.376 E2.23905
G1 F6240
G1 X46.403 Y63.268 E2.19093
G1 F6240
G1 X46.107 Y63.080 E2.14280
G1 F6240
G1 X45.866 Y62.824 E2.09467
G1 F6240
G1 X45.697 Y62.516 E2.04655
G1 F6240
G1 X45.610 Y62.176 E1.99842
G1 F6240
G1 X45.610 Y61.824 E1.95030
G1 F6240
G1 X45.697 Y61.484 E1.90217
G1 F6240
G1 X45.866 Y61.176 E1.85405
G1 F6240
G1 X46.107 Y60.920 E1.80592
G1 F6240
G1 X46.403 Y60.732 E1.75780
G1 F6240
G1 X46.737 Y60.624 E1.70967
G1 E0.29719 F900.00000
G92 E0
G1 X121.117 Y62.238 F7800.000
G1 E2.00000 F900.00000
G1 X121.117 Y61.762 E2.00459 F1800.000
G1 X121.235 Y61.301 E2.00919
G1 X121.465 Y60.885 E2.01378
G1 X121.790 Y60.538 E2.01837
G1 X122.165 Y60.300 E2.02265
G1 X122.638 Y60.136 E2.02749
G1 X123.154 Y60.104 E2.03248 F1800.000
G1 X123.593 Y60.198 E2.03682
G1 X124.017 Y60.398 E2.04134
G1 X124.383 Y60.701 E2.04593
G1 X124.663 Y61.086 E2.05052
G1 X124.838 Y61.528 E2.05511
G1 X124.898 Y62.000 E2.05971
G1 X124.838 Y62.472 E2.06430
G1 X124.663 Y62.914 E2.06889
G1 X124.383 Y63.299 E2.07348
G1 X124.017 Y63.602 E2.07808
G1 X123.586 Y63.805 E2.08267
G1 X123.119 Y63.894 E2.08726
G1 X122.644 Y63.864 E2.09185
G1 X122.192 Y63.717 E2.09645
G1 X121.790 Y63.462 E2.10104
G1 X121.465 Y63.115 E2.10563
G1 X121.235 Y62.699 E2.11023
G1 X121.136 Y62.311 E2.11409
G1 X121.364 Y62.207 F7800.000
G1 X121.364 Y61.793 E2.11809 F1800.000
G1 X121.466 Y61.393 E2.12208
G1 X121.666 Y61.030 E2.12607
G1 X121.949 Y60.729 E2.13006
G1 X122.272 Y60.524 E2.13376
G1 X122.687 Y60.380 E2.13800
G1 X123.135 Y60.352 E2.14234 F1800.000
G1 X123.514 Y60.433 E2.14608
G1 X123.884 Y60.607 E2.15002
G1 X124.202 Y60.871 E2.15401
G1 X124.445 Y61.205 E2.15800
G1 X124.598 Y61.590 E2.16200
G1 X124.650 Y62.000 E2.16599
G1 X124.598 Y62.410 E2.16998
G1 X124.445 Y62.795 E2.17397
G1 X124.202 Y63.129 E2.17796
G1 X123.884 Y63.393 E2.18196
G1 X123.510 Y63.569 E2.18595
G1 X123.104 Y63.646 E2.18994
G1 X122.691 Y63.620 E2.19393
G1 X122.298 Y63.493 E2.19792
G1 X121.949 Y63.271 E2.20191
G1 X121.666 Y62.970 E2.20591
G1 X121.466 Y62.607 E2.20990
G1 X121.382 Y62.279 E2.21316
G1 X121.610 Y62.176 F7800.000
G1 X121.610 Y61.824 E2.21656 F1800.000
G1 X121.697 Y61.484 E2.21995
G1 X121.866 Y61.176 E2.22334
G1 X122.107 Y60.920 E2.22673
G1 X122.380 Y60.747 E2.22985
G1 X122.736 Y60.624 E2.23349
G1 X123.117 Y60.600 E2.23717 F1800.000
G1 X123.435 Y60.668 E2.24031
G1 X123.751 Y60.817 E2.24368
G1 X124.021 Y61.041 E2.24708
G1 X124.228 Y61.325 E2.25047
G1 X124.357 Y61.652 E2.25386
G1 X124.401 Y62.000 E2.25725
G1 X124.357 Y62.348 E2.26064
G1 X124.228 Y62.675 E2.26403
G1 X124.021 Y62.959 E2.26742
G1 X123.751 Y63.183 E2.27081
G1 X123.433 Y63.333 E2.27420
G1 X123.088 Y63.398 E2.27759
G1 X122.737 Y63.376 E2.28098
G1 X122.403 Y63.268 E2.28437
G1 X122.107 Y63.080 E2.28777
G1 X121.866 Y62.824 E2.29116
G1 X121.697 Y62.516 E2.29455
G1 X121.629 Y62.248 E2.29721
G1 X121.292 Y62.026 F7800.000
G1 F6240
G1 X121.610 Y61.824 E2.23908
G1 F6240
G1 X121.697 Y61.484 E2.19095
G1 F6240
G1 X121.866 Y61.176 E2.14283
G1 F6240
G1 X122.107 Y60.920 E2.09470
G1 F6240
G1 X122.380 Y60.747 E2.05035
G1 F6240
G1 X122.736 Y60.624 E1.99875
G1 E0.29721 F900.00000
G92 E0
G4 P12
G1 X122.644 Y76.136 F7800.000
G1 E2.00000 F900.00000
G1 X123.087 Y76.108 E2.00428 F1800.000
G4 P18
G1 X123.581 Y76.192 E2.00912
G1 X124.017 Y76.398 E2.01377
G1 X124.383 Y76.701 E2.01836
