; generated by Slic3r 1.2.9 on 2018-04-18 at 22:50:32

; external perimeters extrusion width = 0.50mm
; perimeters extrusion width = 0.50mm
; infill extrusion width = 0.50mm
; solid infill extrusion width = 0.50mm
; top infill extrusion width = 0.50mm

M107
M190 S60 ; set bed temperature
M104 S210 ; set temperature
G28 ; home all axes
M109 S210 ; wait for temperature to be reached
G21 ; set units to millimeters
G90 ; use absolute coordinates
M82 ; use absolute distances for extrusion
G92 E0
G1 E-2.00000 F900.00000
G92 E0
G1 Z0.250 F7800.000
G1 X59.908 Y57.269 F7800.000
G1 E2.00000 F900.00000
M204 S3000
G1 X60.984 Y56.178 E2.01164 F1800.000
G1 X62.500 Y55.765 E2.02358
G1 X107.500 Y55.765 E2.36546
G1 X108.981 Y56.158 E2.37710
G1 X110.072 Y57.234 E2.38874 F1800.000
G1 X110.485 Y58.750 E2.40068
G1 X110.485 Y81.250 E2.57162
G1 X110.092 Y82.731 E2.58326
G1 X109.016 Y83.822 E2.59490
G1 X107.500 Y84.235 E2.60684
G1 X62.500 Y84.235 E2.94871
G1 X61.019 Y83.842 E2.96036
G1 X59.928 Y82.766 E2.97200
G1 X59.515 Y81.250 E2.98393
G1 X59.515 Y58.750 E3.15487
G1 X59.889 Y57.341 E3.16595
G1 X60.154 Y57.337 F7800.000
G1 X61.219 Y56.329 E3.17709 F1800.000
G1 X62.500 Y56.011 E3.18712
G1 X107.500 Y56.011 E3.52899
G1 X108.913 Y56.404 E3.54014
G1 X109.921 Y57.469 E3.55128 F1800.000
G1 X110.239 Y58.750 E3.56131
G1 X110.239 Y81.250 E3.73224
G1 X109.846 Y82.663 E3.74339
G1 X108.781 Y83.671 E3.75453
G1 X107.500 Y83.989 E3.76456
G1 X62.500 Y83.989 E4.10643
G1 X61.087 Y83.596 E4.11758
G1 X60.079 Y82.531 E4.12872
G1 X59.761 Y81.250 E4.13875
G1 X59.761 Y58.750 E4.30968
G1 X60.133 Y57.409 E4.32025
G1 X60.399 Y57.409 F7800.000
G1 X61.452 Y56.488 E4.33088 F1800.000
G1 X62.500 Y56.257 E4.33903
G1 X107.500 Y56.257 E4.68091
G1 X108.842 Y56.649 E4.69153
G1 X109.762 Y57.702 E4.70215 F1800.000
G1 X109.993 Y58.750 E4.71030
G1 X109.993 Y81.250 E4.88124
G1 X109.601 Y82.592 E4.89186
G1 X108.548 Y83.512 E4.90248
G1 X107.500 Y83.743 E4.91064
G1 X62.500 Y83.743 E5.25251
G1 X61.158 Y83.351 E5.26313
G1 X60.238 Y82.298 E5.27375
G1 X60.007 Y81.250 E5.28191
G1 X60.007 Y58.750 E5.45285
G1 X60.378 Y57.481 E5.46289
G1 X60.644 Y57.485 F7800.000
G4 P31
G1 X61.682 Y56.658 E5.47297 F1800.000
G1 X62.500 Y56.504 E5.47929
G1 X107.500 Y56.504 E5.82117
G1 X108.767 Y56.895 E5.83124
G1 X109.592 Y57.932 E5.84131 F1800.000
G1 X109.746 Y58.750 E5.84764
G1 X109.746 Y81.250 E6.01857
G1 X109.355 Y82.517 E6.02865
G1 X108.318 Y83.342 E6.03872
G1 X107.500 Y83.496 E6.04504
G1 X62.500 Y83.496 E6.38692
G1 X61.233 Y83.105 E6.39699
G1 X60.408 Y82.068 E6.40706
G1 X60.254 Y81.250 E6.41338
G1 X60.254 Y58.750 E6.58432
G1 X60.622 Y57.556 E6.59381
G1 F6240
G1 X61.682 Y56.658 E6.40347
G1 F6240
G1 X62.500 Y56.504 E6.28939
G1 F6240
G1 X74.145 Y56.504 E4.69381
G1 E4.59381 F900.00000
G92 E0
G1 X106.643 Y79.393 F7800.000
G1 E2.00000 F900.00000
G1 X89.120 Y79.393 E2.13313 F1800.000
G1 X88.736 Y79.342 E2.13607
G1 X88.339 Y79.178 E2.13933
G1 X87.998 Y78.917 E2.14259
G1 X87.736 Y78.577 E2.14585
G1 X87.571 Y78.181 E2.14912
G1 X87.513 Y77.755 E2.15238
G1 X87.568 Y77.329 E2.15564
G1 X87.754 Y76.875 E2.15937
G4 P2
G1 X86.504 Y77.402 E2.16967
G1 X85.000 Y77.607 E2.18120
G1 X83.496 Y77.402 E2.19274
G1 X82.246 Y76.875 E2.20304
G1 X82.434 Y77.334 E2.20680
G1 X82.484 Y77.776 E2.21018
G4 P1
G1 X82.429 Y78.181 E2.21329
G1 X82.264 Y78.577 E2.21655
G1 X82.002 Y78.917 E2.21981
G1 X81.661 Y79.178 E2.22307
G1 X81.264 Y79.342 E2.22633
G1 X80.880 Y79.393 E2.22927
G1 X63.357 Y79.393 E2.36240
G1 X63.357 Y68.451 E2.44553
G1 X63.408 Y68.065 E2.44849
G1 X63.574 Y67.667 E2.45176
G1 X63.837 Y67.325 E2.45504
G1 X64.180 Y67.063 E2.45832
G1 X64.579 Y66.899 E2.46160
G1 X64.985 Y66.847 E2.46471
G1 X65.429 Y66.901 E2.46811
G1 X65.792 Y67.053 E2.47110
G1 X66.606 Y67.529 E2.47826
G1 X66.686 Y67.459 E2.47907
G1 X66.568 Y67.171 E2.48144
G1 X66.513 Y66.745 E2.48470
G4 P8
G1 X66.571 Y66.319 E2.48796
G1 X66.736 Y65.923 E2.49122
G1 X66.998 Y65.583 E2.49448
G1 X67.339 Y65.322 E2.49775
G1 X67.716 Y65.166 E2.50085
G1 X68.115 Y65.107 E2.50391
G1 X101.880 Y65.107 E2.76043
G1 X102.264 Y65.158 E2.76337
G1 X102.661 Y65.322 E2.76664
G1 X103.002 Y65.583 E2.76990
G1 X103.264 Y65.923 E2.77316
G1 X103.429 Y66.319 E2.77642
G1 X103.487 Y66.745 E2.77969
G1 X103.432 Y67.171 E2.78295
G1 X103.314 Y67.459 E2.78532
G4 P8
G1 X103.394 Y67.529 E2.78612
G1 X104.212 Y67.051 E2.79332
G1 X104.587 Y66.900 E2.79640
G1 X104.993 Y66.845 E2.79951
G1 X105.421 Y66.899 E2.80279
G1 X105.820 Y67.063 E2.80606
G1 X106.163 Y67.325 E2.80934
G1 X106.426 Y67.667 E2.81262
G1 X106.592 Y68.065 E2.81590
G1 X106.643 Y68.451 E2.81885
G1 X106.643 Y79.318 E2.90141
G1 X106.396 Y79.146 F7800.000
G1 X89.136 Y79.146 E3.03254 F1800.000
G1 X88.800 Y79.102 E3.03512
G1 X88.463 Y78.963 E3.03789
G1 X88.173 Y78.741 E3.04066
G1 X87.951 Y78.452 E3.04343
G1 X87.811 Y78.116 E3.04620
G1 X87.762 Y77.754 E3.04897
G1 X87.808 Y77.393 E3.05174
G1 X87.946 Y77.055 E3.05451
G1 X88.155 Y76.780 E3.05713
G1 X88.432 Y76.559 E3.05982
G1 X104.321 Y67.273 E3.19964
G1 X104.651 Y67.140 E3.20234
G1 X104.994 Y67.093 E3.20498
G1 X105.358 Y67.139 E3.20776
G1 X105.697 Y67.279 E3.21055
G1 X105.988 Y67.501 E3.21333
G1 X106.211 Y67.791 E3.21611
G1 X106.352 Y68.130 E3.21889
G1 X106.396 Y68.467 E3.22148
G1 X106.396 Y79.071 E3.30204
G1 X106.150 Y78.900 F7800.000
G1 X89.152 Y78.900 E3.43118 F1800.000
G1 X88.864 Y78.862 E3.43339
G1 X88.587 Y78.748 E3.43567
G1 X88.349 Y78.565 E3.43794
G1 X88.166 Y78.328 E3.44022
G1 X88.050 Y78.051 E3.44250
G1 X88.010 Y77.754 E3.44478
G1 X88.048 Y77.456 E3.44706
G1 X88.162 Y77.179 E3.44934
G1 X88.333 Y76.954 E3.45148
G1 X88.572 Y76.763 E3.45381
G1 X104.429 Y67.494 E3.59335
G1 X104.714 Y67.380 E3.59568
G1 X104.995 Y67.341 E3.59784
G1 X105.294 Y67.380 E3.60013
G1 X105.573 Y67.494 E3.60242
G1 X105.812 Y67.677 E3.60471
G1 X105.996 Y67.916 E3.60700
G1 X106.112 Y68.194 E3.60928
G1 X106.150 Y68.483 E3.61150
G1 X106.150 Y78.825 E3.69007
G1 X106.150 Y79.400 F7800.000
G1 F6240
G1 X92.283 Y78.886 E1.79007
G1 E1.69007 F900.00000
G92 E0
G1 X100.464 Y69.171 F7800.000
G1 E2.00000 F900.00000
G1 X87.701 Y76.631 E2.11231 F1800.000
G1 X86.439 Y77.162 E2.12271
G1 X85.000 Y77.359 E2.13375
G1 X83.561 Y77.162 E2.14478
G1 X82.299 Y76.631 E2.15518
G1 X67.435 Y67.942 E2.28599
G1 X67.167 Y67.735 E2.28856
G1 X66.946 Y67.445 E2.29133
G1 X66.808 Y67.107 E2.29410
G1 X66.762 Y66.746 E2.29687
G1 X66.811 Y66.384 E2.29964
G1 X66.951 Y66.048 E2.30241
G1 X67.173 Y65.759 E2.30518
G1 X67.463 Y65.537 E2.30795
G1 X67.782 Y65.405 E2.31057
G1 X68.133 Y65.354 E2.31327
G1 X101.864 Y65.354 E2.56953 F1800.000
G1 X102.200 Y65.398 E2.57211
G1 X102.537 Y65.537 E2.57488
G1 X102.827 Y65.759 E2.57765
G1 X103.049 Y66.048 E2.58042
G1 X103.189 Y66.384 E2.58319
G1 X103.238 Y66.746 E2.58596
G1 X103.192 Y67.107 E2.58873
G1 X103.054 Y67.445 E2.59150
G1 X102.833 Y67.735 E2.59427
G1 X102.565 Y67.942 E2.59684
G1 X100.528 Y69.133 E2.61477
G1 F6240
G1 X88.557 Y76.130 E0.71477
G1 E0.61477 F900.00000
G92 E0
G1 X67.050 Y66.449 F7800.000
G1 E2.00000 F900.00000
G1 X67.166 Y66.172 E2.00228 F1800.000
G1 X67.349 Y65.935 E2.00456
G1 X67.587 Y65.752 E2.00684
G1 X67.848 Y65.644 E2.00898
G1 X68.151 Y65.600 E2.01131
G1 X101.848 Y65.600 E2.26731
G1 X102.136 Y65.638 E2.26952
G1 X102.413 Y65.752 E2.27180
G1 X102.651 Y65.935 E2.27408
G1 X102.834 Y66.172 E2.27635
G1 X102.950 Y66.449 E2.27863
G1 X102.990 Y66.746 E2.28091
G1 X102.952 Y67.044 E2.28319
G1 X102.838 Y67.321 E2.28547
G1 X102.656 Y67.560 E2.28775
G1 X102.427 Y67.738 E2.28995
G1 X87.590 Y76.410 E2.42051
G1 X86.373 Y76.922 E2.43055
G1 X85.000 Y77.110 E2.44107
G1 X83.627 Y76.922 E2.45160
G1 X82.410 Y76.410 E2.46164
G1 X67.573 Y67.738 E2.59220
G1 X67.344 Y67.560 E2.59440
G1 X67.162 Y67.321 E2.59668
G1 X67.048 Y67.044 E2.59896
G1 X67.010 Y66.746 E2.60124
G1 X67.040 Y66.523 E2.60295
G4 P25
G1 X66.848 Y66.227 F7800.000
G1 F6240
G4 P30
G1 X67.166 Y66.172 E2.55185
G1 F6240
G1 X67.349 Y65.935 E2.51076
G1 F6240
G1 X67.587 Y65.752 E2.46966
G1 F6240
G1 X67.848 Y65.644 E2.43095
G1 F6240
G1 X68.151 Y65.600 E2.38905
G1 F6240
G1 X80.456 Y65.600 E0.70295
G1 E0.60295 F900.00000
G92 E0
G1 X63.604 Y79.146 F7800.000
G1 E2.00000 F900.00000
G1 X63.604 Y68.467 E2.08114 F1800.000
G1 X63.648 Y68.130 E2.08372
G1 X63.789 Y67.791 E2.08650
G1 X64.012 Y67.501 E2.08929
G1 X64.303 Y67.279 E2.09207
G1 X64.642 Y67.139 E2.09485
G1 X64.986 Y67.095 E2.09749
G1 X65.366 Y67.141 E2.10039
G1 X65.682 Y67.274 E2.10300
G1 X81.565 Y76.558 E2.24277
G1 X81.833 Y76.765 E2.24534
G1 X82.054 Y77.055 E2.24811
G1 X82.193 Y77.396 E2.25090
G1 X82.236 Y77.774 E2.25379
G1 X82.189 Y78.116 E2.25642
G1 X82.049 Y78.452 E2.25919
G1 X81.827 Y78.741 E2.26196
G1 X81.537 Y78.963 E2.26473
G1 X81.200 Y79.102 E2.26750
G1 X80.864 Y79.146 E2.27007
G1 X63.679 Y79.146 E2.40063
G1 X63.850 Y78.900 F7800.000
G1 X63.850 Y68.483 E2.47978 F1800.000
G1 X63.888 Y68.194 E2.48199
G1 X64.004 Y67.916 E2.48428
G1 X64.188 Y67.677 E2.48657
G1 X64.427 Y67.494 E2.48886
G1 X64.706 Y67.380 E2.49115
G1 X64.987 Y67.344 E2.49330
G1 X65.302 Y67.382 E2.49571
G1 X65.572 Y67.495 E2.49793
G1 X81.427 Y76.762 E2.63746
G1 X81.656 Y76.940 E2.63966
G1 X81.838 Y77.179 E2.64194
G1 X81.952 Y77.457 E2.64423
G1 X81.987 Y77.771 E2.64663
G1 X81.950 Y78.051 E2.64877
G1 X81.834 Y78.328 E2.65105
G1 X81.651 Y78.565 E2.65333
G1 X81.413 Y78.748 E2.65561
G1 X81.136 Y78.862 E2.65789
G1 X80.848 Y78.900 E2.66009
G1 X63.925 Y78.900 E2.78866
G1 X63.350 Y78.900 F7800.000
G1 X63.143 Y80.607 F7800.000
G1 X63.143 Y59.393 E2.94983 F1800.000
G1 X106.857 Y59.393 E3.28194
G1 X106.857 Y80.607 E3.44312
G1 X63.218 Y80.607 E3.77466
G1 X62.896 Y80.854 F7800.000
G1 X62.896 Y59.146 E3.93957 F1800.000
G1 X107.104 Y59.146 E4.27543
G1 X107.104 Y80.854 E4.44034
G1 X62.971 Y80.854 E4.77563
G1 X62.650 Y81.100 F7800.000
G1 X62.650 Y58.900 E4.94429 F1800.000
G1 X107.350 Y58.900 E5.28389
G1 X107.350 Y81.100 E5.45255
G1 X62.725 Y81.100 E5.79157
G1 X62.900 Y80.667 F7800.000
G1 X63.280 Y80.326 F7800.000
G4 P25
G1 X63.424 Y80.470 E5.79313 F1800.000
G1 X63.774 Y80.470 E5.79580
G4 P14
G1 X63.280 Y79.976 E5.80114
G1 X63.280 Y79.626 E5.80381
G1 X64.124 Y80.470 E5.81292
G1 X64.474 Y80.470 E5.81559
G1 X63.534 Y79.530 E5.82574
G1 X63.884 Y79.530 E5.82841
G1 X64.824 Y80.470 E5.83856
G1 X65.174 Y80.470 E5.84123
G1 X64.234 Y79.530 E5.85137
G1 X64.583 Y79.530 E5.85404
G1 X65.524 Y80.470 E5.86419
G1 X65.874 Y80.470 E5.86686
G1 X64.933 Y79.530 E5.87701
G1 X65.283 Y79.530 E5.87968
G1 X66.224 Y80.470 E5.88983
G1 X66.574 Y80.470 E5.89250
G1 X65.633 Y79.530 E5.90265
G1 X65.983 Y79.530 E5.90532
G1 X66.924 Y80.470 E5.91547
G1 X67.274 Y80.470 E5.91814
G1 X66.333 Y79.530 E5.92828
G1 X66.683 Y79.530 E5.93096
G1 X67.623 Y80.470 E5.94110
G1 X67.973 Y80.470 E5.94377
G1 X67.033 Y79.530 E5.95392
G1 X67.383 Y79.530 E5.95659
G1 X68.323 Y80.470 E5.96674
G1 X68.673 Y80.470 E5.96941
G1 X67.733 Y79.530 E5.97956
G1 X68.083 Y79.530 E5.98223
G1 X69.023 Y80.470 E5.99238
G1 X69.373 Y80.470 E5.99505
G1 X68.433 Y79.530 E6.00520
G1 X68.783 Y79.530 E6.00787
G1 X69.723 Y80.470 E6.01801
G1 X70.073 Y80.470 E6.02068
G1 X69.133 Y79.530 E6.03083
G1 X69.483 Y79.530 E6.03350
G1 X70.423 Y80.470 E6.04365
G1 X70.773 Y80.470 E6.04632
G1 X69.832 Y79.530 E6.05647
G1 X70.182 Y79.530 E6.05914
G1 X71.123 Y80.470 E6.06929
G1 X71.473 Y80.470 E6.07196
G1 X70.532 Y79.530 E6.08211
G1 X70.882 Y79.530 E6.08478
G1 X71.823 Y80.470 E6.09493
G1 X72.173 Y80.470 E6.09760
G1 X71.232 Y79.530 E6.10774
G1 X71.582 Y79.530 E6.11041
G1 X72.523 Y80.470 E6.12056
G1 X72.872 Y80.470 E6.12323
G1 X71.932 Y79.530 E6.13338
G1 X72.282 Y79.530 E6.13605
G1 X73.222 Y80.470 E6.14620
G1 X73.572 Y80.470 E6.14887
G1 X72.632 Y79.530 E6.15902
G1 X72.982 Y79.530 E6.16169
G1 X73.922 Y80.470 E6.17184
G1 X74.272 Y80.470 E6.17451
G1 X73.332 Y79.530 E6.18466
G1 X73.682 Y79.530 E6.18733
G1 X74.622 Y80.470 E6.19747
G1 X74.972 Y80.470 E6.20014
G1 X74.032 Y79.530 E6.21029
G1 X74.382 Y79.530 E6.21296
G1 X75.322 Y80.470 E6.22311
G1 X75.672 Y80.470 E6.22578
G1 X74.732 Y79.530 E6.23593
G1 X75.082 Y79.530 E6.23860
G1 X76.022 Y80.470 E6.24875
G1 X76.372 Y80.470 E6.25142
G1 X75.431 Y79.530 E6.26157
G1 X75.781 Y79.530 E6.26424
G1 X76.722 Y80.470 E6.27439
G1 X77.072 Y80.470 E6.27706
G1 X76.131 Y79.530 E6.28720
G1 X76.481 Y79.530 E6.28987
G1 X77.422 Y80.470 E6.30002
G1 X77.772 Y80.470 E6.30269
G1 X76.831 Y79.530 E6.31284
G1 X77.181 Y79.530 E6.31551
G1 X78.121 Y80.470 E6.32566
G1 X78.471 Y80.470 E6.32833
G1 X77.531 Y79.530 E6.33848
G1 X77.881 Y79.530 E6.34115
G1 X78.821 Y80.470 E6.35130
G1 X79.171 Y80.470 E6.35397
G1 X78.231 Y79.530 E6.36411
G1 X78.581 Y79.530 E6.36679
G1 X79.521 Y80.470 E6.37693
G1 X79.871 Y80.470 E6.37960
G1 X78.931 Y79.530 E6.38975
G1 X79.281 Y79.530 E6.39242
G1 X80.221 Y80.470 E6.40257
G1 X80.571 Y80.470 E6.40524
G1 X79.631 Y79.530 E6.41539
G1 X79.981 Y79.530 E6.41806
G1 X80.921 Y80.470 E6.42821
G1 X81.271 Y80.470 E6.43088
G1 X80.331 Y79.530 E6.44103
G1 X80.680 Y79.530 E6.44370
G1 X81.621 Y80.470 E6.45384
G1 X81.971 Y80.470 E6.45651
G1 X81.008 Y79.508 E6.46690
G1 X81.306 Y79.456 E6.46921
G1 X82.321 Y80.470 E6.48016
G1 X82.671 Y80.470 E6.48283
G1 X81.554 Y79.354 E6.49488
G1 X81.782 Y79.232 E6.49685
G1 X83.021 Y80.470 E6.51022
G1 X83.371 Y80.470 E6.51289
G1 X81.980 Y79.080 E6.52789
G1 X82.157 Y78.907 E6.52978
G1 X83.720 Y80.470 E6.54665
G1 X84.070 Y80.470 E6.54932
G1 X82.309 Y78.709 E6.56833
G1 X82.434 Y78.484 E6.57029
G1 X84.420 Y80.470 E6.59173
G1 X84.770 Y80.470 E6.59440
G1 X82.537 Y78.237 E6.61850
G1 X82.593 Y77.943 E6.62078
G1 X85.120 Y80.470 E6.64805
G1 X85.470 Y80.470 E6.65072
G1 X82.609 Y77.609 E6.68160
G1 X82.555 Y77.205 E6.68471
G1 X85.820 Y80.470 E6.71995
G1 X86.170 Y80.470 E6.72262
G1 X83.117 Y77.418 E6.75556
G1 X83.614 Y77.564 E6.75951
G1 X86.520 Y80.470 E6.79087
G1 X86.870 Y80.470 E6.79354
G1 X84.019 Y77.619 E6.82431
G1 X84.424 Y77.675 E6.82743
G1 X87.220 Y80.470 E6.85760
G1 X87.570 Y80.470 E6.86027
G1 X84.830 Y77.730 E6.88984
G1 X85.166 Y77.716 E6.89241
G1 X87.920 Y80.470 E6.92213
G1 X88.270 Y80.470 E6.92480
G1 X85.474 Y77.674 E6.95497
G1 X85.782 Y77.632 E6.95734
G1 X88.620 Y80.470 E6.98797
G1 X88.969 Y80.470 E6.99064
G1 X86.089 Y77.590 E7.02172
G1 X87.412 Y77.513 F7800.000
G4 P23
G1 X87.157 Y77.258 E7.02448 F1800.000
G1 X86.911 Y77.362 E7.02652
G4 P12
G1 X87.377 Y77.828 E7.03155
G1 X87.432 Y78.233 E7.03467
G1 X86.665 Y77.465 E7.04295
G1 X86.397 Y77.548 E7.04508
G1 X89.319 Y80.470 E7.07662
G1 X89.669 Y80.470 E7.07929
G1 X88.680 Y79.481 E7.08997
G1 X89.079 Y79.530 E7.09304
G1 X90.019 Y80.470 E7.10318
G1 X90.369 Y80.470 E7.10585
G1 X89.429 Y79.530 E7.11600
G1 X89.779 Y79.530 E7.11867
G1 X90.719 Y80.470 E7.12882
G1 X91.069 Y80.470 E7.13149
G1 X90.129 Y79.530 E7.14164
G1 X90.479 Y79.530 E7.14431
G1 X91.419 Y80.470 E7.15446
G1 X91.769 Y80.470 E7.15713
G1 X90.829 Y79.530 E7.16728
G1 X91.179 Y79.530 E7.16995
G1 X92.119 Y80.470 E7.18010
G1 X92.469 Y80.470 E7.18277
G1 X91.528 Y79.530 E7.19291
G1 X91.878 Y79.530 E7.19558
G1 X92.819 Y80.470 E7.20573
G1 X93.169 Y80.470 E7.20840
G1 X92.228 Y79.530 E7.21855
G1 X92.578 Y79.530 E7.22122
G1 X93.519 Y80.470 E7.23137
G1 X93.869 Y80.470 E7.23404
G1 X92.928 Y79.530 E7.24419
G1 X93.278 Y79.530 E7.24686
G1 X94.219 Y80.470 E7.25701
G1 X94.568 Y80.470 E7.25968
G1 X93.628 Y79.530 E7.26983
G1 X93.978 Y79.530 E7.27250
G1 X94.918 Y80.470 E7.28264
G1 X95.268 Y80.470 E7.28531
G1 X94.328 Y79.530 E7.29546
G1 X94.678 Y79.530 E7.29813
G1 X95.618 Y80.470 E7.30828
G1 X95.968 Y80.470 E7.31095
G1 X95.028 Y79.530 E7.32110
G1 X95.378 Y79.530 E7.32377
G1 X96.318 Y80.470 E7.33392
G1 X96.668 Y80.470 E7.33659
G1 X95.728 Y79.530 E7.34674
G1 X96.078 Y79.530 E7.34941
G1 X97.018 Y80.470 E7.35956
G1 X97.368 Y80.470 E7.36223
G1 X96.428 Y79.530 E7.37237
G1 X96.777 Y79.530 E7.37504
G1 X97.718 Y80.470 E7.38519
G1 X98.068 Y80.470 E7.38786
G1 X97.127 Y79.530 E7.39801
G1 X97.477 Y79.530 E7.40068
G1 X98.418 Y80.470 E7.41083
G1 X98.768 Y80.470 E7.41350
G1 X97.827 Y79.530 E7.42365
G1 X98.177 Y79.530 E7.42632
G1 X99.118 Y80.470 E7.43647
G1 X99.468 Y80.470 E7.43914
G1 X98.527 Y79.530 E7.44928
G1 X98.877 Y79.530 E7.45196
G1 X99.817 Y80.470 E7.46210
G1 X100.167 Y80.470 E7.46477
G1 X99.227 Y79.530 E7.47492
G1 X99.577 Y79.530 E7.47759
