; generated by Slic3r 1.2.9 on 2017-07-28 at 21:51:18

; external perimeters extrusion width = 0.50mm
; perimeters extrusion width = 0.50mm
; infill extrusion width = 0.50mm
; solid infill extrusion width = 0.50mm
; top infill extrusion width = 0.50mm

M107
M190 S70 ; set bed temperature
M104 S218 ; set temperature
G28 ; home all axes
M109 S218 ; wait for temperature to be reached
G21 ; set units to millimeters
G90 ; use absolute coordinates
M82 ; use absolute distances for extrusion
G92 E0
G1 E-2.00000 F1800.00000
G92 E0
G1 Z0.250 F9600.000
G1 X38.961 Y50.776 F9600.000
G1 E2.00000 F1800.00000
M204 S600
G1 X39.212 Y50.583 E2.00487 F1800.000
G1 X40.451 Y49.868 E2.02691
G1 X41.657 Y49.368 E2.04702
G1 X43.040 Y48.998 E2.06906
G1 X44.334 Y48.827 E2.08917
G1 X45.049 Y48.781 E2.10022
G1 X125.049 Y48.781 E3.33260
G1 X125.765 Y48.827 E3.34364
G1 X127.059 Y48.998 E3.36375 F1800.000
G1 X128.441 Y49.368 E3.38580
G1 X129.647 Y49.868 E3.40590
G1 X130.886 Y50.583 E3.42795
G1 X131.922 Y51.378 E3.44806
G1 X132.934 Y52.390 E3.47010
G1 X133.728 Y53.425 E3.49021
G1 X134.444 Y54.665 E3.51225
G1 X134.943 Y55.870 E3.53236
G1 X135.314 Y57.253 E3.55441
G1 X135.484 Y58.547 E3.57451
G1 X135.531 Y59.262 E3.58556
G1 X135.531 Y64.262 E3.66258
G1 X135.433 Y85.763 E3.99380
G1 X135.027 Y87.808 E4.02591
G1 X133.887 Y89.553 E4.05802
G1 X132.178 Y90.747 E4.09013
G1 X129.951 Y91.219 E4.12521
G1 X39.951 Y91.219 E5.51164
G1 X37.904 Y90.823 E5.54375
G1 X36.154 Y89.691 E5.57586
G1 X34.952 Y87.988 E5.60798
G1 X34.469 Y85.738 E5.64343
G1 X34.469 Y80.713 E5.72084
G1 X34.567 Y59.237 E6.05167
G1 X34.614 Y58.547 E6.06233
G1 X34.785 Y57.253 E6.08244
G1 X35.155 Y55.870 E6.10448
G1 X35.655 Y54.665 E6.12459
G1 X36.370 Y53.425 E6.14663
G1 X37.165 Y52.390 E6.16674
G1 X38.177 Y51.378 E6.18878
G1 X38.902 Y50.821 E6.20287
G1 X39.264 Y51.169 F9600.000
G4 P30
G1 X39.514 Y50.977 E6.20774 F1800.000
G1 X40.641 Y50.326 E6.22778
G1 X41.847 Y49.827 E6.24789
G1 X43.104 Y49.490 E6.26794
G1 X44.399 Y49.320 E6.28805
G1 X45.049 Y49.277 E6.29809
G1 X125.049 Y49.277 E7.53048
G1 X125.700 Y49.320 E7.54052
G1 X126.994 Y49.490 E7.56063 F1800.000
G1 X128.251 Y49.827 E7.58068
G1 X129.457 Y50.326 E7.60078
G1 X130.584 Y50.977 E7.62083
G1 X131.620 Y51.772 E7.64094
G1 X132.540 Y52.692 E7.66099
G1 X133.334 Y53.727 E7.68110
G1 X133.985 Y54.854 E7.70115
G1 X134.485 Y56.060 E7.72125
G1 X134.822 Y57.317 E7.74130
G1 X134.992 Y58.612 E7.76141
G1 X135.035 Y59.262 E7.77145
G1 X135.035 Y64.262 E7.84848
G1 X134.936 Y85.761 E8.17966
G1 X134.531 Y87.706 E8.21027
G1 X133.399 Y89.339 E8.24088
G1 X131.718 Y90.399 E8.27149
G1 X129.951 Y90.723 E8.29917
G1 X39.951 Y90.723 E9.68560
G1 X38.004 Y90.327 E9.71621
G1 X36.366 Y89.202 E9.74682
G1 X35.297 Y87.527 E9.77743
G1 X34.965 Y85.738 E9.80546
G1 X34.965 Y80.715 E9.88284
G1 X35.064 Y59.239 E10.21366
G1 X35.106 Y58.612 E10.22336
G1 X35.277 Y57.317 E10.24346
G1 X35.614 Y56.060 E10.26351
G1 X36.113 Y54.854 E10.28362
G1 X36.764 Y53.727 E10.30367
G1 X37.558 Y52.692 E10.32378
G1 X38.479 Y51.772 E10.34383
G1 X39.204 Y51.215 E10.35791
G1 X39.566 Y51.563 F9600.000
G4 P30
G1 X39.816 Y51.371 E10.36278 F1800.000
G1 X40.831 Y50.785 E10.38083
G1 X42.037 Y50.285 E10.40094
G1 X43.169 Y49.982 E10.41899
G1 X44.463 Y49.812 E10.43910
G1 X45.049 Y49.773 E10.44814
G1 X125.049 Y49.773 E11.68052
G1 X125.635 Y49.812 E11.68957
G1 X126.929 Y49.982 E11.70968 F1800.000
G1 X128.061 Y50.285 E11.72773
G1 X129.267 Y50.785 E11.74784
G1 X130.282 Y51.371 E11.76589
G1 X131.317 Y52.165 E11.78600
G1 X132.146 Y52.994 E11.80405
G1 X132.941 Y54.030 E11.82416
G1 X133.527 Y55.044 E11.84221
G1 X134.026 Y56.250 E11.86232
G1 X134.329 Y57.382 E11.88037
G1 X134.500 Y58.676 E11.90048
G1 X134.538 Y59.262 E11.90952
G1 X134.538 Y64.262 E11.98655
G1 X134.440 Y85.758 E12.31769
G1 X134.036 Y87.599 E12.34672
G1 X132.912 Y89.112 E12.37575
G1 X131.266 Y90.030 E12.40478
G1 X129.951 Y90.227 E12.42527
G1 X39.951 Y90.227 E13.81170
G1 X38.108 Y89.831 E13.84073
G1 X36.591 Y88.714 E13.86976
G1 X35.665 Y87.073 E13.89879
G1 X35.462 Y85.738 E13.91959
G1 X35.462 Y80.717 E13.99694
G1 X35.560 Y59.242 E14.32776
G1 X35.599 Y58.676 E14.33649
G1 X35.769 Y57.382 E14.35660
G1 X36.072 Y56.250 E14.37465
G1 X36.572 Y55.044 E14.39476
G1 X37.158 Y54.030 E14.41281
G1 X37.952 Y52.994 E14.43292
G1 X38.781 Y52.165 E14.45097
G1 X39.506 Y51.609 E14.46506
G1 X39.868 Y51.957 F9600.000
G4 P30
G1 X40.119 Y51.765 E14.46992 F1800.000
G1 X41.021 Y51.243 E14.48598
G1 X42.227 Y50.744 E14.50609
G1 X43.234 Y50.474 E14.52214
G1 X44.528 Y50.304 E14.54225
G1 X45.049 Y50.270 E14.55030
G1 X125.049 Y50.270 E15.78268
G1 X125.570 Y50.304 E15.79072
G1 X126.864 Y50.474 E15.81083 F1800.000
G1 X127.871 Y50.744 E15.82689
G1 X129.077 Y51.243 E15.84700
G1 X129.980 Y51.765 E15.86305
G1 X131.015 Y52.559 E15.88316
G1 X131.752 Y53.296 E15.89922
G1 X132.547 Y54.332 E15.91932
G1 X133.068 Y55.234 E15.93538
G1 X133.568 Y56.440 E15.95549
G1 X133.837 Y57.447 E15.97154
G1 X134.008 Y58.741 E15.99165
G1 X134.042 Y59.262 E15.99970
G1 X134.042 Y64.281 E16.07700
G1 X133.943 Y85.756 E16.40783
G1 X133.541 Y87.486 E16.43519
G1 X132.427 Y88.870 E16.46255
G1 X129.951 Y89.730 E16.50294
G1 X39.951 Y89.730 E17.88937
G1 X38.219 Y89.335 E17.91673
G1 X36.830 Y88.229 E17.94409
G1 X36.059 Y86.629 E17.97145
G1 X35.958 Y85.738 E17.98526
G1 X35.958 Y80.719 E18.06257
G1 X36.057 Y59.244 E18.39340
G1 X36.091 Y58.741 E18.40116
G1 X36.261 Y57.447 E18.42127
G1 X36.531 Y56.440 E18.43732
G1 X37.030 Y55.234 E18.45743
G1 X37.551 Y54.332 E18.47349
G1 X38.346 Y53.296 E18.49359
G1 X39.083 Y52.559 E18.50965
G1 X39.808 Y52.003 E18.52374
G1 X40.170 Y52.351 F9600.000
G4 P30
G1 X40.421 Y52.158 E18.52860 F1800.000
G1 X41.211 Y51.702 E18.54266
G1 X42.417 Y51.202 E18.56277
G1 X43.299 Y50.966 E18.57683
G1 X44.593 Y50.796 E18.59694
G1 X45.049 Y50.766 E18.60398
G1 X125.049 Y50.766 E19.83637
G1 X125.505 Y50.796 E19.84341
G1 X126.800 Y50.966 E19.86352 F1800.000
G1 X127.681 Y51.202 E19.87758
G1 X128.887 Y51.702 E19.89769
G1 X129.678 Y52.158 E19.91175
G1 X130.713 Y52.953 E19.93185
G1 X131.359 Y53.598 E19.94591
G1 X132.153 Y54.634 E19.96602
G1 X132.610 Y55.424 E19.98008
G1 X133.109 Y56.630 E20.00019
G1 X133.345 Y57.512 E20.01425
G1 X133.516 Y58.806 E20.03436
G1 X133.546 Y59.262 E20.04140
G1 X133.545 Y64.278 E20.11867
G1 X133.447 Y85.754 E20.44950
G1 X133.045 Y87.365 E20.47508
G1 X131.946 Y88.609 E20.50066
G1 X129.951 Y89.234 E20.53286
G1 X39.951 Y89.234 E21.91930
G1 X38.338 Y88.840 E21.94487
G1 X37.089 Y87.746 E21.97045
G1 X36.454 Y85.738 E22.00289
G1 X36.455 Y80.722 E22.08017
G1 X36.553 Y59.246 E22.41099
G1 X36.583 Y58.806 E22.41779
G1 X36.753 Y57.512 E22.43790
G1 X36.989 Y56.630 E22.45196
G1 X37.489 Y55.424 E22.47207
G1 X37.945 Y54.634 E22.48613
G1 X38.740 Y53.598 E22.50623
G1 X39.385 Y52.953 E22.52029
G1 X40.111 Y52.396 E22.53438
G1 F7680
G1 X40.421 Y52.158 E22.44734
G1 F7680
G1 X41.211 Y51.702 E22.24411
G1 F7680
G1 X42.417 Y51.202 E21.95348
G1 F7680
G1 X43.299 Y50.966 E21.75026
G1 F7680
G1 X44.593 Y50.796 E21.45962
G1 F7680
G1 X45.049 Y50.766 E21.35781
G1 F7680
G1 X48.298 Y50.766 E20.63438
G1 E20.53438 F1800.00000
G92 E0
G1 X123.279 Y61.403 F9600.000
G1 E2.00000 F1800.00000
G1 X122.802 Y60.895 E2.01073 F1800.000
G1 X122.466 Y60.285 E2.02145
G1 X122.293 Y59.610 E2.03218
G1 X122.293 Y58.914 E2.04290
G1 X122.466 Y58.240 E2.05363
G1 X122.802 Y57.630 E2.06436
G1 X123.279 Y57.122 E2.07508
G1 X123.866 Y56.749 E2.08581
G1 X124.529 Y56.534 E2.09654
G1 X125.224 Y56.490 E2.10726 F1800.000
G1 X125.908 Y56.620 E2.11799
G1 X126.538 Y56.917 E2.12871
G1 X127.074 Y57.361 E2.13944
G1 X127.483 Y57.924 E2.15017
G1 X127.740 Y58.571 E2.16089
G1 X127.827 Y59.262 E2.17162
G1 X127.740 Y59.953 E2.18235
G1 X127.483 Y60.600 E2.19307
G1 X127.074 Y61.164 E2.20380
G1 X126.538 Y61.608 E2.21452
G1 X125.908 Y61.904 E2.22525
G1 X125.224 Y62.035 E2.23598
G1 X124.529 Y61.991 E2.24670
G1 X123.866 Y61.776 E2.25743
G1 X123.342 Y61.443 E2.26700
G1 X123.597 Y61.017 F9600.000
G4 P30
G1 X123.207 Y60.601 E2.27579 F1800.000
G1 X122.932 Y60.101 E2.28459
G1 X122.790 Y59.548 E2.29338
G1 X122.790 Y58.977 E2.30218
G1 X122.932 Y58.424 E2.31097
G1 X123.207 Y57.924 E2.31977
G1 X123.597 Y57.507 E2.32856
G1 X124.079 Y57.202 E2.33736
G1 X124.622 Y57.025 E2.34615
G1 X125.192 Y56.989 E2.35494 F1800.000
G1 X125.753 Y57.096 E2.36374
G1 X126.270 Y57.339 E2.37253
G1 X126.709 Y57.703 E2.38133
G1 X127.045 Y58.165 E2.39012
G1 X127.255 Y58.696 E2.39892
G1 X127.327 Y59.262 E2.40771
G1 X127.255 Y59.829 E2.41650
G1 X127.045 Y60.359 E2.42530
G1 X126.709 Y60.821 E2.43409
G1 X126.269 Y61.185 E2.44289
G1 X125.753 Y61.428 E2.45168
G1 X125.192 Y61.535 E2.46048
G1 X124.622 Y61.499 E2.46927
G1 X124.079 Y61.323 E2.47807
G1 X123.661 Y61.057 E2.48570
G1 X123.916 Y60.632 F9600.000
G4 P30
G1 X123.611 Y60.307 E2.49257 F1800.000
G1 X123.397 Y59.916 E2.49943
G1 X123.286 Y59.485 E2.50629
G1 X123.286 Y59.040 E2.51315
G1 X123.397 Y58.608 E2.52002
G1 X123.611 Y58.218 E2.52688
G1 X123.916 Y57.893 E2.53374
G1 X124.292 Y57.654 E2.54060
G1 X124.716 Y57.517 E2.54747
G1 X125.161 Y57.489 E2.55433 F1800.000
G1 X125.598 Y57.572 E2.56119
G1 X126.001 Y57.762 E2.56805
G1 X126.345 Y58.046 E2.57492
G1 X126.607 Y58.406 E2.58178
G1 X126.771 Y58.820 E2.58864
G1 X126.826 Y59.262 E2.59550
G1 X126.771 Y59.704 E2.60237
G1 X126.607 Y60.118 E2.60923
G1 X126.345 Y60.479 E2.61609
G1 X126.001 Y60.763 E2.62295
G1 X125.598 Y60.952 E2.62982
G1 X125.161 Y61.036 E2.63668
G1 X124.716 Y61.008 E2.64354
G1 X124.292 Y60.870 E2.65040
G1 X123.980 Y60.672 E2.65611
G1 X123.493 Y60.769 F9600.000
G4 P30
G1 X47.827 Y59.262 F9600.000
G1 X47.740 Y59.953 E2.66684 F1800.000
G1 X47.483 Y60.600 E2.67756
G1 X47.074 Y61.164 E2.68829
G1 X46.538 Y61.608 E2.69902
G1 X45.908 Y61.904 E2.70974
G1 X45.224 Y62.035 E2.72047
G1 X44.529 Y61.991 E2.73119
G1 X43.866 Y61.776 E2.74192
G1 X43.279 Y61.403 E2.75265
G1 X42.802 Y60.895 E2.76337
G1 X42.466 Y60.285 E2.77410
G1 X42.293 Y59.610 E2.78483
G1 X42.293 Y58.914 E2.79555
G1 X42.466 Y58.240 E2.80628
G1 X42.802 Y57.630 E2.81700
G1 X43.279 Y57.122 E2.82773
G1 X43.866 Y56.749 E2.83846
G1 X44.529 Y56.534 E2.84918
G1 X45.224 Y56.490 E2.85991 F1800.000
G1 X45.908 Y56.620 E2.87064
G1 X46.538 Y56.917 E2.88136
G1 X47.074 Y57.361 E2.89209
G1 X47.483 Y57.924 E2.90281
G1 X47.740 Y58.571 E2.91354
G1 X47.818 Y59.188 E2.92311
G1 X47.327 Y59.262 F9600.000
G1 X47.255 Y59.829 E2.93191 F1800.000
G1 X47.045 Y60.359 E2.94070
G1 X46.709 Y60.821 E2.94949
G1 X46.270 Y61.185 E2.95829
G1 X45.753 Y61.428 E2.96708
G1 X45.192 Y61.535 E2.97588
G1 X44.622 Y61.499 E2.98467
G1 X44.079 Y61.323 E2.99347
G1 X43.597 Y61.017 E3.00226
G1 X43.207 Y60.601 E3.01106
G1 X42.932 Y60.101 E3.01985
G1 X42.790 Y59.548 E3.02864
G1 X42.790 Y58.977 E3.03744
G1 X42.932 Y58.424 E3.04623
G1 X43.207 Y57.924 E3.05503
G1 X43.597 Y57.507 E3.06382
G1 X44.079 Y57.202 E3.07262
G1 X44.622 Y57.025 E3.08141
G1 X45.192 Y56.989 E3.09020 F1800.000
G1 X45.753 Y57.096 E3.09900
G1 X46.270 Y57.339 E3.10779
G1 X46.709 Y57.703 E3.11659
G1 X47.045 Y58.165 E3.12538
G1 X47.255 Y58.696 E3.13418
G1 X47.317 Y59.188 E3.14182
G1 X46.826 Y59.262 F9600.000
G1 X46.771 Y59.704 E3.14868 F1800.000
G1 X46.607 Y60.118 E3.15554
G1 X46.345 Y60.479 E3.16240
G1 X46.001 Y60.763 E3.16927
G1 X45.598 Y60.952 E3.17613
G1 X45.161 Y61.036 E3.18299
G1 X44.716 Y61.008 E3.18985
G1 X44.292 Y60.870 E3.19672
G1 X43.916 Y60.632 E3.20358
G1 X43.611 Y60.307 E3.21044
G1 X43.397 Y59.917 E3.21730
G1 X43.286 Y59.485 E3.22417
G1 X43.286 Y59.040 E3.23103
G1 X43.397 Y58.608 E3.23789
G1 X43.611 Y58.218 E3.24475
G1 X43.916 Y57.893 E3.25162
G1 X44.292 Y57.654 E3.25848
G1 X44.716 Y57.517 E3.26534
G1 X45.161 Y57.489 E3.27220 F1800.000
G1 X45.598 Y57.572 E3.27907
G1 X46.001 Y57.762 E3.28593
G1 X46.345 Y58.046 E3.29279
G1 X46.607 Y58.406 E3.29965
G1 X46.771 Y58.820 E3.30652
G1 X46.817 Y59.188 E3.31222
G1 X47.202 Y59.501 F9600.000
G1 F7680
G1 X46.771 Y59.704 E3.19679
G1 F7680
G1 X46.607 Y60.118 E3.09760
G1 F7680
G1 X46.345 Y60.479 E2.99841
G1 F7680
G1 X46.001 Y60.763 E2.89922
G1 F7680
G1 X45.598 Y60.952 E2.80003
G1 F7680
G1 X45.161 Y61.036 E2.70084
G1 F7680
G1 X44.716 Y61.008 E2.60166
G1 F7680
G1 X44.292 Y60.870 E2.50247
G1 F7680
G1 X43.916 Y60.632 E2.40328
G1 F7680
G1 X43.611 Y60.307 E2.30409
G1 F7680
G1 X43.397 Y59.917 E2.20490
G1 F7680
G1 X43.286 Y59.485 E2.10571
G1 F7680
G1 X43.286 Y59.040 E2.00652
G1 F7680
G1 X43.397 Y58.608 E1.90734
G1 F7680
G1 X43.611 Y58.218 E1.80815
G1 F7680
G1 X43.916 Y57.893 E1.70896
G1 F7680
G1 X44.292 Y57.654 E1.60977
G1 F7680
G1 X44.716 Y57.517 E1.51058
G1 E1.31222 F1800.00000
G92 E0
G4 P15
G1 X41.317 Y62.995 F9600.000
G1 E2.00000 F1800.00000
G1 X41.317 Y59.345 E2.05622 F1800.000
G1 X41.455 Y58.299 E2.07247
G1 X41.826 Y57.402 E2.08744
G1 X42.418 Y56.631 E2.10240
G1 X43.188 Y56.039 E2.11737
G1 X44.086 Y55.668 E2.13233
G1 X45.132 Y55.530 E2.14859
G1 X125.047 Y55.541 E3.37966
G1 X126.012 Y55.668 E3.39466
G1 X126.910 Y56.039 E3.40962
G1 X127.681 Y56.631 E3.42459
G1 X128.272 Y57.402 E3.43955
G1 X128.644 Y58.299 E3.45452
G1 X128.781 Y59.345 E3.47078
G1 X128.781 Y62.995 E3.52699
G1 X41.392 Y62.995 E4.87321
G1 X40.821 Y63.491 F9600.000
G1 X40.821 Y59.313 E4.93757 F1800.000
G1 X40.971 Y58.170 E4.95534
G1 X41.393 Y57.151 E4.97232
G1 X42.064 Y56.277 E4.98929
G1 X42.938 Y55.606 E5.00627
G1 X43.956 Y55.184 E5.02325
G1 X45.100 Y55.034 E5.04102
G1 X125.079 Y55.044 E6.27309
G1 X126.142 Y55.184 E6.28959
G1 X127.160 Y55.606 E6.30657
G1 X128.035 Y56.277 E6.32355
G1 X128.706 Y57.151 E6.34053
G1 X129.127 Y58.170 E6.35751
G1 X129.278 Y59.313 E6.37527
G1 X129.278 Y63.491 E6.43964
G1 X40.896 Y63.491 E7.80115
G1 X40.324 Y63.987 F9600.000
G1 X40.324 Y59.280 E7.87366 F1800.000
G1 X40.487 Y58.040 E7.89293
G1 X40.959 Y56.901 E7.91192
G1 X41.710 Y55.923 E7.93091
G1 X42.688 Y55.172 E7.94990
G1 X43.827 Y54.701 E7.96890
G1 X45.067 Y54.537 E7.98817
G1 X125.112 Y54.548 E9.22124
G1 X126.271 Y54.701 E9.23926
G1 X127.411 Y55.172 E9.25825
G1 X128.389 Y55.923 E9.27724
G1 X129.139 Y56.901 E9.29623
G1 X129.611 Y58.040 E9.31522
G1 X129.774 Y59.280 E9.33450
G1 X129.774 Y63.987 E9.40701
G1 X40.399 Y63.987 E10.78381
G1 X40.574 Y63.554 F9600.000
G1 X41.914 Y62.648 F9600.000
G4 P20
G1 X41.663 Y62.398 E10.78943 F1800.000
G1 X41.663 Y61.675 E10.80088
G1 X42.636 Y62.648 E10.82270
G1 X43.423 Y61.991 F9600.000
G4 P26
G1 X43.656 Y62.223 E10.82791 F1800.000
G1 X43.358 Y62.648 E10.83614
G4 P5
G1 X41.663 Y60.953 E10.87415
G1 X42.063 Y60.630 E10.88230
G1 X42.342 Y60.910 E10.88855
G4 P20
G1 X41.886 Y60.316 F9600.000
G1 X41.809 Y59.702 E10.90865 F1800.000
G1 X41.805 Y59.377 E10.91920
G1 X41.838 Y58.883 E10.93530
G1 X41.923 Y58.425 E10.95044
G1 X42.052 Y58.048 E10.96338
G1 X42.246 Y57.644 E10.97792
G1 X42.448 Y57.340 E10.98977
G1 X42.760 Y56.973 E11.00541
G1 X43.008 Y56.753 E11.01616
G1 X43.430 Y56.458 E11.03290
G1 X43.695 Y56.324 E11.04255
G1 X44.211 Y56.134 E11.06040
G1 X44.469 Y56.079 E11.06896
G1 X45.225 Y56.009 E11.09361
G1 X46.090 Y56.088 E11.12182
G1 F7680
G4 P4
G1 X45.225 Y56.009 E10.92840
G1 F7680
G4 P26
G1 X44.469 Y56.079 E10.75934
G1 F7680
G1 X44.211 Y56.134 E10.70066
G1 F7680
G1 X43.695 Y56.324 E10.57833
G1 F7680
G1 X43.430 Y56.458 E10.51215
G1 F7680
G1 X43.008 Y56.753 E10.39735
G1 F7680
G1 X42.760 Y56.973 E10.32366
G1 F7680
G1 X42.448 Y57.340 E10.21639
G1 F7680
G1 X42.246 Y57.644 E10.13519
G1 F7680
G1 X42.052 Y58.048 E10.03545
G1 F7680
G1 X41.923 Y58.425 E9.94673
G1 F7680
G1 X41.838 Y58.883 E9.84295
G1 F7680
G1 X41.805 Y59.377 E9.73259
G1 F7680
G1 X41.809 Y59.702 E9.66021
G1 F7680
G1 X41.886 Y60.316 E9.52245
G1 E9.12182 F1800.00000
G92 E0
G1 X46.444 Y62.396 F9600.000
G1 E2.00000 F1800.00000
G1 X46.696 Y62.648 E2.00554 F1800.000
G1 X47.403 Y62.648 E2.01650
G1 X46.652 Y61.898 E2.03297
G1 X47.044 Y61.582 E2.04076
G1 X48.110 Y62.648 E2.06414
G1 X48.816 Y62.648 E2.07510
G1 X47.401 Y61.232 E2.10616
G1 X47.698 Y60.823 E2.11400
G1 X49.523 Y62.648 E2.15404
G1 X50.230 Y62.648 E2.16500
G1 X47.924 Y60.343 E2.21557
G1 X48.095 Y59.807 E2.22429
G1 X50.937 Y62.648 E2.28663
G1 X51.643 Y62.648 E2.29759
G1 X48.174 Y59.179 E2.37368
G1 X48.078 Y58.377 E2.38621
G1 X52.350 Y62.648 E2.47990
G1 X53.057 Y62.648 E2.49086
G1 X46.434 Y56.026 E2.63612
G1 X46.991 Y55.876 E2.64506
