; generated by Slic3r 1.2.9 on 2017-07-12 at 20:14:22

; external perimeters extrusion width = 0.50mm
; perimeters extrusion width = 0.50mm
; infill extrusion width = 0.50mm
; solid infill extrusion width = 0.50mm
; top infill extrusion width = 0.50mm

M107
M190 S60 ; set bed temperature
M104 S210 ; set temperature
G28 ; home all axes
M109 S210 ; wait for temperature to be reached
G21 ; set units to millimeters
G90 ; use absolute coordinates
M82 ; use absolute distances for extrusion
G92 E0
G1 E-2.00000 F1800.00000
G92 E0
G1 Z0.250 F7800.000
G1 X70.887 Y41.302 F7800.000
G1 E2.00000 F1800.00000
M204 S3000
G1 X71.747 Y40.042 E2.01159 F1800.000
G1 X71.922 Y39.814 E2.01377
G1 X72.921 Y38.647 E2.02544
G1 X74.024 Y37.578 E2.03711
G1 X75.000 Y36.781 E2.04668
G1 X76.267 Y35.912 E2.05835
G1 X86.720 Y29.553 E2.15131
G1 X87.116 Y29.351 E2.15469
G1 X87.391 Y29.236 E2.15695
G1 X88.251 Y29.018 E2.16370
G1 X88.547 Y28.989 E2.16595
G1 X89.432 Y29.033 E2.17268
G1 X89.725 Y29.092 E2.17496 F1800.000
G1 X90.154 Y29.213 E2.17834
G1 X94.495 Y30.793 E2.21344
G1 X94.852 Y30.950 E2.21640
G1 X95.582 Y31.445 E2.22310
G1 X95.660 Y31.516 E2.22391
G1 X96.217 Y32.201 E2.23061
G1 X96.515 Y32.812 E2.23578
G1 X100.493 Y44.093 E2.32665
G1 X100.908 Y45.327 E2.33654
G1 X100.984 Y45.593 E2.33864
G1 X101.323 Y47.088 E2.35029
G1 X101.523 Y48.609 E2.36195
G1 X101.582 Y49.866 E2.37151
G1 X101.585 Y91.045 E2.68436
G1 X101.524 Y92.439 E2.69496
G1 X101.325 Y93.960 E2.70661
G1 X100.987 Y95.456 E2.71826
G1 X100.452 Y97.075 E2.73121
G1 X96.195 Y107.708 E2.81823
G1 X95.929 Y108.312 E2.82324
G1 X95.494 Y109.014 E2.82952
G1 X95.139 Y109.440 E2.83373
G1 X94.529 Y109.995 E2.84000
G1 X94.071 Y110.307 E2.84421
G1 X93.330 Y110.674 E2.85049
G1 X92.805 Y110.849 E2.85469
G1 X91.993 Y110.999 E2.86097
G1 X91.439 Y111.023 E2.86518
G1 X90.617 Y110.944 E2.87146
G1 X90.078 Y110.816 E2.87566
G1 X89.683 Y110.692 E2.87881
G1 X78.979 Y106.503 E2.96614
G1 X77.457 Y105.818 E2.97882
G1 X76.123 Y105.056 E2.99049
G1 X74.865 Y104.175 E3.00216
G1 X73.694 Y103.180 E3.01383
G1 X72.619 Y102.082 E3.02550
G1 X71.652 Y100.889 E3.03717
G1 X70.943 Y99.847 E3.04674
G1 X70.189 Y98.509 E3.05842
G1 X69.563 Y97.106 E3.07009
G1 X69.069 Y95.652 E3.08176
G1 X68.711 Y94.158 E3.09343
G1 X68.661 Y93.886 E3.09553
G1 X68.469 Y92.362 E3.10720
G1 X68.415 Y90.980 E3.11770
G1 X68.419 Y49.786 E3.43067
G1 X68.483 Y48.527 E3.44024
G1 X68.691 Y47.005 E3.45191
G1 X69.039 Y45.509 E3.46358
G1 X69.117 Y45.244 E3.46568
G1 X69.626 Y43.794 E3.47735
G1 X70.142 Y42.645 E3.48692
G1 X70.850 Y41.367 E3.49803
G1 X71.102 Y41.423 F7800.000
G4 P31
G1 X72.110 Y39.972 E3.51145 F1800.000
G1 X73.094 Y38.823 E3.52294
G1 X74.180 Y37.769 E3.53444
G1 X75.156 Y36.971 E3.54401
G1 X76.405 Y36.117 E3.55551
G1 X86.848 Y29.763 E3.64838
G1 X87.212 Y29.578 E3.65148
G1 X87.486 Y29.463 E3.65374
G1 X88.276 Y29.263 E3.65993
G1 X88.571 Y29.234 E3.66219
G1 X89.383 Y29.275 E3.66836
G1 X89.676 Y29.334 E3.67064 F1800.000
G1 X90.069 Y29.445 E3.67374
G1 X94.411 Y31.025 E3.70884
G1 X94.738 Y31.169 E3.71156
G1 X95.417 Y31.627 E3.71777
G1 X95.953 Y32.245 E3.72399
G1 X96.009 Y32.334 E3.72479
G1 X96.283 Y32.894 E3.72953
G1 X100.261 Y44.175 E3.82040
G1 X100.675 Y45.406 E3.83027
G1 X101.079 Y47.123 E3.84367
G1 X101.277 Y48.621 E3.85515
G1 X101.336 Y49.877 E3.86471
G1 X101.339 Y91.045 E4.17747
G1 X101.278 Y92.428 E4.18798
G1 X101.081 Y93.926 E4.19946
G1 X100.747 Y95.399 E4.21094
G1 X100.223 Y96.983 E4.22361
G1 X95.966 Y107.616 E4.31063
G1 X95.704 Y108.212 E4.31558
G1 X95.304 Y108.857 E4.32134
G1 X94.950 Y109.282 E4.32555
G1 X94.390 Y109.792 E4.33130
G1 X93.932 Y110.104 E4.33551
G1 X93.253 Y110.441 E4.34127
G1 X92.727 Y110.615 E4.34547
G1 X91.982 Y110.753 E4.35123
G1 X91.429 Y110.777 E4.35544
G1 X90.674 Y110.705 E4.36120
G1 X90.136 Y110.576 E4.36541
G1 X89.773 Y110.463 E4.36829
G1 X79.068 Y106.274 E4.45562
G1 X77.577 Y105.603 E4.46805
G1 X76.262 Y104.853 E4.47955
G1 X75.022 Y103.985 E4.49104
G1 X73.868 Y103.007 E4.50254
G1 X72.810 Y101.925 E4.51404
G1 X71.856 Y100.751 E4.52553
G1 X71.147 Y99.709 E4.53511
G1 X70.405 Y98.389 E4.54661
G1 X69.788 Y97.008 E4.55810
G1 X69.302 Y95.574 E4.56960
G1 X68.906 Y93.853 E4.58302
G1 X68.715 Y92.351 E4.59452
G1 X68.661 Y90.980 E4.60495
G1 X68.665 Y49.798 E4.91781
G1 X68.730 Y48.540 E4.92739
G1 X68.935 Y47.041 E4.93888
G1 X69.279 Y45.567 E4.95038
G1 X69.850 Y43.895 E4.96380
G1 X70.367 Y42.746 E4.97338
G1 X71.065 Y41.488 E4.98430
G1 X71.316 Y41.544 F7800.000
G4 P31
G1 X72.158 Y40.314 E4.99563 F1800.000
G1 X73.267 Y38.998 E5.00870
G1 X74.336 Y37.960 E5.02003
G1 X75.312 Y37.162 E5.02960
G1 X76.542 Y36.321 E5.04092
G1 X86.976 Y29.974 E5.13371
G1 X87.581 Y29.690 E5.13878
G1 X88.300 Y29.508 E5.14442
G1 X88.596 Y29.479 E5.14667
G1 X89.334 Y29.516 E5.15229
G1 X89.985 Y29.676 E5.15738 F1800.000
G1 X94.326 Y31.256 E5.19248
G1 X94.625 Y31.387 E5.19496
G1 X95.250 Y31.809 E5.20069
G1 X95.745 Y32.378 E5.20642
G1 X95.802 Y32.466 E5.20722
G1 X96.050 Y32.976 E5.21153
G1 X100.028 Y44.257 E5.30240
G1 X100.441 Y45.484 E5.31224
G1 X100.836 Y47.157 E5.32529
G1 X101.031 Y48.632 E5.33660
G1 X101.090 Y49.889 E5.34616
G1 X101.093 Y91.045 E5.65884
G1 X101.032 Y92.416 E5.66926
G1 X100.837 Y93.892 E5.68057
G1 X100.507 Y95.343 E5.69188
G1 X99.995 Y96.892 E5.70427
G1 X95.737 Y107.524 E5.79128
G1 X95.479 Y108.113 E5.79616
G1 X95.115 Y108.699 E5.80141
G1 X94.761 Y109.125 E5.80561
G1 X94.251 Y109.588 E5.81085
G1 X93.793 Y109.901 E5.81506
G1 X93.175 Y110.207 E5.82030
G1 X92.650 Y110.382 E5.82451
G1 X91.971 Y110.507 E5.82975
G1 X91.418 Y110.531 E5.83395
G1 X90.731 Y110.465 E5.83920
G1 X90.193 Y110.337 E5.84340
G1 X89.863 Y110.233 E5.84603
G1 X79.158 Y106.045 E5.93336
G1 X77.697 Y105.388 E5.94553
G1 X76.402 Y104.650 E5.95685
G1 X75.180 Y103.796 E5.96818
G1 X74.043 Y102.833 E5.97950
G1 X73.000 Y101.768 E5.99083
G1 X72.059 Y100.612 E6.00215
G1 X71.351 Y99.570 E6.01172
G1 X70.621 Y98.270 E6.02305
G1 X70.014 Y96.909 E6.03437
G1 X69.536 Y95.497 E6.04569
G1 X69.150 Y93.820 E6.05877
G1 X68.961 Y92.341 E6.07009
G1 X68.907 Y90.980 E6.08045
G1 X68.911 Y49.811 E6.39322
G1 X68.976 Y48.553 E6.40279
G1 X69.179 Y47.076 E6.41411
G1 X69.518 Y45.625 E6.42544
G1 X70.075 Y43.996 E6.43851
G1 X70.591 Y42.847 E6.44808
G1 X71.279 Y41.610 E6.45884
G1 X71.530 Y41.666 F7800.000
G4 P31
G1 X72.487 Y40.290 E6.47157 F1800.000
G1 X73.440 Y39.174 E6.48272
G1 X74.492 Y38.150 E6.49387
G1 X75.468 Y37.353 E6.50344
G1 X76.680 Y36.525 E6.51459
G1 X87.104 Y30.184 E6.60729
G1 X87.676 Y29.917 E6.61209
G1 X88.324 Y29.753 E6.61716
G1 X88.620 Y29.724 E6.61942
G1 X89.286 Y29.758 E6.62449
G1 X89.901 Y29.908 E6.62930 F1800.000
G1 X94.242 Y31.488 E6.66440
G1 X94.511 Y31.606 E6.66663
G1 X95.083 Y31.990 E6.67186
G1 X95.161 Y32.061 E6.67266
G1 X95.594 Y32.598 E6.67791
G1 X95.818 Y33.058 E6.68179
G1 X99.796 Y44.339 E6.77266
G1 X100.207 Y45.563 E6.78247
G1 X100.592 Y47.191 E6.79518
G1 X100.766 Y48.437 E6.80474
G1 X100.844 Y49.900 E6.81588
G1 X100.846 Y91.045 E7.12847
G1 X100.767 Y92.612 E7.14038
G1 X100.555 Y94.062 E7.15152
G1 X100.267 Y95.287 E7.16107
G1 X99.810 Y96.679 E7.17221
G1 X95.509 Y107.433 E7.26020
G1 X95.254 Y108.013 E7.26502
G1 X94.926 Y108.541 E7.26974
G1 X94.571 Y108.967 E7.27395
G1 X94.112 Y109.385 E7.27867
G1 X93.654 Y109.697 E7.28287
G1 X93.097 Y109.973 E7.28760
G1 X92.572 Y110.148 E7.29180
G1 X91.961 Y110.261 E7.29653
G1 X91.407 Y110.285 E7.30073
G1 X90.788 Y110.226 E7.30546
G1 X90.250 Y110.097 E7.30966
G1 X89.953 Y110.004 E7.31203
G1 X79.248 Y105.815 E7.39936
G1 X77.818 Y105.173 E7.41127
G1 X76.542 Y104.447 E7.42242
G1 X75.338 Y103.607 E7.43357
G1 X74.218 Y102.659 E7.44473
G1 X73.190 Y101.612 E7.45588
G1 X72.263 Y100.474 E7.46703
G1 X71.554 Y99.432 E7.47660
G1 X70.836 Y98.151 E7.48775
G1 X70.240 Y96.810 E7.49890
G1 X69.770 Y95.420 E7.51005
G1 X69.394 Y93.787 E7.52278
G1 X69.208 Y92.331 E7.53393
G1 X69.154 Y90.980 E7.54421
G1 X69.157 Y49.824 E7.85688
G1 X69.222 Y48.565 E7.86645
G1 X69.423 Y47.112 E7.87760
G1 X69.758 Y45.683 E7.88875
G1 X70.300 Y44.097 E7.90148
G1 X70.816 Y42.948 E7.91106
G1 X71.494 Y41.731 E7.92164
G1 F6240
G1 X72.487 Y40.290 E7.44201
G1 F6240
G1 X73.440 Y39.174 E7.03979
G1 F6240
G1 X74.492 Y38.150 E6.63757
G1 F6240
G1 X75.468 Y37.353 E6.29231
G1 F6240
G1 X76.283 Y36.796 E6.02164
G1 E5.92164 F1800.00000
G92 E0
G1 X92.672 Y106.123 F7800.000
G1 E2.00000 F1800.00000
G1 X92.617 Y106.413 E2.00224 F1800.000
G1 X92.492 Y106.679 E2.00447
G1 X92.304 Y106.906 E2.00671
G1 X92.066 Y107.079 E2.00895
G1 X91.792 Y107.187 E2.01118
G1 X91.500 Y107.224 E2.01342
G1 X91.208 Y107.187 E2.01566
G1 X90.934 Y107.079 E2.01789
G1 X90.696 Y106.906 E2.02013
G1 X90.508 Y106.679 E2.02237
G1 X90.383 Y106.413 E2.02460
G1 X90.328 Y106.123 E2.02684
G1 X90.346 Y105.830 E2.02908
G1 X90.437 Y105.550 E2.03131
G1 X90.595 Y105.301 E2.03355
G1 X90.810 Y105.099 E2.03579
G1 X91.068 Y104.958 E2.03802
G1 X91.353 Y104.884 E2.04026
G1 X91.647 Y104.884 E2.04250 F1800.000
G1 X91.932 Y104.958 E2.04473
G1 X92.190 Y105.099 E2.04697
G1 X92.405 Y105.301 E2.04921
G1 X92.563 Y105.550 E2.05144
G1 X92.654 Y105.830 E2.05368
G1 X92.667 Y106.049 E2.05535
G1 X92.424 Y106.108 F7800.000
G1 X92.381 Y106.336 E2.05711 F1800.000
G1 X92.282 Y106.546 E2.05888
G1 X92.134 Y106.725 E2.06064
G1 X91.946 Y106.861 E2.06240
G1 X91.730 Y106.947 E2.06417
G1 X91.500 Y106.976 E2.06593
G1 X91.270 Y106.947 E2.06769
G1 X91.054 Y106.861 E2.06946
G1 X90.866 Y106.725 E2.07122
G1 X90.718 Y106.546 E2.07299
G1 X90.619 Y106.336 E2.07475
G1 X90.576 Y106.108 E2.07651
G1 X90.590 Y105.876 E2.07828
G1 X90.662 Y105.655 E2.08004
G1 X90.786 Y105.459 E2.08180
G1 X90.956 Y105.300 E2.08357
G1 X91.159 Y105.188 E2.08533
G1 X91.384 Y105.131 E2.08710
G1 X91.616 Y105.131 E2.08886 F1800.000
G1 X91.841 Y105.188 E2.09062
G1 X92.044 Y105.300 E2.09239
G1 X92.214 Y105.459 E2.09415
G1 X92.338 Y105.655 E2.09592
G1 X92.410 Y105.876 E2.09768
G1 X92.420 Y106.033 E2.09887
G1 X92.612 Y106.244 F7800.000
G1 X92.857 Y105.355 F7800.000
G4 P26
G1 X92.751 Y105.386 E2.09972 F1800.000
G4 P29
G1 X92.596 Y105.143 E2.10191
G1 X92.336 Y104.899 E2.10462
G1 X92.024 Y104.727 E2.10733
G1 X91.678 Y104.638 E2.11003
G1 X91.322 Y104.638 E2.11274
G1 X90.976 Y104.727 E2.11545
G1 X90.664 Y104.899 E2.11816
G1 X90.404 Y105.143 E2.12087
G1 X90.213 Y105.444 E2.12358
G1 X90.102 Y105.783 E2.12629
G1 X90.080 Y106.139 E2.12900
G1 X90.147 Y106.489 E2.13171
G1 X90.299 Y106.812 E2.13442
G1 X90.428 Y106.969 E2.13597
G4 P2
G1 X90.361 Y107.062 E2.13684
G1 X83.306 Y104.301 E2.19439
G1 X83.338 Y104.175 E2.19538
G1 X84.005 Y104.256 E2.20049
G1 X85.213 Y104.291 E2.20967
G1 X86.419 Y104.217 E2.21885
G1 X87.614 Y104.032 E2.22803
G1 X88.786 Y103.740 E2.23721
G1 X89.928 Y103.342 E2.24640
G1 X91.028 Y102.842 E2.25558
G1 X92.086 Y102.237 E2.26484
G1 X92.928 Y101.649 E2.27264
G1 X93.014 Y101.721 E2.27349
G1 X92.952 Y101.861 E2.27466
G1 X92.857 Y102.542 E2.27988
G1 X92.857 Y105.280 E2.30068
G1 F6240
G1 X92.751 Y105.386 E2.25950
G1 F6240
G1 X92.596 Y105.143 E2.18051
G1 F6240
G1 X92.336 Y104.899 E2.08278
G1 F6240
G1 X92.024 Y104.727 E1.98504
G1 F6240
G1 X91.678 Y104.638 E1.88731
G1 F6240
G1 X91.322 Y104.638 E1.78957
G1 F6240
G4 P16
G1 X90.976 Y104.727 E1.69183
G1 F6240
G1 X90.664 Y104.899 E1.59409
G1 F6240
G1 X90.404 Y105.143 E1.49636
G1 F6240
G1 X90.213 Y105.444 E1.39862
G1 F6240
G1 X90.102 Y105.783 E1.30089
G1 F6240
G1 X90.080 Y106.139 E1.20315
G1 F6240
G1 X90.147 Y106.489 E1.10542
G1 F6240
G1 X90.299 Y106.812 E1.00768
G1 F6240
G1 X90.428 Y106.969 E0.95188
G1 F6240
G4 P24
G1 X90.361 Y107.062 E0.92052
G1 F6240
G4 P2
G1 X88.595 Y106.370 E0.40068
G1 E0.30068 F1800.00000
G92 E0
G4 P13
G1 X91.448 Y79.496 F7800.000
G1 E2.00000 F1800.00000
G1 X91.014 Y79.227 E2.00388 F1800.000
G1 X90.952 Y79.148 E2.00464
G1 X90.916 Y79.054 E2.00541
G1 X90.907 Y78.953 E2.00617
G4 P6
G1 X90.937 Y78.809 E2.00729
G1 X92.354 Y74.916 E2.03877
G1 X93.026 Y75.160 E2.04420
G1 X91.473 Y79.426 E2.07868
G1 F6240
G1 X91.014 Y79.227 E1.94159
G1 F6240
G1 X90.952 Y79.148 E1.91398
G1 F6240
G1 X90.916 Y79.054 E1.88638
G1 F6240
G1 X90.907 Y78.953 E1.85877
G1 F6240
G1 X90.937 Y78.809 E1.81832
G1 F6240
G1 X92.354 Y74.916 E0.68297
G1 F6240
G1 X93.026 Y75.160 E0.48714
G1 F6240
G1 X92.641 Y76.218 E0.17868
G1 E0.07868 F1800.00000
G92 E0
G1 X88.179 Y78.058 F7800.000
G1 E2.00000 F1800.00000
G1 X88.091 Y78.106 E2.00077 F1800.000
G1 X87.992 Y78.127 E2.00153
G1 X87.830 Y78.115 E2.00276
G1 X86.700 Y77.916 E2.01148
G1 X85.496 Y77.816 E2.02066
G1 X84.287 Y77.825 E2.02985
G1 X83.085 Y77.945 E2.03903
G1 X81.898 Y78.175 E2.04821
G1 X81.102 Y78.405 E2.05450
G1 X81.050 Y78.287 E2.05549
G1 X88.564 Y73.718 E2.12229
G1 X88.704 Y73.660 E2.12345
G1 X88.810 Y73.649 E2.12425
G1 X88.954 Y73.679 E2.12537
G1 X89.734 Y73.972 E2.13170
G1 X88.320 Y77.856 E2.16310
G1 X88.232 Y78.004 E2.16441
G1 F6240
G1 X88.091 Y78.106 E2.11674
G1 F6240
G1 X87.992 Y78.127 E2.08914
G1 F6240
G1 X87.830 Y78.115 E2.04464
G1 F6240
G1 X86.700 Y77.916 E1.73018
G1 F6240
G1 X85.496 Y77.816 E1.39899
G1 F6240
G4 P9
G1 X84.287 Y77.825 E1.06780
G1 F6240
G1 X83.085 Y77.945 E0.73660
G1 F6240
G1 X81.898 Y78.175 E0.40541
G1 F6240
G1 X81.404 Y78.318 E0.26441
G1 E0.16441 F1800.00000
G92 E0
G1 X91.662 Y79.628 F7800.000
G1 E2.00000 F1800.00000
G1 X92.940 Y80.501 E2.01176 F1800.000
G1 X93.881 Y81.279 E2.02103
G1 X94.745 Y82.142 E2.03031
G1 X95.527 Y83.080 E2.03959
G1 X96.218 Y84.087 E2.04887
G1 X96.813 Y85.153 E2.05815
G1 X97.308 Y86.270 E2.06742
G1 X97.697 Y87.428 E2.07670
G1 X97.977 Y88.616 E2.08598
G1 X98.146 Y89.826 E2.09526
G1 X98.203 Y91.035 E2.10446
G1 X98.147 Y92.266 E2.11382
G1 X97.978 Y93.475 E2.12309
G1 X97.699 Y94.664 E2.13237
G1 X97.311 Y95.822 E2.14165
G1 X96.817 Y96.939 E2.15093
G1 X96.222 Y98.005 E2.16020
G1 X95.532 Y99.012 E2.16948
G1 X94.751 Y99.951 E2.17876
G1 X93.861 Y100.840 E2.18832
G1 X93.460 Y101.322 E2.19308
G1 X93.192 Y101.929 E2.19812
G1 X93.104 Y102.559 E2.20296
G1 X93.104 Y106.022 E2.22926
G1 X93.038 Y106.488 E2.23284
G1 X92.859 Y106.893 E2.23620
G1 X92.576 Y107.233 E2.23957
G1 X92.210 Y107.483 E2.24293
G1 X91.790 Y107.623 E2.24629
G1 X91.348 Y107.642 E2.24966
G1 X90.890 Y107.533 E2.25323
G1 X80.219 Y103.357 E2.34029
G1 X79.092 Y102.857 E2.34965
G1 X78.034 Y102.265 E2.35886
G1 X77.017 Y101.567 E2.36824
G1 X76.079 Y100.783 E2.37753
G1 X75.216 Y99.916 E2.38682
G1 X74.438 Y98.972 E2.39611
G1 X73.750 Y97.961 E2.40541
G1 X73.164 Y96.899 E2.41462
G1 X72.669 Y95.769 E2.42399
G1 X72.285 Y94.608 E2.43328
G1 X72.010 Y93.416 E2.44257
G1 X71.847 Y92.204 E2.45187
G1 X71.797 Y90.982 E2.46116
G1 X71.860 Y89.760 E2.47045
G1 X72.035 Y88.550 E2.47974
G1 X72.322 Y87.361 E2.48904
G1 X72.718 Y86.204 E2.49833
G1 X73.219 Y85.088 E2.50762
G1 X73.816 Y84.033 E2.51683
G1 X74.520 Y83.019 E2.52621
G1 X75.308 Y82.084 E2.53550
G1 X76.179 Y81.225 E2.54479
G1 X77.126 Y80.451 E2.55408
G1 X78.148 Y79.763 E2.56344
G1 X88.452 Y73.498 E2.65505
G1 X88.643 Y73.418 E2.65663
G1 X88.823 Y73.401 E2.65800
G1 X89.023 Y73.441 E2.65955
G1 X90.048 Y73.828 E2.66788
G1 X88.545 Y77.957 E2.70127
G1 X88.450 Y78.134 E2.70279
G1 X88.329 Y78.257 E2.70410
G1 X88.178 Y78.339 E2.70541
G1 X88.009 Y78.376 E2.70672
G1 X87.800 Y78.360 E2.70832
G1 X86.669 Y78.160 E2.71704
G1 X85.487 Y78.062 E2.72605
G1 X84.301 Y78.072 E2.73506
G1 X83.120 Y78.189 E2.74408
G1 X81.956 Y78.414 E2.75309
G1 X80.817 Y78.745 E2.76210
G1 X79.712 Y79.177 E2.77111
G1 X78.661 Y79.704 E2.78004
G1 X77.645 Y80.334 E2.78913
G1 X76.698 Y81.050 E2.79814
G1 X75.821 Y81.848 E2.80715
G1 X75.021 Y82.723 E2.81616
G1 X74.303 Y83.668 E2.82517
G1 X73.675 Y84.673 E2.83418
G1 X73.141 Y85.732 E2.84319
G1 X72.705 Y86.836 E2.85220
G1 X72.372 Y87.974 E2.86122
G1 X72.144 Y89.138 E2.87023
G1 X72.024 Y90.318 E2.87924
G1 X72.011 Y91.504 E2.88825
G1 X72.107 Y92.686 E2.89726
G1 X72.309 Y93.855 E2.90627
G1 X72.618 Y95.000 E2.91528
G1 X73.030 Y96.112 E2.92429
G1 X73.541 Y97.182 E2.93330
G1 X74.148 Y98.202 E2.94231
G1 X74.845 Y99.161 E2.95132
G1 X75.627 Y100.053 E2.96033
G1 X76.479 Y100.863 E2.96927
G1 X77.417 Y101.605 E2.97835
G1 X78.411 Y102.253 E2.98737
G1 X79.460 Y102.807 E2.99638
G1 X80.555 Y103.263 E3.00539
G1 X81.687 Y103.617 E3.01440
G1 X82.846 Y103.867 E3.02341
G1 X84.024 Y104.010 E3.03242
G1 X85.209 Y104.045 E3.04143
