; generated by Slic3r 1.2.9 on 2017-07-15 at 18:41:53

; external perimeters extrusion width = 0.50mm
; perimeters extrusion width = 0.50mm
; infill extrusion width = 0.50mm
; solid infill extrusion width = 0.50mm
; top infill extrusion width = 0.50mm

M107
M190 S60 ; set bed temperature
M104 S210 ; set temperature
G28 ; home all axes
M109 S210 ; wait for temperature to be reached
G21 ; set units to millimeters
G90 ; use absolute coordinates
M82 ; use absolute distances for extrusion
G92 E0
G1 E-2.00000 F1800.00000
G92 E0
G1 Z0.250 F1800.000
G1 X60.793 Y54.833 F1800.000
G1 E2.00000 F1800.00000
M204 S3000
G1 X62.128 Y53.498 E2.01434 F900.000
G1 X63.098 Y52.753 E2.02364
G1 X64.798 Y51.759 E2.03860
G1 X66.004 Y51.260 E2.04851
G1 X67.827 Y50.771 E2.06285
G1 X69.122 Y50.601 E2.07277
G1 X70.066 Y50.539 E2.07996
G1 X100.066 Y50.539 E2.30788
G1 X101.010 Y50.601 E2.31506
G1 X102.304 Y50.771 E2.32498 F900.000
G1 X104.127 Y51.260 E2.33932
G1 X105.333 Y51.759 E2.34924
G1 X106.968 Y52.703 E2.36358
G1 X108.004 Y53.498 E2.37350
G1 X109.338 Y54.832 E2.38784
G1 X110.133 Y55.868 E2.39776
G1 X111.077 Y57.503 E2.41210
G1 X111.576 Y58.709 E2.42202
G1 X112.065 Y60.532 E2.43636
G1 X112.235 Y61.827 E2.44627
G1 X112.297 Y62.836 E2.45396
G1 X112.166 Y77.295 E2.56381
G1 X112.104 Y78.173 E2.57050
G1 X111.934 Y79.468 E2.58042
G1 X111.445 Y81.291 E2.59476
G1 X110.946 Y82.497 E2.60468
G1 X110.002 Y84.132 E2.61902
G1 X109.207 Y85.168 E2.62894
G1 X107.872 Y86.502 E2.64328
G1 X106.837 Y87.297 E2.65319
G1 X105.202 Y88.241 E2.66754
G1 X103.996 Y88.740 E2.67745
G1 X102.172 Y89.229 E2.69180
G1 X100.878 Y89.399 E2.70171
G1 X99.934 Y89.461 E2.70890
G1 X69.934 Y89.461 E2.93682
G1 X68.990 Y89.399 E2.94400
G1 X67.696 Y89.229 E2.95392
G1 X65.873 Y88.740 E2.96826
G1 X64.667 Y88.241 E2.97818
G1 X63.032 Y87.297 E2.99252
G1 X61.996 Y86.502 E3.00244
G1 X60.662 Y85.167 E3.01678
G1 X59.867 Y84.132 E3.02670
G1 X58.923 Y82.497 E3.04104
G1 X58.423 Y81.291 E3.05096
G1 X57.935 Y79.468 E3.06530
G1 X57.765 Y78.173 E3.07522
G1 X57.703 Y77.164 E3.08290
G1 X57.834 Y62.705 E3.19275
G1 X57.896 Y61.827 E3.19944
G1 X58.066 Y60.532 E3.20936
G1 X58.555 Y58.709 E3.22370
G1 X59.054 Y57.503 E3.23362
G1 X59.998 Y55.868 E3.24796
G1 X60.747 Y54.892 E3.25731
G1 X60.988 Y54.983 F1800.000
G4 P24
G1 X62.278 Y53.693 E3.27116 F900.000
G1 X63.248 Y52.948 E3.28046
G1 X64.892 Y51.987 E3.29493
G1 X66.098 Y51.487 E3.30484
G1 X67.860 Y51.015 E3.31870
G1 X69.154 Y50.845 E3.32861
G1 X70.066 Y50.785 E3.33555
G1 X100.066 Y50.785 E3.56347
G1 X100.977 Y50.845 E3.57041
G1 X102.272 Y51.015 E3.58033 F900.000
G1 X104.033 Y51.487 E3.59418
G1 X105.239 Y51.987 E3.60410
G1 X106.818 Y52.898 E3.61796
G1 X107.854 Y53.693 E3.62787
G1 X109.143 Y54.982 E3.64172
G1 X109.938 Y56.018 E3.65164
G1 X110.849 Y57.597 E3.66550
G1 X111.349 Y58.803 E3.67541
G1 X111.821 Y60.565 E3.68927
G1 X111.991 Y61.859 E3.69918
G1 X112.051 Y62.834 E3.70661
G1 X111.920 Y77.293 E3.81646
G1 X111.860 Y78.141 E3.82292
G1 X111.690 Y79.435 E3.83284
G1 X111.218 Y81.197 E3.84669
G1 X110.718 Y82.403 E3.85661
G1 X109.806 Y83.982 E3.87046
G1 X109.012 Y85.018 E3.88038
G1 X107.722 Y86.307 E3.89423
G1 X106.687 Y87.102 E3.90415
G1 X105.108 Y88.013 E3.91800
G1 X103.902 Y88.513 E3.92792
G1 X102.140 Y88.985 E3.94177
G1 X100.846 Y89.155 E3.95169
G1 X99.934 Y89.215 E3.95863
G1 X69.934 Y89.215 E4.18655
G1 X69.023 Y89.155 E4.19349
G1 X67.729 Y88.985 E4.20341
G1 X65.967 Y88.513 E4.21726
G1 X64.761 Y88.013 E4.22718
G1 X63.182 Y87.102 E4.24103
G1 X62.146 Y86.307 E4.25095
G1 X60.857 Y85.017 E4.26480
G1 X60.062 Y83.982 E4.27472
G1 X59.151 Y82.403 E4.28857
G1 X58.651 Y81.197 E4.29849
G1 X58.179 Y79.435 E4.31234
G1 X58.009 Y78.141 E4.32226
G1 X57.949 Y77.166 E4.32968
G1 X58.080 Y62.707 E4.43953
G1 X58.140 Y61.859 E4.44599
G1 X58.310 Y60.565 E4.45591
G1 X58.782 Y58.803 E4.46977
G1 X59.282 Y57.597 E4.47968
G1 X60.194 Y56.018 E4.49354
G1 X60.942 Y55.042 E4.50288
G1 X61.184 Y55.132 F1800.000
G4 P24
G1 X62.428 Y53.889 E4.51625 F900.000
G1 X63.398 Y53.144 E4.52555
G1 X64.987 Y52.214 E4.53953
G1 X66.193 Y51.715 E4.54944
G1 X67.892 Y51.259 E4.56281
G1 X69.186 Y51.089 E4.57272
G1 X70.066 Y51.031 E4.57942
G1 X100.066 Y51.031 E4.80734
G1 X100.945 Y51.089 E4.81404
G1 X102.239 Y51.259 E4.82395 F900.000
G1 X103.939 Y51.715 E4.83732
G1 X105.145 Y52.214 E4.84723
G1 X106.668 Y53.094 E4.86060
G1 X107.704 Y53.889 E4.87052
G1 X108.947 Y55.132 E4.88388
G1 X109.742 Y56.168 E4.89380
G1 X110.622 Y57.692 E4.90716
G1 X111.121 Y58.897 E4.91708
G1 X111.577 Y60.597 E4.93044
G1 X111.747 Y61.891 E4.94036
G1 X111.804 Y62.832 E4.94752
G1 X111.673 Y77.291 E5.05737
G1 X111.616 Y78.109 E5.06361
G1 X111.445 Y79.403 E5.07353
G1 X110.990 Y81.103 E5.08689
G1 X110.491 Y82.309 E5.09681
G1 X109.611 Y83.832 E5.11017
G1 X108.816 Y84.868 E5.12009
G1 X107.572 Y86.111 E5.13345
G1 X106.537 Y86.906 E5.14337
G1 X105.013 Y87.786 E5.15674
G1 X103.807 Y88.285 E5.16665
G1 X102.108 Y88.741 E5.18002
G1 X100.814 Y88.911 E5.18993
G1 X99.934 Y88.969 E5.19663
G1 X69.934 Y88.969 E5.42455
G1 X69.055 Y88.911 E5.43125
G1 X67.761 Y88.741 E5.44116
G1 X66.061 Y88.285 E5.45453
G1 X64.856 Y87.786 E5.46444
G1 X63.332 Y86.906 E5.47781
G1 X62.296 Y86.111 E5.48773
G1 X61.052 Y84.868 E5.50109
G1 X60.258 Y83.832 E5.51101
G1 X59.378 Y82.308 E5.52437
G1 X58.879 Y81.102 E5.53429
G1 X58.423 Y79.403 E5.54766
G1 X58.253 Y78.109 E5.55757
G1 X58.196 Y77.168 E5.56473
G1 X58.327 Y62.709 E5.67459
G1 X58.384 Y61.891 E5.68082
G1 X58.555 Y60.597 E5.69074
G1 X59.010 Y58.897 E5.70410
G1 X59.509 Y57.691 E5.71402
G1 X60.389 Y56.168 E5.72738
G1 X61.138 Y55.192 E5.73673
G1 X61.379 Y55.282 F1800.000
G4 P24
G1 X62.578 Y54.084 E5.74961 F900.000
G1 X63.548 Y53.339 E5.75890
G1 X65.081 Y52.442 E5.77239
G1 X66.287 Y51.942 E5.78231
G1 X67.924 Y51.504 E5.79519
G1 X69.218 Y51.333 E5.80510
G1 X70.066 Y51.278 E5.81156
G1 X100.066 Y51.278 E6.03947
G1 X100.913 Y51.333 E6.04593
G1 X102.207 Y51.504 E6.05584 F900.000
G1 X103.844 Y51.942 E6.06872
G1 X105.050 Y52.442 E6.07864
G1 X106.518 Y53.289 E6.09151
G1 X107.554 Y54.084 E6.10143
G1 X108.752 Y55.282 E6.11431
G1 X109.547 Y56.318 E6.12422
G1 X110.394 Y57.786 E6.13710
G1 X110.894 Y58.992 E6.14702
G1 X111.332 Y60.629 E6.15989
G1 X111.503 Y61.923 E6.16981
G1 X111.558 Y62.829 E6.17671
G1 X111.427 Y77.288 E6.28656
G1 X111.372 Y78.077 E6.29257
G1 X111.201 Y79.371 E6.30248
G1 X110.763 Y81.008 E6.31536
G1 X110.263 Y82.214 E6.32528
G1 X109.416 Y83.682 E6.33815
G1 X108.621 Y84.718 E6.34807
G1 X107.422 Y85.916 E6.36095
G1 X106.387 Y86.711 E6.37086
G1 X104.919 Y87.558 E6.38374
G1 X103.713 Y88.058 E6.39366
G1 X102.076 Y88.496 E6.40653
G1 X100.782 Y88.667 E6.41645
G1 X99.934 Y88.722 E6.42290
G1 X69.934 Y88.722 E6.65082
G1 X69.087 Y88.667 E6.65727
G1 X67.793 Y88.496 E6.66719
G1 X66.156 Y88.058 E6.68007
G1 X64.950 Y87.558 E6.68998
G1 X63.482 Y86.711 E6.70286
G1 X62.446 Y85.916 E6.71278
G1 X61.248 Y84.718 E6.72565
G1 X60.453 Y83.682 E6.73557
G1 X59.606 Y82.214 E6.74845
G1 X59.106 Y81.008 E6.75836
G1 X58.668 Y79.371 E6.77124
G1 X58.497 Y78.077 E6.78116
G1 X58.442 Y77.171 E6.78805
G1 X58.573 Y62.712 E6.89791
G1 X58.628 Y61.923 E6.90391
G1 X58.799 Y60.629 E6.91383
G1 X59.237 Y58.992 E6.92671
G1 X59.737 Y57.786 E6.93662
G1 X60.584 Y56.318 E6.94950
G1 X61.333 Y55.342 E6.95885
G1 X61.574 Y55.432 F1800.000
G4 P24
G1 X62.727 Y54.279 E6.97123 F900.000
G1 X63.698 Y53.534 E6.98053
G1 X65.175 Y52.669 E6.99353
G1 X66.381 Y52.170 E7.00345
G1 X67.956 Y51.748 E7.01584
G1 X69.250 Y51.578 E7.02575
G1 X70.066 Y51.524 E7.03196
G1 X100.066 Y51.524 E7.25988
G1 X100.881 Y51.578 E7.26609
G1 X102.175 Y51.748 E7.27600 F900.000
G1 X103.750 Y52.170 E7.28839
G1 X104.956 Y52.670 E7.29831
G1 X106.368 Y53.485 E7.31070
G1 X107.404 Y54.279 E7.32061
G1 X108.557 Y55.432 E7.33300
G1 X109.351 Y56.468 E7.34292
G1 X110.167 Y57.880 E7.35531
G1 X110.666 Y59.086 E7.36522
G1 X111.088 Y60.661 E7.37761
G1 X111.258 Y61.955 E7.38753
G1 X111.312 Y62.827 E7.39416
G1 X111.181 Y77.286 E7.50402
G1 X111.127 Y78.045 E7.50980
G1 X110.957 Y79.339 E7.51971
G1 X110.535 Y80.914 E7.53210
G1 X110.035 Y82.120 E7.54202
G1 X109.220 Y83.532 E7.55440
G1 X108.425 Y84.568 E7.56432
G1 X107.273 Y85.721 E7.57671
G1 X106.237 Y86.515 E7.58663
G1 X104.825 Y87.331 E7.59901
G1 X103.619 Y87.830 E7.60893
G1 X102.044 Y88.252 E7.62132
G1 X100.750 Y88.422 E7.63124
G1 X99.934 Y88.476 E7.63744
G1 X69.934 Y88.476 E7.86536
G1 X69.119 Y88.422 E7.87157
G1 X67.825 Y88.252 E7.88148
G1 X66.250 Y87.830 E7.89387
G1 X65.044 Y87.331 E7.90379
G1 X63.632 Y86.515 E7.91618
G1 X62.596 Y85.721 E7.92609
G1 X61.443 Y84.568 E7.93848
G1 X60.649 Y83.532 E7.94840
G1 X59.833 Y82.120 E7.96079
G1 X59.334 Y80.914 E7.97070
G1 X58.912 Y79.339 E7.98309
G1 X58.742 Y78.045 E7.99301
G1 X58.688 Y77.173 E7.99964
G1 X58.819 Y62.714 E8.10950
G1 X58.873 Y61.955 E8.11528
G1 X59.043 Y60.661 E8.12519
G1 X59.465 Y59.086 E8.13758
G1 X59.965 Y57.880 E8.14750
G1 X60.780 Y56.468 E8.15988
G1 X61.529 Y55.492 E8.16923
G1 F1440
G1 X62.654 Y54.354 E6.26923
G1 E6.16923 F1800.00000
G92 E0
G1 X72.010 Y79.179 F1800.000
G1 E2.00000 F1800.00000
G1 X71.460 Y79.634 E2.00542 F900.000
G1 X70.850 Y79.921 E2.01055
G1 X70.118 Y80.072 E2.01623
G1 X69.401 Y80.027 E2.02169
G1 X68.722 Y79.806 E2.02711
G1 X68.119 Y79.424 E2.03253
G1 X67.630 Y78.903 E2.03796
G1 X67.287 Y78.278 E2.04338
G1 X67.109 Y77.586 E2.04880
G1 X67.109 Y76.873 E2.05423
G1 X67.287 Y76.181 E2.05965
G1 X67.630 Y75.556 E2.06507
G1 X68.119 Y75.035 E2.07050
G1 X68.722 Y74.653 E2.07592
G1 X69.401 Y74.432 E2.08134
G1 X70.074 Y74.390 E2.08647 F900.000
G1 X70.810 Y74.519 E2.09214
G1 X71.460 Y74.825 E2.09760
G1 X72.010 Y75.280 E2.10303
G1 X72.430 Y75.858 E2.10845
G1 X72.693 Y76.521 E2.11387
G1 X72.782 Y77.230 E2.11930
G1 X72.693 Y77.938 E2.12472
G1 X72.430 Y78.601 E2.13014
G1 X72.054 Y79.118 E2.13500
G1 X71.829 Y79.009 F1800.000
G4 P24
G1 X71.327 Y79.424 E2.13995 F900.000
G1 X70.772 Y79.686 E2.14461
G1 X70.101 Y79.824 E2.14982
G1 X69.447 Y79.783 E2.15479
G1 X68.828 Y79.582 E2.15974
G1 X68.277 Y79.232 E2.16469
G1 X67.831 Y78.757 E2.16964
G1 X67.517 Y78.186 E2.17459
G1 X67.355 Y77.555 E2.17954
G1 X67.355 Y76.904 E2.18449
G1 X67.517 Y76.273 E2.18944
G1 X67.831 Y75.702 E2.19440
G1 X68.277 Y75.227 E2.19935
G1 X68.828 Y74.877 E2.20430
G1 X69.447 Y74.676 E2.20925
G1 X70.060 Y74.637 E2.21391 F900.000
G1 X70.735 Y74.756 E2.21912
G1 X71.327 Y75.035 E2.22409
G1 X71.829 Y75.450 E2.22904
G1 X72.212 Y75.977 E2.23399
G1 X72.452 Y76.583 E2.23894
G1 X72.534 Y77.230 E2.24389
G1 X72.452 Y77.876 E2.24884
G1 X72.212 Y78.482 E2.25379
G1 X71.873 Y78.948 E2.25817
G1 X71.648 Y78.839 F1800.000
G4 P24
G1 X71.194 Y79.215 E2.26265 F900.000
G1 X70.693 Y79.450 E2.26686
G1 X70.083 Y79.576 E2.27159
G1 X69.494 Y79.539 E2.27608
G1 X68.933 Y79.357 E2.28055
G1 X68.436 Y79.041 E2.28503
G1 X68.032 Y78.612 E2.28951
G1 X67.748 Y78.095 E2.29399
G1 X67.602 Y77.524 E2.29846
G1 X67.602 Y76.935 E2.30294
G1 X67.748 Y76.364 E2.30742
G1 X68.032 Y75.848 E2.31190
G1 X68.436 Y75.418 E2.31637
G1 X68.933 Y75.102 E2.32085
G1 X69.494 Y74.920 E2.32533
G1 X70.047 Y74.885 E2.32954 F900.000
G1 X70.660 Y74.993 E2.33427
G1 X71.194 Y75.244 E2.33875
G1 X71.648 Y75.620 E2.34323
G1 X71.995 Y76.097 E2.34771
G1 X72.212 Y76.645 E2.35219
G1 X72.286 Y77.230 E2.35666
G1 X72.212 Y77.814 E2.36114
G1 X71.995 Y78.362 E2.36562
G1 X71.692 Y78.778 E2.36953
G1 X71.773 Y79.323 F1800.000
G1 F1440
G4 P14
G1 X71.194 Y79.215 E1.58308
G1 F1440
G4 P8
G1 X70.693 Y79.450 E0.92546
G1 F1440
G1 X70.317 Y79.528 E0.46953
G1 E0.36953 F1800.00000
G92 E0
G1 X97.704 Y77.511 F1800.000
G1 E2.00000 F1800.00000
G1 X97.704 Y76.948 E2.00428 F900.000
G1 X97.849 Y76.386 E2.00869
G1 X98.118 Y75.906 E2.01287
G1 X98.502 Y75.498 E2.01713
G1 X98.977 Y75.196 E2.02141
G1 X99.513 Y75.022 E2.02569
G1 X100.046 Y74.988 E2.02974 F900.000
G1 X100.625 Y75.090 E2.03421
G1 X101.139 Y75.332 E2.03852
G1 X101.573 Y75.691 E2.04280
G1 X101.904 Y76.147 E2.04709
G1 X102.112 Y76.671 E2.05137
G1 X102.182 Y77.230 E2.05565
G1 X102.112 Y77.789 E2.05993
G1 X101.904 Y78.312 E2.06421
G1 X101.573 Y78.768 E2.06849
G1 X101.139 Y79.127 E2.07277
G1 X100.629 Y79.367 E2.07705
G1 X100.076 Y79.473 E2.08133
G1 X99.513 Y79.437 E2.08561
G1 X98.977 Y79.263 E2.08989
G1 X98.502 Y78.961 E2.09417
G1 X98.116 Y78.551 E2.09845
G1 X97.844 Y78.057 E2.10273
G1 X97.723 Y77.584 E2.10644
G1 X97.951 Y77.480 F1800.000
G1 X97.951 Y76.979 E2.11025 F900.000
G1 X98.079 Y76.479 E2.11418
G1 X98.318 Y76.053 E2.11789
G1 X98.660 Y75.689 E2.12168
G1 X99.083 Y75.420 E2.12549
G1 X99.560 Y75.265 E2.12930
G1 X100.032 Y75.236 E2.13289 F900.000
G1 X100.550 Y75.327 E2.13688
G1 X101.006 Y75.541 E2.14071
G1 X101.392 Y75.861 E2.14452
G1 X101.687 Y76.266 E2.14833
G1 X101.871 Y76.732 E2.15214
G1 X101.934 Y77.230 E2.15594
G1 X101.871 Y77.727 E2.15975
G1 X101.687 Y78.193 E2.16356
G1 X101.392 Y78.598 E2.16737
G1 X101.006 Y78.918 E2.17118
G1 X100.552 Y79.131 E2.17498
G1 X100.060 Y79.225 E2.17879
G1 X99.560 Y79.194 E2.18260
G1 X99.083 Y79.039 E2.18641
G1 X98.660 Y78.770 E2.19021
G1 X98.317 Y78.405 E2.19402
G1 X98.075 Y77.966 E2.19783
G1 X97.969 Y77.553 E2.20107
G1 X98.197 Y77.449 F1800.000
G1 X98.197 Y77.010 E2.20440 F900.000
G1 X98.310 Y76.571 E2.20785
G1 X98.518 Y76.200 E2.21108
G1 X98.818 Y75.880 E2.21441
G1 X99.189 Y75.645 E2.21775
G1 X99.606 Y75.509 E2.22108
G1 X100.018 Y75.483 E2.22422 F900.000
G1 X100.475 Y75.564 E2.22774
G1 X100.873 Y75.751 E2.23108
G1 X101.211 Y76.031 E2.23442
G1 X101.469 Y76.386 E2.23775
G1 X101.631 Y76.794 E2.24109
G1 X101.686 Y77.230 E2.24442
G1 X101.631 Y77.665 E2.24775
G1 X101.469 Y78.073 E2.25109
G1 X101.211 Y78.428 E2.25442
G1 X100.873 Y78.708 E2.25776
G1 X100.476 Y78.895 E2.26109
G1 X100.044 Y78.977 E2.26443
G1 X99.606 Y78.950 E2.26776
G1 X99.189 Y78.814 E2.27110
G1 X98.818 Y78.579 E2.27443
G1 X98.518 Y78.259 E2.27777
G1 X98.306 Y77.874 E2.28110
G1 X98.216 Y77.522 E2.28387
G1 X97.800 Y77.262 F1800.000
G1 F1440
G1 X98.197 Y77.010 E1.67593
G1 F1440
G1 X98.310 Y76.571 E1.13767
G1 F1440
G1 X98.518 Y76.200 E0.63207
G1 F1440
G1 X98.661 Y76.047 E0.38387
G1 E0.28387 F1800.00000
G92 E0
G1 X98.197 Y81.587 F1800.000
G1 E2.00000 F1800.00000
G1 X69.977 Y81.587 E2.21440 F900.000
G1 X68.808 Y81.433 E2.22335
G1 X67.759 Y80.998 E2.23198
G1 X66.857 Y80.307 E2.24061
G1 X66.166 Y79.405 E2.24924
G1 X65.731 Y78.356 E2.25787
G1 X65.583 Y77.230 E2.26651
G1 X65.731 Y76.103 E2.27514
G1 X66.166 Y75.054 E2.28377
G1 X66.857 Y74.152 E2.29240
G1 X67.759 Y73.461 E2.30103
G1 X68.808 Y73.026 E2.30966
G1 X69.977 Y72.872 E2.31861
G1 X99.892 Y72.872 E2.54589
G1 X101.061 Y73.026 E2.55484
G1 X102.110 Y73.461 E2.56348 F900.000
G1 X103.012 Y74.152 E2.57211
G1 X103.703 Y75.054 E2.58074
G1 X104.138 Y76.103 E2.58937
G1 X104.286 Y77.230 E2.59800
G1 X104.138 Y78.356 E2.60663
G1 X103.703 Y79.405 E2.61526
G1 X103.012 Y80.307 E2.62389
G1 X102.110 Y80.998 E2.63252
G1 X101.061 Y81.433 E2.64115
G1 X99.892 Y81.587 E2.65011
G1 X98.272 Y81.587 E2.66242
G1 X98.197 Y81.833 F1800.000
G1 X69.960 Y81.833 E2.87694 F900.000
G1 X68.744 Y81.673 E2.88626
G1 X67.634 Y81.213 E2.89538
G1 X66.682 Y80.482 E2.90451
G1 X65.951 Y79.530 E2.91363
G1 X65.491 Y78.420 E2.92275
G1 X65.334 Y77.230 E2.93188
G1 X65.491 Y76.039 E2.94100
G1 X65.951 Y74.929 E2.95012
G1 X66.682 Y73.977 E2.95925
G1 X67.634 Y73.246 E2.96837
G1 X68.744 Y72.786 E2.97749
G1 X69.960 Y72.626 E2.98682
G1 X99.908 Y72.626 E3.21434
G1 X101.096 Y72.782 E3.22344
G1 X102.235 Y73.246 E3.23278 F900.000
G1 X103.187 Y73.977 E3.24190
G1 X103.918 Y74.929 E3.25103
G1 X104.378 Y76.039 E3.26015
G1 X104.535 Y77.230 E3.26927
G1 X104.378 Y78.420 E3.27840
G1 X103.918 Y79.530 E3.28752
G1 X103.187 Y80.482 E3.29664
G1 X102.235 Y81.213 E3.30577
G1 X101.125 Y81.673 E3.31489
G1 X99.908 Y81.833 E3.32421
G1 X98.272 Y81.833 E3.33665
G1 X98.197 Y82.080 F1800.000
G1 X69.944 Y82.080 E3.55129 F900.000
G1 X68.679 Y81.913 E3.56098
G1 X67.510 Y81.429 E3.57060
G1 X66.506 Y80.658 E3.58021
G1 X65.735 Y79.654 E3.58983
G1 X65.251 Y78.484 E3.59945
G1 X65.086 Y77.230 E3.60906
G1 X65.251 Y75.975 E3.61868
G1 X65.735 Y74.805 E3.62830
G1 X66.506 Y73.801 E3.63791
G1 X67.510 Y73.030 E3.64753
G1 X68.679 Y72.546 E3.65714
G1 X69.944 Y72.380 E3.66684
G1 X99.925 Y72.380 E3.89460
G1 X101.128 Y72.538 E3.90383
