; generated by Slic3r 1.2.9 on 2017-07-26 at 22:35:59

; external perimeters extrusion width = 0.50mm
; perimeters extrusion width = 0.50mm
; infill extrusion width = 0.50mm
; solid infill extrusion width = 0.50mm
; top infill extrusion width = 0.50mm

M107
M190 S60 ; set bed temperature
M104 S210 ; set temperature
G28 ; home all axes
M109 S210 ; wait for temperature to be reached
G21 ; set units to millimeters
G90 ; use absolute coordinates
M82 ; use absolute distances for extrusion
G92 E0
G1 E-2.00000 F1800.00000
G92 E0
G1 Z0.250 F7800.000
G1 X79.059 Y51.120 F7800.000
G1 E2.00000 F1800.00000
M204 S3000
G1 X79.715 Y50.266 E2.00818 F1800.000
G1 X80.266 Y49.715 E2.01410
G1 X81.120 Y49.059 E2.02228
G1 X81.795 Y48.670 E2.02820
G1 X82.790 Y48.257 E2.03638
G1 X83.543 Y48.056 E2.04231
G1 X84.610 Y47.915 E2.05049
G1 X85.390 Y47.915 E2.05641
G1 X86.457 Y48.056 E2.06459 F1800.000
G1 X87.210 Y48.257 E2.07051
G1 X88.205 Y48.669 E2.07869
G1 X88.880 Y49.059 E2.08461
G1 X89.734 Y49.715 E2.09279
G1 X90.285 Y50.266 E2.09871
G1 X90.941 Y51.120 E2.10689
G1 X91.330 Y51.795 E2.11282
G1 X91.743 Y52.790 E2.12100
G1 X91.944 Y53.543 E2.12692
G1 X92.085 Y54.610 E2.13510
G1 X92.110 Y55.000 E2.13807
G1 X92.110 Y85.000 E2.36598
G1 X92.085 Y85.390 E2.36895
G1 X91.944 Y86.457 E2.37713
G1 X91.743 Y87.210 E2.38305
G1 X91.330 Y88.205 E2.39123
G1 X90.941 Y88.880 E2.39715
G1 X90.285 Y89.734 E2.40533
G1 X89.734 Y90.285 E2.41126
G1 X88.880 Y90.941 E2.41944
G1 X88.205 Y91.331 E2.42536
G1 X87.210 Y91.743 E2.43354
G1 X86.457 Y91.944 E2.43946
G1 X85.390 Y92.085 E2.44764
G1 X84.610 Y92.085 E2.45356
G1 X83.543 Y91.944 E2.46174
G1 X82.790 Y91.743 E2.46766
G1 X81.946 Y91.393 E2.47460
G1 X81.795 Y91.330 E2.47584
G1 X81.120 Y90.941 E2.48177
G1 X80.266 Y90.285 E2.48995
G1 X79.715 Y89.734 E2.49587
G1 X79.059 Y88.880 E2.50405
G1 X78.669 Y88.205 E2.50997
G1 X78.257 Y87.210 E2.51815
G1 X78.056 Y86.457 E2.52407
G1 X77.915 Y85.390 E2.53225
G1 X77.890 Y85.000 E2.53522
G1 X77.890 Y55.000 E2.76314
G1 X77.915 Y54.610 E2.76610
G1 X78.056 Y53.543 E2.77428
G1 X78.257 Y52.790 E2.78021
G1 X78.669 Y51.795 E2.78839
G1 X79.022 Y51.185 E2.79374
G1 X79.255 Y51.270 F7800.000
G4 P31
G1 X79.910 Y50.416 E2.80192 F1800.000
G1 X80.416 Y49.910 E2.80735
G1 X81.270 Y49.255 E2.81553
G1 X81.889 Y48.897 E2.82096
G1 X82.884 Y48.485 E2.82915
G1 X83.575 Y48.300 E2.83458
G1 X84.642 Y48.159 E2.84276
G1 X85.358 Y48.159 E2.84819
G1 X86.425 Y48.300 E2.85637 F1800.000
G1 X87.116 Y48.485 E2.86180
G1 X88.111 Y48.897 E2.86999
G1 X88.730 Y49.255 E2.87542
G1 X89.584 Y49.910 E2.88360
G1 X90.090 Y50.416 E2.88903
G1 X90.745 Y51.270 E2.89721
G1 X91.103 Y51.889 E2.90264
G1 X91.515 Y52.884 E2.91083
G1 X91.700 Y53.575 E2.91626
G1 X91.841 Y54.642 E2.92444
G1 X91.864 Y55.000 E2.92716
G1 X91.864 Y85.000 E3.15508
G1 X91.841 Y85.358 E3.15780
G1 X91.700 Y86.425 E3.16598
G1 X91.515 Y87.116 E3.17141
G1 X91.103 Y88.111 E3.17960
G1 X90.745 Y88.730 E3.18503
G1 X90.090 Y89.584 E3.19321
G1 X89.584 Y90.090 E3.19864
G1 X88.730 Y90.745 E3.20682
G1 X88.111 Y91.103 E3.21225
G1 X87.116 Y91.515 E3.22044
G1 X86.425 Y91.700 E3.22587
G1 X85.357 Y91.841 E3.23405
G1 X84.642 Y91.841 E3.23948
G1 X83.575 Y91.700 E3.24766
G1 X82.884 Y91.515 E3.25309
G1 X82.040 Y91.165 E3.26004
G1 X81.889 Y91.103 E3.26128
G1 X81.270 Y90.745 E3.26671
G1 X80.416 Y90.090 E3.27489
G1 X79.910 Y89.584 E3.28032
G1 X79.255 Y88.730 E3.28850
G1 X78.897 Y88.111 E3.29393
G1 X78.485 Y87.116 E3.30212
G1 X78.300 Y86.425 E3.30755
G1 X78.159 Y85.357 E3.31573
G1 X78.136 Y85.000 E3.31845
G1 X78.136 Y55.000 E3.54637
G1 X78.159 Y54.642 E3.54909
G1 X78.300 Y53.575 E3.55727
G1 X78.485 Y52.884 E3.56270
G1 X78.897 Y51.889 E3.57088
G1 X79.217 Y51.335 E3.57575
G1 X79.450 Y51.420 F7800.000
G4 P31
G1 X80.106 Y50.566 E3.58393 F1800.000
G1 X80.566 Y50.106 E3.58887
G1 X81.420 Y49.450 E3.59705
G1 X81.984 Y49.125 E3.60200
G1 X82.978 Y48.713 E3.61018
G1 X83.607 Y48.544 E3.61512
G1 X84.675 Y48.404 E3.62330
G1 X85.325 Y48.404 E3.62825
G1 X86.393 Y48.544 E3.63643 F1800.000
G1 X87.022 Y48.713 E3.64137
G1 X88.016 Y49.125 E3.64955
G1 X88.580 Y49.450 E3.65450
G1 X89.434 Y50.106 E3.66268
G1 X89.894 Y50.566 E3.66762
G1 X90.550 Y51.420 E3.67580
G1 X90.875 Y51.984 E3.68074
G1 X91.287 Y52.978 E3.68893
G1 X91.456 Y53.607 E3.69387
G1 X91.596 Y54.675 E3.70205
G1 X91.618 Y55.000 E3.70453
G1 X91.618 Y85.000 E3.93245
G1 X91.596 Y85.325 E3.93492
G1 X91.456 Y86.393 E3.94310
G1 X91.287 Y87.022 E3.94805
G1 X90.875 Y88.016 E3.95623
G1 X90.550 Y88.580 E3.96117
G1 X89.894 Y89.434 E3.96935
G1 X89.434 Y89.894 E3.97430
G1 X88.580 Y90.550 E3.98248
G1 X88.016 Y90.875 E3.98742
G1 X87.022 Y91.287 E3.99560
G1 X86.393 Y91.456 E4.00055
G1 X85.325 Y91.596 E4.00873
G1 X84.675 Y91.596 E4.01367
G1 X83.607 Y91.456 E4.02185
G1 X82.978 Y91.287 E4.02680
G1 X82.134 Y90.938 E4.03374
G1 X81.984 Y90.875 E4.03498
G1 X81.420 Y90.550 E4.03992
G1 X80.566 Y89.894 E4.04810
G1 X80.106 Y89.434 E4.05305
G1 X79.450 Y88.580 E4.06123
G1 X79.125 Y88.016 E4.06617
G1 X78.713 Y87.022 E4.07435
G1 X78.544 Y86.393 E4.07930
G1 X78.404 Y85.325 E4.08748
G1 X78.382 Y85.000 E4.08995
G1 X78.382 Y55.000 E4.31787
G1 X78.404 Y54.675 E4.32035
G1 X78.544 Y53.607 E4.32853
G1 X78.713 Y52.978 E4.33347
G1 X79.125 Y51.984 E4.34165
G1 X79.413 Y51.485 E4.34603
G1 X79.645 Y51.570 F7800.000
G4 P31
G1 X80.301 Y50.716 E4.35421 F1800.000
G1 X80.716 Y50.301 E4.35866
G1 X81.570 Y49.646 E4.36685
G1 X82.078 Y49.352 E4.37130
G1 X83.073 Y48.940 E4.37948
G1 X83.639 Y48.788 E4.38394
G1 X84.707 Y48.648 E4.39212
G1 X85.293 Y48.648 E4.39657
G1 X86.361 Y48.788 E4.40475 F1800.000
G1 X86.927 Y48.940 E4.40921
G1 X87.922 Y49.352 E4.41739
G1 X88.430 Y49.645 E4.42185
G1 X89.284 Y50.301 E4.43003
G1 X89.699 Y50.716 E4.43448
G1 X90.354 Y51.570 E4.44266
G1 X90.648 Y52.078 E4.44712
G1 X91.060 Y53.073 E4.45530
G1 X91.212 Y53.639 E4.45975
G1 X91.352 Y54.707 E4.46793
G1 X91.371 Y55.000 E4.47017
G1 X91.371 Y85.000 E4.69809
G1 X91.352 Y85.293 E4.70032
G1 X91.212 Y86.361 E4.70850
G1 X91.060 Y86.927 E4.71295
G1 X90.648 Y87.922 E4.72114
G1 X90.354 Y88.430 E4.72559
G1 X89.699 Y89.284 E4.73377
G1 X89.284 Y89.699 E4.73823
G1 X88.430 Y90.355 E4.74641
G1 X87.922 Y90.648 E4.75086
G1 X86.927 Y91.060 E4.75904
G1 X86.361 Y91.212 E4.76350
G1 X85.293 Y91.352 E4.77168
G1 X84.707 Y91.352 E4.77613
G1 X83.639 Y91.212 E4.78432
G1 X83.073 Y91.060 E4.78877
G1 X82.229 Y90.710 E4.79571
G1 X82.078 Y90.648 E4.79695
G1 X81.570 Y90.354 E4.80141
G1 X80.716 Y89.699 E4.80959
G1 X80.301 Y89.284 E4.81404
G1 X79.645 Y88.430 E4.82222
G1 X79.352 Y87.922 E4.82668
G1 X78.940 Y86.927 E4.83486
G1 X78.788 Y86.361 E4.83932
G1 X78.648 Y85.293 E4.84750
G1 X78.629 Y85.000 E4.84973
G1 X78.629 Y55.000 E5.07765
G1 X78.648 Y54.707 E5.07988
G1 X78.788 Y53.639 E5.08806
G1 X78.940 Y53.073 E5.09252
G1 X79.352 Y52.078 E5.10070
G1 X79.608 Y51.635 E5.10458
G1 F6240
G1 X80.301 Y50.716 E4.78910
G1 F6240
G1 X80.716 Y50.301 E4.62840
G1 F6240
G1 X81.570 Y49.646 E4.33330
G1 F6240
G1 X82.078 Y49.352 E4.17261
G1 F6240
G1 X83.073 Y48.940 E3.87751
G1 F6240
G1 X83.639 Y48.788 E3.71681
G1 F6240
G1 X84.707 Y48.648 E3.42171
G1 F6240
G1 X85.293 Y48.648 E3.26101
G1 E3.10458 F1800.00000
G92 E0
G1 X87.979 Y71.638 F7800.000
G1 E2.00000 F1800.00000
G1 X87.477 Y72.329 E2.00649 F1800.000
G1 X86.791 Y72.884 E2.01319
G1 X86.050 Y73.233 E2.01941
G1 X85.213 Y73.393 E2.02589
G1 X84.363 Y73.339 E2.03236
G1 X83.553 Y73.076 E2.03884
G1 X82.833 Y72.619 E2.04531
G1 X82.250 Y71.998 E2.05178
G1 X81.839 Y71.251 E2.05826
G1 X81.627 Y70.426 E2.06473
G1 X81.627 Y69.574 E2.07121
G1 X81.839 Y68.749 E2.07768
G1 X82.250 Y68.002 E2.08415
G1 X82.833 Y67.381 E2.09063
G1 X83.554 Y66.923 E2.09712
G1 X84.396 Y66.659 E2.10382
G1 X85.213 Y66.607 E2.11004 F1800.000
G1 X86.050 Y66.767 E2.11652
G1 X86.822 Y67.130 E2.12299
G1 X87.478 Y67.673 E2.12946
G1 X87.979 Y68.362 E2.13594
G1 X88.293 Y69.155 E2.14241
G1 X88.399 Y70.000 E2.14889
G1 X88.293 Y70.845 E2.15536
G1 X88.007 Y71.568 E2.16126
G1 X87.761 Y71.518 F7800.000
G4 P31
G1 X87.297 Y72.158 E2.16727 F1800.000
G1 X86.659 Y72.674 E2.17350
G1 X85.974 Y72.997 E2.17926
G1 X85.198 Y73.145 E2.18526
G1 X84.410 Y73.095 E2.19126
G1 X83.658 Y72.851 E2.19726
G1 X82.991 Y72.428 E2.20326
G1 X82.451 Y71.852 E2.20927
G1 X82.070 Y71.160 E2.21527
G1 X81.874 Y70.395 E2.22127
G1 X81.874 Y69.605 E2.22727
G1 X82.070 Y68.840 E2.23327
G1 X82.451 Y68.148 E2.23927
G1 X82.991 Y67.572 E2.24527
G1 X83.659 Y67.148 E2.25128
G1 X84.442 Y66.903 E2.25751
G1 X85.198 Y66.855 E2.26327 F1800.000
G1 X85.974 Y67.003 E2.26927
G1 X86.688 Y67.339 E2.27527
G1 X87.297 Y67.843 E2.28127
G1 X87.761 Y68.482 E2.28727
G1 X88.052 Y69.216 E2.29327
G1 X88.151 Y70.000 E2.29927
G1 X88.052 Y70.784 E2.30528
G1 X87.789 Y71.448 E2.31071
G1 X88.002 Y71.956 F7800.000
G1 F6240
G4 P29
G1 X87.297 Y72.158 E2.07407
G1 F6240
G1 X86.659 Y72.674 E1.84928
G1 F6240
G1 X85.974 Y72.997 E1.64161
G1 F6240
G1 X85.198 Y73.145 E1.42515
G1 F6240
G1 X84.410 Y73.095 E1.20869
G1 F6240
G1 X83.658 Y72.851 E0.99223
G1 F6240
G1 X82.991 Y72.428 E0.77577
G1 F6240
G1 X82.451 Y71.852 E0.55930
G1 F6240
G1 X82.189 Y71.377 E0.41071
G1 E0.31071 F1800.00000
G92 E0
G1 X81.855 Y80.000 F7800.000
G1 E2.00000 F1800.00000
G1 X81.894 Y79.703 E2.00228 F1800.000
G1 X82.008 Y79.426 E2.00455
G1 X82.205 Y79.170 E2.00701
G1 X82.495 Y78.978 E2.00965
G1 X82.706 Y78.891 E2.01138
G1 X82.961 Y78.857 E2.01334
G1 X87.039 Y78.857 E2.04432
G1 X87.294 Y78.891 E2.04628
G1 X87.571 Y79.006 E2.04855
G1 X87.809 Y79.188 E2.05083
G1 X87.992 Y79.426 E2.05311
G1 X88.106 Y79.703 E2.05538
G1 X88.145 Y80.000 E2.05766
G1 X88.106 Y80.297 E2.05994
G1 X87.992 Y80.574 E2.06222
G1 X87.809 Y80.812 E2.06449
G1 X87.571 Y80.994 E2.06677
G1 X87.294 Y81.109 E2.06905
G1 X87.039 Y81.143 E2.07100
G1 X82.961 Y81.143 E2.10199
G1 X82.706 Y81.109 E2.10394
G1 X82.429 Y80.994 E2.10622
G1 X82.191 Y80.812 E2.10850
G1 X82.008 Y80.574 E2.11077
G1 X81.894 Y80.297 E2.11305
G1 X81.864 Y80.074 E2.11476
G1 X82.103 Y80.000 F7800.000
G1 X82.134 Y79.767 E2.11654 F1800.000
G1 X82.224 Y79.550 E2.11833
G1 X82.375 Y79.352 E2.12022
G1 X82.611 Y79.197 E2.12237
G1 X82.770 Y79.131 E2.12367
G1 X82.977 Y79.104 E2.12526
G1 X87.023 Y79.104 E2.15600
G1 X87.230 Y79.131 E2.15759
G1 X87.447 Y79.221 E2.15937
G1 X87.633 Y79.364 E2.16115
G1 X87.776 Y79.550 E2.16294
G1 X87.866 Y79.767 E2.16472
G1 X87.897 Y80.000 E2.16651
G1 X87.866 Y80.233 E2.16829
G1 X87.776 Y80.450 E2.17008
G1 X87.633 Y80.636 E2.17186
G1 X87.447 Y80.779 E2.17365
G1 X87.230 Y80.869 E2.17543
G1 X87.023 Y80.896 E2.17702
G1 X82.977 Y80.896 E2.20776
G1 X82.770 Y80.869 E2.20934
G1 X82.553 Y80.779 E2.21113
G1 X82.367 Y80.636 E2.21291
G1 X82.224 Y80.450 E2.21470
G1 X82.134 Y80.233 E2.21648
G1 X82.113 Y80.074 E2.21769
G1 X82.352 Y80.000 F7800.000
G1 X82.374 Y79.831 E2.21899 F1800.000
G1 X82.439 Y79.674 E2.22028
G1 X82.546 Y79.535 E2.22161
G1 X82.727 Y79.415 E2.22327
G1 X82.834 Y79.371 E2.22414
G1 X82.993 Y79.350 E2.22536
G1 X87.007 Y79.350 E2.25586
G1 X87.166 Y79.371 E2.25707
G1 X87.323 Y79.436 E2.25836
G1 X87.458 Y79.539 E2.25966
G1 X87.561 Y79.674 E2.26095
G1 X87.626 Y79.831 E2.26224
G1 X87.648 Y80.000 E2.26353
G1 X87.626 Y80.169 E2.26482
G1 X87.561 Y80.326 E2.26611
G1 X87.458 Y80.461 E2.26741
G1 X87.323 Y80.564 E2.26870
G1 X87.166 Y80.629 E2.26999
G1 X87.007 Y80.650 E2.27121
G1 X82.993 Y80.650 E2.30170
G1 X82.834 Y80.629 E2.30292
G1 X82.677 Y80.564 E2.30421
G1 X82.542 Y80.461 E2.30550
G1 X82.439 Y80.326 E2.30679
G1 X82.374 Y80.169 E2.30808
G1 X82.361 Y80.074 E2.30881
G1 X82.208 Y79.909 F7800.000
G1 F6240
G1 X82.374 Y79.831 E2.24215
G1 F6240
G1 X82.439 Y79.674 E2.19556
G1 F6240
G1 X82.546 Y79.535 E2.14747
G1 F6240
G1 X82.727 Y79.415 E2.08778
G1 F6240
G1 X82.834 Y79.371 E2.05608
G1 F6240
G1 X82.993 Y79.350 E2.01221
G1 F6240
G1 X87.007 Y79.350 E0.91223
G1 F6240
G1 X87.166 Y79.371 E0.86836
G1 F6240
G1 X87.323 Y79.436 E0.82177
G1 F6240
G1 X87.458 Y79.539 E0.77517
G1 F6240
G1 X87.561 Y79.674 E0.72858
G1 F6240
G1 X87.626 Y79.831 E0.68199
G1 F6240
G1 X87.648 Y80.000 E0.63540
G1 F6240
G1 X87.626 Y80.169 E0.58880
G1 F6240
G1 X87.561 Y80.326 E0.54221
G1 F6240
G1 X87.458 Y80.461 E0.49562
G1 F6240
G1 X87.323 Y80.564 E0.44903
G1 F6240
G1 X87.187 Y80.620 E0.40881
G1 E0.30881 F1800.00000
G92 E0
G4 P15
G1 X81.518 Y71.408 F7800.000
G1 E2.00000 F1800.00000
G1 X81.629 Y71.380 E2.00087 F1800.000
G1 X82.049 Y72.144 E2.00750
G1 X82.675 Y72.811 E2.01444
G1 X83.447 Y73.301 E2.02139
G1 X84.316 Y73.583 E2.02834
G1 X85.229 Y73.641 E2.03528
G1 X86.127 Y73.469 E2.04223
G1 X86.923 Y73.095 E2.04891
G1 X87.657 Y72.500 E2.05609
G1 X88.197 Y71.757 E2.06306
G1 X88.362 Y71.339 E2.06648
G1 X88.482 Y71.362 E2.06741
G1 X88.482 Y84.958 E2.17070
G1 X88.358 Y85.900 E2.17792
G1 X88.011 Y86.738 E2.18481
G1 X87.458 Y87.458 E2.19171
G1 X86.738 Y88.011 E2.19861
G1 X85.900 Y88.358 E2.20550
G1 X85.000 Y88.477 E2.21240
G1 X84.100 Y88.358 E2.21929
G1 X83.262 Y88.011 E2.22619
G1 X82.542 Y87.458 E2.23308
G1 X81.989 Y86.738 E2.23998
G1 X81.642 Y85.900 E2.24687
G1 X81.518 Y84.958 E2.25409
G1 X81.518 Y71.483 E2.35646
G1 F6240
G1 X81.629 Y71.380 E2.31486
G1 F6240
G1 X82.049 Y72.144 E2.07588
G1 F6240
G1 X82.675 Y72.811 E1.82531
G1 F6240
G1 X83.447 Y73.301 E1.57473
G1 F6240
G1 X84.316 Y73.583 E1.32415
G1 F6240
G1 X85.229 Y73.641 E1.07358
G1 F6240
G1 X86.127 Y73.469 E0.82300
G1 F6240
G1 X86.923 Y73.095 E0.58190
G1 F6240
G1 X87.279 Y72.806 E0.45646
G1 E0.35646 F1800.00000
G92 E0
G1 X84.238 Y63.036 F7800.000
G1 E2.00000 F1800.00000
G1 X83.660 Y62.848 E2.00462 F1800.000
G1 X82.994 Y62.425 E2.01061
G1 X82.453 Y61.850 E2.01661
G1 X82.073 Y61.159 E2.02260
G1 X81.877 Y60.395 E2.02860
G1 X81.877 Y59.605 E2.03459
G1 X82.073 Y58.841 E2.04059
G1 X82.453 Y58.150 E2.04658
G1 X82.994 Y57.575 E2.05258
G1 X83.660 Y57.152 E2.05857
G1 X84.410 Y56.908 E2.06457 F1800.000
G1 X85.198 Y56.858 E2.07056
G1 X85.973 Y57.006 E2.07656
G1 X86.687 Y57.342 E2.08255
G1 X87.295 Y57.845 E2.08854
G1 X87.758 Y58.484 E2.09454
G1 X88.049 Y59.217 E2.10053
G1 X88.148 Y60.000 E2.10653
G1 X88.049 Y60.783 E2.11252
G1 X87.758 Y61.516 E2.11852
G1 X87.295 Y62.155 E2.12451
G1 X86.687 Y62.658 E2.13051
G1 X85.973 Y62.994 E2.13650
G1 X85.198 Y63.142 E2.14250
G1 X84.410 Y63.092 E2.14849
G1 X84.309 Y63.059 E2.14930
G1 X84.314 Y62.802 F7800.000
G4 P31
G1 X83.765 Y62.624 E2.15368 F1800.000
G1 X83.152 Y62.234 E2.15920
G1 X82.654 Y61.704 E2.16472
G1 X82.304 Y61.067 E2.17024
G1 X82.123 Y60.363 E2.17577
G1 X82.123 Y59.637 E2.18129
G1 X82.304 Y58.933 E2.18681
G1 X82.654 Y58.296 E2.19233
G1 X83.152 Y57.766 E2.19785
G1 X83.765 Y57.376 E2.20337
G1 X84.457 Y57.152 E2.20890
G1 X84.741 Y57.134 E2.21106
G1 X85.182 Y57.106 E2.21442 F1800.000
G1 X85.896 Y57.242 E2.21994
G1 X86.554 Y57.552 E2.22546
G1 X87.114 Y58.015 E2.23098
G1 X87.541 Y58.603 E2.23651
G1 X87.808 Y59.279 E2.24203
G1 X87.899 Y60.000 E2.24755
G1 X87.808 Y60.721 E2.25307
G1 X87.541 Y61.397 E2.25859
G1 X87.114 Y61.985 E2.26411
G1 X86.554 Y62.448 E2.26964
G1 X85.896 Y62.758 E2.27516
G1 X85.182 Y62.894 E2.28068
G1 X84.457 Y62.848 E2.28620
G1 X84.386 Y62.825 E2.28677
G1 X84.390 Y62.568 F7800.000
G4 P31
G1 X83.871 Y62.399 E2.29092 F1800.000
G1 X83.310 Y62.043 E2.29597
G1 X82.855 Y61.558 E2.30101
G1 X82.535 Y60.976 E2.30606
G1 X82.370 Y60.332 E2.31111
G1 X82.370 Y59.668 E2.31616
G1 X82.535 Y59.024 E2.32121
G1 X82.855 Y58.442 E2.32626
G1 X83.310 Y57.957 E2.33131
G1 X83.871 Y57.601 E2.33636
G1 X84.503 Y57.396 E2.34141
G1 X84.757 Y57.380 E2.34333
G1 X85.166 Y57.354 E2.34645 F1800.000
G1 X85.819 Y57.479 E2.35150
G1 X86.421 Y57.762 E2.35655
G1 X86.933 Y58.185 E2.36160
G1 X87.323 Y58.723 E2.36665
G1 X87.568 Y59.341 E2.37170
G1 X87.651 Y60.000 E2.37675
G1 X87.568 Y60.659 E2.38180
G1 X87.323 Y61.277 E2.38685
G1 X86.933 Y61.815 E2.39189
G1 X86.421 Y62.238 E2.39694
G1 X85.819 Y62.521 E2.40199
G1 X85.166 Y62.646 E2.40704
G1 X84.462 Y62.591 E2.41241
G4 P9
G1 X84.043 Y62.928 F7800.000
G1 F6240
G4 P29
G1 X83.871 Y62.399 E2.24227
G1 F6240
G1 X83.310 Y62.043 E2.06015
G1 F6240
G1 X82.855 Y61.558 E1.87803
G1 F6240
G1 X82.535 Y60.976 E1.69592
G1 F6240
G1 X82.370 Y60.332 E1.51380
G1 F6240
G1 X82.370 Y59.668 E1.33168
G1 F6240
G1 X82.535 Y59.024 E1.14957
G1 F6240
G1 X82.855 Y58.442 E0.96745
G1 F6240
G1 X83.310 Y57.957 E0.78534
G1 F6240
