; generated by Slic3r 1.2.9 on 2017-07-13 at 01:18:48

; external perimeters extrusion width = 0.50mm
; perimeters extrusion width = 0.50mm
; infill extrusion width = 0.50mm
; solid infill extrusion width = 0.50mm
; top infill extrusion width = 0.50mm

M107
M190 S70 ; set bed temperature
M104 S218 ; set temperature
G28 ; home all axes
M109 S218 ; wait for temperature to be reached
G21 ; set units to millimeters
G90 ; use absolute coordinates
M82 ; use absolute distances for extrusion
G92 E0
G1 E-2.00000 F1800.00000
G92 E0
G1 Z0.250 F9600.000
G1 X37.848 Y45.864 F9600.000
G1 E2.00000 F1800.00000
M204 S600
G1 X38.453 Y45.396 E2.01178 F1800.000
G1 X39.657 Y44.691 E2.03327
G1 X40.359 Y44.392 E2.04502
G1 X41.701 Y44.013 E2.06651
G1 X42.456 Y43.901 E2.07827
G1 X43.163 Y43.842 E2.08919
G1 X61.000 Y43.518 E2.36401
G1 X109.100 Y43.519 E3.10498
G1 X126.837 Y43.842 E3.37827 F1800.000
G1 X127.544 Y43.901 E3.38919
G1 X128.299 Y44.013 E3.40095
G1 X129.641 Y44.392 E3.42243
G1 X130.343 Y44.691 E3.43419
G1 X131.546 Y45.396 E3.45568
G1 X132.151 Y45.863 E3.46744
G1 X133.137 Y46.849 E3.48892
G1 X133.604 Y47.454 E3.50068
G1 X134.309 Y48.657 E3.52217
G1 X134.608 Y49.359 E3.53393
G1 X134.987 Y50.701 E3.55541
G1 X135.099 Y51.456 E3.56717
G1 X135.158 Y52.163 E3.57809
G1 X135.481 Y69.900 E3.85138
G1 X135.158 Y87.837 E4.12774
G1 X135.099 Y88.544 E4.13866
G1 X134.987 Y89.299 E4.15042
G1 X134.608 Y90.641 E4.17191
G1 X134.309 Y91.343 E4.18366
G1 X133.603 Y92.547 E4.20515
G1 X133.137 Y93.151 E4.21691
G1 X132.151 Y94.137 E4.23839
G1 X131.584 Y94.574 E4.24942
G1 X130.343 Y95.309 E4.27163
G1 X129.641 Y95.608 E4.28339
G1 X128.299 Y95.987 E4.30488
G1 X127.544 Y96.099 E4.31664
G1 X126.837 Y96.158 E4.32755
G1 X109.100 Y96.481 E4.60084
G1 X61.000 Y96.482 E5.34181
G1 X43.163 Y96.158 E5.61664
G1 X42.456 Y96.099 E5.62756
G1 X41.701 Y95.987 E5.63932
G1 X40.360 Y95.609 E5.66078
G1 X39.657 Y95.309 E5.67256
G1 X38.454 Y94.604 E5.69403
G1 X37.849 Y94.137 E5.70581
G1 X36.863 Y93.151 E5.72729
G1 X36.397 Y92.547 E5.73905
G1 X35.691 Y91.343 E5.76053
G1 X35.392 Y90.641 E5.77229
G1 X35.013 Y89.299 E5.79378
G1 X34.901 Y88.543 E5.80556
G1 X34.842 Y87.837 E5.81646
G1 X34.519 Y70.100 E6.08975
G1 X34.842 Y52.163 E6.36611
G1 X34.901 Y51.457 E6.37702
G1 X35.013 Y50.701 E6.38879
G1 X35.392 Y49.359 E6.41027
G1 X35.691 Y48.657 E6.42203
G1 X36.396 Y47.453 E6.44352
G1 X36.863 Y46.849 E6.45528
G1 X37.795 Y45.917 E6.47559
G1 X38.152 Y46.257 F9600.000
G4 P30
G1 X38.757 Y45.789 E6.48736 F1800.000
G1 X39.851 Y45.148 E6.50691
G1 X40.553 Y44.849 E6.51866
G1 X41.774 Y44.504 E6.53821
G1 X42.529 Y44.392 E6.54996
G1 X43.172 Y44.338 E6.55989
G1 X61.000 Y44.015 E6.83458
G1 X109.091 Y44.015 E7.57541
G1 X126.828 Y44.338 E7.84870 F1800.000
G1 X127.471 Y44.392 E7.85863
G1 X128.226 Y44.504 E7.87039
G1 X129.447 Y44.849 E7.88993
G1 X130.149 Y45.148 E7.90169
G1 X131.243 Y45.789 E7.92123
G1 X131.847 Y46.256 E7.93299
G1 X132.744 Y47.153 E7.95252
G1 X133.211 Y47.757 E7.96428
G1 X133.852 Y48.851 E7.98382
G1 X134.151 Y49.553 E7.99558
G1 X134.496 Y50.774 E8.01512
G1 X134.608 Y51.529 E8.02688
G1 X134.662 Y52.172 E8.03681
G1 X134.985 Y69.909 E8.31010
G1 X134.662 Y87.828 E8.58619
G1 X134.608 Y88.471 E8.59612
G1 X134.496 Y89.226 E8.60788
G1 X134.151 Y90.447 E8.62742
G1 X133.852 Y91.149 E8.63917
G1 X133.211 Y92.243 E8.65872
G1 X132.744 Y92.847 E8.67047
G1 X131.847 Y93.744 E8.69001
G1 X131.281 Y94.182 E8.70104
G1 X130.149 Y94.852 E8.72131
G1 X129.446 Y95.151 E8.73307
G1 X128.226 Y95.496 E8.75261
G1 X127.471 Y95.608 E8.76437
G1 X126.828 Y95.662 E8.77429
G1 X109.091 Y95.985 E9.04758
G1 X61.000 Y95.985 E9.78841
G1 X43.172 Y95.662 E10.06310
G1 X42.529 Y95.608 E10.07303
G1 X41.774 Y95.496 E10.08479
G1 X40.555 Y95.152 E10.10431
G1 X39.851 Y94.852 E10.11609
G1 X38.758 Y94.211 E10.13561
G1 X38.153 Y93.744 E10.14739
G1 X37.256 Y92.847 E10.16693
G1 X36.789 Y92.243 E10.17869
G1 X36.148 Y91.149 E10.19823
G1 X35.849 Y90.447 E10.20999
G1 X35.504 Y89.226 E10.22953
G1 X35.392 Y88.470 E10.24130
G1 X35.338 Y87.828 E10.25121
G1 X35.015 Y70.091 E10.52450
G1 X35.338 Y52.172 E10.80059
G1 X35.392 Y51.530 E10.81051
G1 X35.504 Y50.774 E10.82228
G1 X35.849 Y49.553 E10.84182
G1 X36.148 Y48.851 E10.85358
G1 X36.789 Y47.757 E10.87312
G1 X37.256 Y47.153 E10.88488
G1 X38.099 Y46.310 E10.90324
G1 X38.456 Y46.649 F9600.000
G4 P30
G1 X39.060 Y46.182 E10.91502 F1800.000
G1 X40.046 Y45.604 E10.93261
G1 X40.748 Y45.305 E10.94437
G1 X41.847 Y44.995 E10.96197
G1 X42.602 Y44.883 E10.97373
G1 X43.181 Y44.835 E10.98267
G1 X61.000 Y44.511 E11.25722
G1 X109.082 Y44.512 E11.99790
G1 X126.819 Y44.835 E12.27119 F1800.000
G1 X127.398 Y44.883 E12.28013
G1 X128.153 Y44.995 E12.29189
G1 X129.252 Y45.305 E12.30949
G1 X129.954 Y45.604 E12.32125
G1 X130.940 Y46.182 E12.33884
G1 X131.544 Y46.649 E12.35060
G1 X132.351 Y47.456 E12.36820
G1 X132.818 Y48.060 E12.37996
G1 X133.396 Y49.046 E12.39755
G1 X133.695 Y49.748 E12.40931
G1 X134.005 Y50.847 E12.42690
G1 X134.117 Y51.602 E12.43866
G1 X134.165 Y52.181 E12.44760
G1 X134.488 Y69.918 E12.72089
G1 X134.165 Y87.819 E12.99670
G1 X134.117 Y88.398 E13.00564
G1 X134.005 Y89.153 E13.01740
G1 X133.695 Y90.252 E13.03499
G1 X133.396 Y90.954 E13.04675
G1 X132.818 Y91.940 E13.06435
G1 X132.351 Y92.544 E13.07611
G1 X131.544 Y93.351 E13.09370
G1 X130.940 Y93.818 E13.10546
G1 X129.954 Y94.396 E13.12306
G1 X129.252 Y94.695 E13.13482
G1 X128.153 Y95.005 E13.15241
G1 X127.398 Y95.117 E13.16417
G1 X126.819 Y95.165 E13.17311
G1 X109.082 Y95.488 E13.44640
G1 X61.000 Y95.489 E14.18709
G1 X43.181 Y95.165 E14.46164
G1 X42.602 Y95.117 E14.47058
G1 X41.847 Y95.005 E14.48234
G1 X40.749 Y94.695 E14.49992
G1 X40.046 Y94.396 E14.51169
G1 X39.061 Y93.819 E14.52927
G1 X38.456 Y93.351 E14.54104
G1 X37.649 Y92.544 E14.55864
G1 X37.182 Y91.940 E14.57040
G1 X36.604 Y90.954 E14.58799
G1 X36.305 Y90.252 E14.59975
G1 X35.995 Y89.153 E14.61735
G1 X35.883 Y88.397 E14.62912
G1 X35.835 Y87.819 E14.63805
G1 X35.512 Y70.082 E14.91134
G1 X35.835 Y52.181 E15.18714
G1 X35.883 Y51.603 E15.19608
G1 X35.995 Y50.847 E15.20784
G1 X36.305 Y49.748 E15.22544
G1 X36.604 Y49.046 E15.23720
G1 X37.182 Y48.060 E15.25479
G1 X37.649 Y47.456 E15.26655
G1 X38.402 Y46.702 E15.28297
G1 X38.759 Y47.042 F9600.000
G4 P30
G1 X39.364 Y46.575 E15.29475 F1800.000
G1 X40.240 Y46.061 E15.31040
G1 X40.943 Y45.762 E15.32216
G1 X41.920 Y45.486 E15.33781
G1 X42.675 Y45.374 E15.34956
G1 X43.190 Y45.331 E15.35752
G1 X61.000 Y45.007 E15.63193
G1 X109.073 Y45.008 E16.37248
G1 X126.810 Y45.331 E16.64577 F1800.000
G1 X127.325 Y45.374 E16.65372
G1 X128.080 Y45.486 E16.66548
G1 X129.057 Y45.762 E16.68113
G1 X129.760 Y46.061 E16.69288
G1 X130.636 Y46.575 E16.70853
G1 X131.240 Y47.042 E16.72029
G1 X131.958 Y47.760 E16.73594
G1 X132.425 Y48.364 E16.74770
G1 X132.939 Y49.240 E16.76335
G1 X133.238 Y49.943 E16.77511
G1 X133.514 Y50.920 E16.79076
G1 X133.626 Y51.675 E16.80252
G1 X133.669 Y52.190 E16.81047
G1 X133.992 Y69.927 E17.08376
G1 X133.669 Y87.810 E17.35929
G1 X133.626 Y88.325 E17.36724
G1 X133.514 Y89.080 E17.37900
G1 X133.238 Y90.057 E17.39465
G1 X132.939 Y90.760 E17.40641
G1 X132.425 Y91.636 E17.42206
G1 X131.958 Y92.240 E17.43382
G1 X131.240 Y92.958 E17.44947
G1 X130.636 Y93.425 E17.46122
G1 X129.760 Y93.939 E17.47687
G1 X129.057 Y94.238 E17.48863
G1 X128.080 Y94.514 E17.50428
G1 X127.325 Y94.626 E17.51604
G1 X126.810 Y94.669 E17.52399
G1 X109.073 Y94.992 E17.79728
G1 X61.000 Y94.993 E18.53783
G1 X43.190 Y94.669 E18.81224
G1 X42.675 Y94.626 E18.82019
G1 X41.920 Y94.514 E18.83195
G1 X40.943 Y94.238 E18.84759
G1 X40.240 Y93.939 E18.85936
G1 X39.365 Y93.426 E18.87500
G1 X38.760 Y92.958 E18.88677
G1 X38.042 Y92.240 E18.90242
G1 X37.575 Y91.636 E18.91418
G1 X37.061 Y90.760 E18.92983
G1 X36.762 Y90.057 E18.94159
G1 X36.486 Y89.080 E18.95724
G1 X36.374 Y88.324 E18.96901
G1 X36.331 Y87.810 E18.97695
G1 X36.008 Y70.073 E19.25024
G1 X36.331 Y52.190 E19.52577
G1 X36.374 Y51.676 E19.53371
G1 X36.486 Y50.920 E19.54548
G1 X36.762 Y49.943 E19.56113
G1 X37.061 Y49.240 E19.57289
G1 X37.575 Y48.364 E19.58854
G1 X38.042 Y47.760 E19.60029
G1 X38.706 Y47.095 E19.61477
G1 X39.063 Y47.435 F9600.000
G4 P30
G1 X39.667 Y46.968 E19.62655 F1800.000
G1 X40.435 Y46.518 E19.64025
G1 X41.137 Y46.219 E19.65201
G1 X41.993 Y45.977 E19.66571
G1 X42.748 Y45.865 E19.67747
G1 X43.199 Y45.827 E19.68443
G1 X61.000 Y45.504 E19.95871
G1 X109.064 Y45.504 E20.69912
G1 X126.801 Y45.827 E20.97241 F1800.000
G1 X127.252 Y45.865 E20.97937
G1 X128.007 Y45.977 E20.99113
G1 X128.863 Y46.219 E21.00483
G1 X129.565 Y46.518 E21.01659
G1 X130.333 Y46.968 E21.03029
G1 X130.937 Y47.434 E21.04205
G1 X131.566 Y48.063 E21.05576
G1 X132.032 Y48.667 E21.06752
G1 X132.482 Y49.435 E21.08122
G1 X132.781 Y50.137 E21.09298
G1 X133.023 Y50.993 E21.10668
G1 X133.135 Y51.748 E21.11844
G1 X133.173 Y52.199 E21.12541
G1 X133.496 Y69.936 E21.39870
G1 X133.173 Y87.801 E21.67395
G1 X133.135 Y88.252 E21.68091
G1 X133.023 Y89.007 E21.69267
G1 X132.781 Y89.863 E21.70637
G1 X132.482 Y90.565 E21.71813
G1 X132.032 Y91.333 E21.73184
G1 X131.566 Y91.937 E21.74359
G1 X130.937 Y92.566 E21.75730
G1 X130.370 Y93.003 E21.76832
G1 X129.565 Y93.482 E21.78276
G1 X128.863 Y93.782 E21.79451
G1 X128.007 Y94.023 E21.80822
G1 X127.252 Y94.135 E21.81998
G1 X126.801 Y94.173 E21.82694
G1 X109.064 Y94.496 E22.10023
G1 X61.000 Y94.496 E22.84064
G1 X43.199 Y94.173 E23.11491
G1 X42.748 Y94.135 E23.12188
G1 X41.993 Y94.023 E23.13363
G1 X41.138 Y93.782 E23.14733
G1 X40.435 Y93.482 E23.15910
G1 X39.668 Y93.033 E23.17279
G1 X39.063 Y92.566 E23.18456
G1 X38.434 Y91.937 E23.19826
G1 X37.968 Y91.333 E23.21002
G1 X37.518 Y90.565 E23.22373
G1 X37.219 Y89.863 E23.23549
G1 X36.977 Y89.007 E23.24919
G1 X36.864 Y88.251 E23.26096
G1 X36.827 Y87.801 E23.26791
G1 X36.504 Y70.064 E23.54120
G1 X36.827 Y52.199 E23.81645
G1 X36.865 Y51.749 E23.82341
G1 X36.977 Y50.993 E23.83518
G1 X37.219 Y50.137 E23.84888
G1 X37.518 Y49.435 E23.86064
G1 X37.968 Y48.667 E23.87434
G1 X38.434 Y48.063 E23.88610
G1 X39.010 Y47.488 E23.89864
G1 F7680
G1 X39.667 Y46.968 E23.71191
G1 F7680
G1 X40.435 Y46.518 E23.51383
G1 F7680
G1 X41.137 Y46.219 E23.34387
G1 F7680
G1 X41.993 Y45.977 E23.14579
G1 F7680
G1 X42.748 Y45.865 E22.97583
G1 F7680
G1 X43.199 Y45.827 E22.87520
G1 F7680
G1 X47.135 Y45.756 E21.99864
G1 E21.89864 F1800.00000
G92 E0
G1 X126.790 Y89.502 F9600.000
G1 E2.00000 F1800.00000
G1 X126.310 Y89.464 E2.00742 F1800.000
G1 X125.900 Y89.331 E2.01407
G1 X125.513 Y89.086 E2.02112
G1 X125.199 Y88.752 E2.02818
G1 X124.979 Y88.350 E2.03524
G1 X124.865 Y87.907 E2.04229
G1 X124.865 Y87.449 E2.04935
G1 X124.979 Y87.005 E2.05640
G1 X125.199 Y86.604 E2.06346
G1 X125.513 Y86.270 E2.07051
G1 X125.901 Y86.023 E2.07760
G1 X126.362 Y85.881 E2.08502
G1 X126.792 Y85.854 E2.09167 F1800.000
G1 X127.242 Y85.940 E2.09873
G1 X127.657 Y86.135 E2.10578
G1 X128.010 Y86.427 E2.11284
G1 X128.279 Y86.797 E2.11989
G1 X128.447 Y87.223 E2.12695
G1 X128.505 Y87.678 E2.13400
G1 X128.447 Y88.132 E2.14106
G1 X128.279 Y88.558 E2.14811
G1 X128.010 Y88.928 E2.15517
G1 X127.657 Y89.220 E2.16223
G1 X127.242 Y89.415 E2.16928
G1 X126.864 Y89.488 E2.17521
G1 X126.554 Y89.921 F9600.000
G1 F7680
G1 X126.310 Y89.464 E2.05180
G1 F7680
G1 X125.900 Y89.331 E1.95568
G1 F7680
G1 X125.513 Y89.086 E1.85370
G1 F7680
G1 X125.199 Y88.752 E1.75172
G1 F7680
G1 X124.979 Y88.350 E1.64974
G1 F7680
G1 X124.865 Y87.907 E1.54776
G1 F7680
G1 X124.865 Y87.449 E1.44578
G1 F7680
G1 X124.979 Y87.005 E1.34380
G1 F7680
G1 X125.199 Y86.604 E1.24182
G1 F7680
G1 X125.513 Y86.270 E1.13984
G1 F7680
G1 X125.901 Y86.023 E1.03740
G1 F7680
G1 X126.362 Y85.881 E0.93018
G1 E0.17521 F1800.00000
G92 E0
G1 X126.792 Y54.146 F9600.000
G1 E2.00000 F1800.00000
G1 X126.335 Y54.117 E2.00706 F1800.000
G1 X125.900 Y53.976 E2.01411
G1 X125.513 Y53.730 E2.02117
G1 X125.199 Y53.396 E2.02822
G1 X124.979 Y52.995 E2.03528
G1 X124.865 Y52.551 E2.04233
G1 X124.865 Y52.093 E2.04939
G1 X124.979 Y51.650 E2.05644
G1 X125.199 Y51.248 E2.06350
G1 X125.513 Y50.914 E2.07056
G1 X125.901 Y50.668 E2.07764
G1 X126.362 Y50.526 E2.08506
G1 X126.792 Y50.499 E2.09171 F1800.000
G1 X127.242 Y50.585 E2.09877
G1 X127.657 Y50.780 E2.10582
G1 X128.010 Y51.072 E2.11288
G1 X128.279 Y51.442 E2.11993
G1 X128.447 Y51.868 E2.12699
G1 X128.505 Y52.322 E2.13405
G1 X128.447 Y52.777 E2.14110
G1 X128.279 Y53.203 E2.14816
G1 X128.010 Y53.573 E2.15521
G1 X127.657 Y53.865 E2.16227
G1 X127.242 Y54.060 E2.16932
G1 X126.866 Y54.132 E2.17522
G1 X126.572 Y54.547 F9600.000
G1 F7680
G1 X126.335 Y54.117 E2.05700
G1 F7680
G1 X125.900 Y53.976 E1.95502
G1 F7680
G1 X125.513 Y53.730 E1.85304
G1 F7680
G1 X125.199 Y53.396 E1.75106
G1 F7680
G1 X124.979 Y52.995 E1.64908
G1 F7680
G1 X124.865 Y52.551 E1.54710
G1 F7680
G1 X124.865 Y52.093 E1.44512
G1 F7680
G1 X124.979 Y51.650 E1.34314
G1 F7680
G1 X125.199 Y51.248 E1.24116
G1 F7680
G1 X125.513 Y50.914 E1.13918
G1 F7680
G1 X125.901 Y50.668 E1.03674
G1 F7680
G1 X126.362 Y50.526 E0.92952
G1 E0.17522 F1800.00000
G92 E0
G4 P15
G1 X110.596 Y74.486 F9600.000
G1 E2.00000 F1800.00000
G1 X111.171 Y74.962 E2.01150 F1800.000
G1 X111.609 Y75.565 E2.02300
G1 X111.884 Y76.259 E2.03450
G1 X111.983 Y77.042 E2.04664
G1 X111.880 Y77.752 E2.05770
G1 X111.609 Y78.435 E2.06901
G1 X111.172 Y79.037 E2.08048
G1 X110.602 Y79.511 E2.09190
G1 X109.920 Y79.832 E2.10351
G1 X109.187 Y79.972 E2.11500
G1 X108.442 Y79.925 E2.12650
G1 X107.732 Y79.694 E2.13800
G1 X107.102 Y79.294 E2.14950
G1 X106.591 Y78.750 E2.16100
G1 X106.231 Y78.096 E2.17250
G1 X106.043 Y77.364 E2.18414
G1 X106.055 Y76.592 E2.19604
G1 X106.231 Y75.904 E2.20698
G1 X106.591 Y75.250 E2.21848
G1 X107.102 Y74.706 E2.22998
G1 X107.740 Y74.301 E2.24162
G1 X108.478 Y74.073 E2.25352
G1 X109.187 Y74.028 E2.26446 F1800.000
G1 X109.920 Y74.168 E2.27596
G1 X110.528 Y74.454 E2.28630
G1 X110.328 Y74.908 F9600.000
G4 P30
G1 X110.806 Y75.304 E2.29587 F1800.000
G1 X111.171 Y75.806 E2.30544
G1 X111.400 Y76.384 E2.31500
G1 X111.482 Y77.037 E2.32515
G1 X111.397 Y77.623 E2.33427
G1 X111.171 Y78.194 E2.34372
G1 X110.807 Y78.695 E2.35327
G1 X110.333 Y79.089 E2.36276
G1 X109.766 Y79.356 E2.37242
G1 X109.156 Y79.473 E2.38199
G1 X108.536 Y79.434 E2.39156
G1 X107.945 Y79.242 E2.40112
G1 X107.421 Y78.909 E2.41069
G1 X106.996 Y78.456 E2.42026
G1 X106.696 Y77.912 E2.42982
G1 X106.541 Y77.305 E2.43948
G1 X106.550 Y76.658 E2.44944
G1 X106.696 Y76.088 E2.45851
G1 X106.996 Y75.544 E2.46808
G1 X107.421 Y75.091 E2.47765
G1 X107.950 Y74.755 E2.48730
G1 X108.568 Y74.564 E2.49727
G1 X109.156 Y74.527 E2.50633 F1800.000
G1 X109.766 Y74.644 E2.51590
G1 X110.260 Y74.876 E2.52431
G1 X110.059 Y75.331 F9600.000
G4 P30
G1 X110.441 Y75.647 E2.53195 F1800.000
G1 X110.733 Y76.047 E2.53958
G1 X110.915 Y76.508 E2.54722
G1 X110.981 Y77.032 E2.55535
G1 X110.914 Y77.494 E2.56254
G1 X110.733 Y77.953 E2.57014
G1 X110.442 Y78.353 E2.57776
G1 X110.064 Y78.667 E2.58532
G1 X109.611 Y78.880 E2.59304
G1 X109.124 Y78.973 E2.60068
G1 X108.630 Y78.942 E2.60831
G1 X108.158 Y78.789 E2.61595
G1 X107.740 Y78.523 E2.62358
G1 X107.400 Y78.162 E2.63122
G1 X107.162 Y77.728 E2.63885
G1 X107.038 Y77.246 E2.64652
G1 X107.046 Y76.724 E2.65455
G1 X107.162 Y76.272 E2.66174
G1 X107.400 Y75.838 E2.66938
G1 X107.740 Y75.477 E2.67701
G1 X108.160 Y75.210 E2.68468
G1 X108.658 Y75.056 E2.69271
G1 X109.124 Y75.027 E2.69991 F1800.000
G1 X109.611 Y75.120 E2.70754
G1 X109.992 Y75.299 E2.71402
G4 P2
G1 X110.508 Y75.120 F9600.000
G1 X104.804 Y68.786 F9600.000
G1 X104.501 Y69.030 E2.72002 F1800.000
G1 X103.858 Y69.332 E2.73096
G1 X103.125 Y69.472 E2.74246
G1 X102.380 Y69.425 E2.75396
G1 X101.670 Y69.194 E2.76546
G1 X101.040 Y68.794 E2.77696
G1 X100.529 Y68.250 E2.78846
G1 X100.169 Y67.596 E2.79996
G1 X99.981 Y66.864 E2.81160
G1 X99.992 Y66.092 E2.82350
G1 X100.169 Y65.404 E2.83444
G1 X100.529 Y64.750 E2.84594
G1 X101.040 Y64.206 E2.85744
G1 X101.678 Y63.801 E2.86908
G1 X102.416 Y63.573 E2.88098
G1 X103.125 Y63.528 E2.89192 F1800.000
G1 X103.858 Y63.668 E2.90342
G1 X104.533 Y63.986 E2.91492
G1 X105.109 Y64.462 E2.92642
G1 X105.547 Y65.065 E2.93792
G1 X105.822 Y65.759 E2.94941
G1 X105.921 Y66.542 E2.96156
G1 X105.818 Y67.252 E2.97261
G1 X105.547 Y67.935 E2.98393
