; generated by Slic3r 1.2.9 on 2017-06-12 at 23:14:28

; external perimeters extrusion width = 0.50mm
; perimeters extrusion width = 0.50mm
; infill extrusion width = 0.50mm
; solid infill extrusion width = 0.50mm
; top infill extrusion width = 0.50mm

M107
M190 S60 ; set bed temperature
M104 S210 ; set temperature
G28 ; home all axes
M109 S210 ; wait for temperature to be reached
G21 ; set units to millimeters
G90 ; use absolute coordinates
M82 ; use absolute distances for extrusion
G92 E0
G1 E-2.00000 F1800.00000
G92 E0
G1 Z0.250 F7800.000
G1 X62.608 Y51.597 F7800.000
G1 E2.00000 F1800.00000
M204 S3000
G1 X63.807 Y50.227 E2.01383 F1800.000
G1 X65.091 Y48.936 E2.02767
G1 X66.453 Y47.727 E2.04150
G1 X67.807 Y46.669 E2.05456
G1 X69.549 Y45.478 E2.07059
G1 X71.119 Y44.556 E2.08442
G1 X72.744 Y43.735 E2.09826
G1 X74.243 Y43.086 E2.11066
G1 X75.954 Y42.464 E2.12450
G1 X77.701 Y41.950 E2.13833
G1 X79.477 Y41.547 E2.15216
G1 X81.274 Y41.256 E2.16600
G1 X83.086 Y41.079 E2.17983
G1 X85.196 Y41.019 E2.19586
G1 X86.914 Y41.079 E2.20892 F1800.000
G1 X88.540 Y41.233 E2.22133
G1 X90.523 Y41.547 E2.23659
G1 X92.397 Y41.978 E2.25119
G1 X94.046 Y42.464 E2.26425
G1 X95.583 Y43.017 E2.27666
G1 X97.256 Y43.735 E2.29049
G1 X99.045 Y44.646 E2.30575
G1 X100.451 Y45.478 E2.31816
G1 X101.960 Y46.496 E2.33199
G1 X103.547 Y47.727 E2.34725
G1 X104.773 Y48.807 E2.35966
G1 X105.992 Y50.019 E2.37272
G1 X107.273 Y51.453 E2.38733
G1 X108.393 Y52.888 E2.40116
G1 X109.522 Y54.549 E2.41642
G1 X110.354 Y55.955 E2.42883
G1 X111.186 Y57.574 E2.44266
G1 X111.983 Y59.417 E2.45792
G1 X112.594 Y61.133 E2.47175
G1 X113.050 Y62.701 E2.48416
G1 X113.453 Y64.477 E2.49799
G1 X113.767 Y66.460 E2.51325
G1 X113.933 Y68.274 E2.52708
G1 X113.984 Y69.906 E2.53949
G1 X113.933 Y71.726 E2.55332
G1 X113.744 Y73.726 E2.56858
G1 X113.488 Y75.339 E2.58099
G1 X113.097 Y77.117 E2.59482
G1 X112.594 Y78.867 E2.60866
G1 X111.914 Y80.757 E2.62391
G1 X111.139 Y82.517 E2.63852
G1 X110.354 Y84.045 E2.65158
G1 X109.522 Y85.451 E2.66399
G1 X108.393 Y87.112 E2.67925
G1 X107.273 Y88.547 E2.69308
G1 X106.193 Y89.772 E2.70549
G1 X104.909 Y91.064 E2.71932
G1 X103.403 Y92.392 E2.73458
G1 X102.112 Y93.393 E2.74699
G1 X100.610 Y94.422 E2.76082
G1 X99.045 Y95.354 E2.77465
G1 X97.256 Y96.265 E2.78991
G1 X95.757 Y96.914 E2.80232
G1 X94.142 Y97.502 E2.81538
G1 X92.299 Y98.050 E2.82999
G1 X90.523 Y98.453 E2.84382
G1 X88.540 Y98.767 E2.85908
G1 X86.913 Y98.921 E2.87149
G1 X85.094 Y98.984 E2.88532
G1 X83.087 Y98.921 E2.90058
G1 X81.274 Y98.744 E2.91441
G1 X79.661 Y98.488 E2.92682
G1 X77.883 Y98.097 E2.94065
G1 X75.954 Y97.536 E2.95591
G1 X74.417 Y96.983 E2.96832
G1 X72.744 Y96.265 E2.98215
G1 X70.955 Y95.354 E2.99741
G1 X69.390 Y94.422 E3.01124
G1 X67.807 Y93.331 E3.02585
G1 X66.453 Y92.273 E3.03891
G1 X65.228 Y91.193 E3.05132
G1 X63.936 Y89.909 E3.06515
G1 X62.608 Y88.403 E3.08041
G1 X61.607 Y87.112 E3.09282
G1 X60.578 Y85.610 E3.10665
G1 X59.646 Y84.045 E3.12048
G1 X58.735 Y82.256 E3.13574
G1 X58.086 Y80.757 E3.14815
G1 X57.464 Y79.046 E3.16198
G1 X56.903 Y77.117 E3.17724
G1 X56.512 Y75.339 E3.19107
G1 X56.233 Y73.540 E3.20491
G1 X56.079 Y71.913 E3.21732
G1 X56.016 Y70.094 E3.23115
G1 X56.067 Y68.274 E3.24498
G1 X56.256 Y66.274 E3.26024
G1 X56.512 Y64.661 E3.27265
G1 X56.903 Y62.883 E3.28648
G1 X57.464 Y60.954 E3.30174
G1 X58.017 Y59.417 E3.31415
G1 X58.694 Y57.838 E3.32721
G1 X59.556 Y56.119 E3.34181
G1 X60.578 Y54.390 E3.35707
G1 X61.496 Y53.040 E3.36948
G1 X62.562 Y51.656 E3.38274
G1 X62.802 Y51.748 F7800.000
G4 P31
G1 X64.110 Y50.265 E3.39777 F1800.000
G1 X65.390 Y48.992 E3.41148
G1 X66.748 Y47.802 E3.42520
G1 X68.178 Y46.700 E3.43891
G1 X69.674 Y45.690 E3.45263
G1 X71.231 Y44.776 E3.46634
G1 X72.842 Y43.961 E3.48006
G1 X74.501 Y43.249 E3.49378
G1 X76.201 Y42.642 E3.50749
G1 X77.770 Y42.187 E3.51990
G1 X79.531 Y41.787 E3.53362
G1 X81.313 Y41.500 E3.54733
G1 X83.110 Y41.324 E3.56105
G1 X85.188 Y41.266 E3.57684
G1 X86.890 Y41.324 E3.58978 F1800.000
G1 X88.516 Y41.478 E3.60219
G1 X90.469 Y41.787 E3.61722
G1 X92.328 Y42.215 E3.63171
G1 X93.962 Y42.695 E3.64465
G1 X95.499 Y43.249 E3.65705
G1 X97.158 Y43.961 E3.67077
G1 X98.920 Y44.858 E3.68579
G1 X100.326 Y45.690 E3.69820
G1 X101.822 Y46.700 E3.71192
G1 X103.384 Y47.912 E3.72694
G1 X104.610 Y48.992 E3.73935
G1 X105.818 Y50.193 E3.75229
G1 X107.088 Y51.616 E3.76678
G1 X108.300 Y53.178 E3.78180
G1 X109.310 Y54.674 E3.79552
G1 X110.142 Y56.080 E3.80793
G1 X110.966 Y57.686 E3.82164
G1 X111.688 Y59.341 E3.83536
G1 X112.358 Y61.201 E3.85038
G1 X112.813 Y62.770 E3.86279
G1 X113.213 Y64.531 E3.87650
G1 X113.522 Y66.484 E3.89153
G1 X113.676 Y68.110 E3.90394
G1 X113.738 Y69.914 E3.91765
G1 X113.686 Y71.719 E3.93137
G1 X113.500 Y73.687 E3.94639
G1 X113.245 Y75.300 E3.95880
G1 X112.856 Y77.063 E3.97251
G1 X112.358 Y78.799 E3.98623
G1 X111.688 Y80.659 E4.00125
G1 X110.920 Y82.405 E4.01574
G1 X110.142 Y83.920 E4.02868
G1 X109.310 Y85.326 E4.04109
G1 X108.199 Y86.961 E4.05611
G1 X107.088 Y88.384 E4.06983
G1 X106.008 Y89.610 E4.08224
G1 X104.735 Y90.890 E4.09596
G1 X103.252 Y92.198 E4.11098
G1 X101.961 Y93.199 E4.12339
G1 X100.471 Y94.218 E4.13710
G1 X98.920 Y95.142 E4.15082
G1 X97.158 Y96.039 E4.16584
G1 X95.659 Y96.688 E4.17825
G1 X94.058 Y97.270 E4.19119
G1 X92.230 Y97.813 E4.20568
G1 X90.469 Y98.213 E4.21940
G1 X88.516 Y98.522 E4.23442
G1 X86.890 Y98.676 E4.24683
G1 X85.086 Y98.738 E4.26054
G1 X83.281 Y98.686 E4.27426
G1 X81.313 Y98.500 E4.28928
G1 X79.700 Y98.245 E4.30169
G1 X77.937 Y97.856 E4.31540
G1 X76.038 Y97.305 E4.33043
G1 X74.501 Y96.751 E4.34284
G1 X72.842 Y96.039 E4.35655
G1 X71.080 Y95.142 E4.37157
G1 X69.529 Y94.218 E4.38529
G1 X67.958 Y93.136 E4.39978
G1 X66.616 Y92.088 E4.41272
G1 X65.390 Y91.008 E4.42513
G1 X64.110 Y89.735 E4.43885
G1 X62.802 Y88.252 E4.45387
G1 X61.700 Y86.822 E4.46758
G1 X60.782 Y85.471 E4.47999
G1 X59.776 Y83.769 E4.49501
G1 X58.961 Y82.158 E4.50873
G1 X58.312 Y80.659 E4.52114
G1 X57.695 Y78.962 E4.53486
G1 X57.187 Y77.230 E4.54857
G1 X56.755 Y75.300 E4.56359
G1 X56.478 Y73.516 E4.57731
G1 X56.324 Y71.890 E4.58972
G1 X56.262 Y70.086 E4.60343
G1 X56.314 Y68.281 E4.61715
G1 X56.500 Y66.313 E4.63217
G1 X56.755 Y64.700 E4.64458
G1 X57.144 Y62.937 E4.65830
G1 X57.695 Y61.038 E4.67332
G1 X58.249 Y59.501 E4.68573
G1 X58.920 Y57.936 E4.69867
G1 X59.776 Y56.231 E4.71316
G1 X60.782 Y54.529 E4.72818
G1 X61.700 Y53.178 E4.74059
G1 X62.756 Y51.807 E4.75374
G1 X62.997 Y51.899 F7800.000
G4 P31
G1 X64.177 Y50.553 E4.76733 F1800.000
G1 X65.439 Y49.284 E4.78093
G1 X66.779 Y48.097 E4.79453
G1 X68.109 Y47.059 E4.80735
G1 X69.800 Y45.902 E4.82291
G1 X71.343 Y44.995 E4.83651
G1 X72.940 Y44.187 E4.85011
G1 X74.439 Y43.538 E4.86252
G1 X76.121 Y42.927 E4.87612
G1 X77.839 Y42.423 E4.88972
G1 X79.584 Y42.028 E4.90331
G1 X81.351 Y41.743 E4.91691
G1 X83.133 Y41.570 E4.93051
G1 X85.180 Y41.512 E4.94607
G1 X86.867 Y41.570 E4.95889 F1800.000
G1 X88.493 Y41.723 E4.97130
G1 X90.416 Y42.028 E4.98609
G1 X92.259 Y42.452 E5.00046
G1 X93.879 Y42.927 E5.01329
G1 X95.416 Y43.480 E5.02570
G1 X97.202 Y44.253 E5.04048
G1 X98.794 Y45.070 E5.05408
G1 X100.200 Y45.902 E5.06649
G1 X101.684 Y46.904 E5.08009
G1 X103.221 Y48.097 E5.09487
G1 X104.447 Y49.177 E5.10728
G1 X105.644 Y50.367 E5.12011
G1 X106.903 Y51.779 E5.13448
G1 X108.004 Y53.190 E5.14808
G1 X109.098 Y54.800 E5.16286
G1 X109.930 Y56.206 E5.17527
G1 X110.747 Y57.798 E5.18887
G1 X111.462 Y59.439 E5.20247
G1 X112.121 Y61.270 E5.21726
G1 X112.577 Y62.839 E5.22967
G1 X112.972 Y64.584 E5.24326
G1 X113.277 Y66.507 E5.25805
G1 X113.440 Y68.289 E5.27165
G1 X113.491 Y69.922 E5.28406
G1 X113.440 Y71.711 E5.29766
G1 X113.257 Y73.649 E5.31244
G1 X113.001 Y75.262 E5.32485
G1 X112.616 Y77.010 E5.33845
G1 X112.121 Y78.730 E5.35205
G1 X111.462 Y80.561 E5.36684
G1 X110.700 Y82.293 E5.38121
G1 X109.930 Y83.794 E5.39403
G1 X109.098 Y85.200 E5.40644
G1 X108.004 Y86.810 E5.42123
G1 X106.903 Y88.221 E5.43483
G1 X105.823 Y89.447 E5.44724
G1 X104.561 Y90.716 E5.46083
G1 X103.101 Y92.003 E5.47562
G1 X101.810 Y93.004 E5.48803
G1 X100.333 Y94.014 E5.50163
G1 X98.794 Y94.930 E5.51523
G1 X97.060 Y95.813 E5.53001
G1 X95.561 Y96.462 E5.54242
G1 X93.975 Y97.038 E5.55525
G1 X92.161 Y97.577 E5.56962
G1 X90.416 Y97.972 E5.58322
G1 X88.493 Y98.277 E5.59800
G1 X86.867 Y98.430 E5.61041
G1 X85.078 Y98.491 E5.62401
G1 X83.289 Y98.440 E5.63761
G1 X81.351 Y98.257 E5.65240
G1 X79.738 Y98.001 E5.66481
G1 X77.990 Y97.616 E5.67840
G1 X76.121 Y97.073 E5.69319
G1 X74.439 Y96.462 E5.70679
G1 X72.707 Y95.700 E5.72116
G1 X71.206 Y94.930 E5.73398
G1 X69.800 Y94.098 E5.74639
G1 X68.190 Y93.004 E5.76118
G1 X66.779 Y91.903 E5.77478
G1 X65.553 Y90.823 E5.78719
G1 X64.284 Y89.561 E5.80079
G1 X62.997 Y88.101 E5.81557
G1 X61.996 Y86.810 E5.82798
G1 X60.986 Y85.333 E5.84158
G1 X60.070 Y83.794 E5.85518
G1 X59.187 Y82.060 E5.86997
G1 X58.538 Y80.561 E5.88238
G1 X57.927 Y78.879 E5.89597
G1 X57.423 Y77.161 E5.90957
G1 X56.999 Y75.262 E5.92436
G1 X56.723 Y73.493 E5.93796
G1 X56.570 Y71.867 E5.95037
G1 X56.509 Y70.078 E5.96396
G1 X56.560 Y68.289 E5.97756
G1 X56.743 Y66.351 E5.99235
G1 X56.999 Y64.738 E6.00476
G1 X57.384 Y62.990 E6.01836
G1 X57.927 Y61.121 E6.03314
G1 X58.480 Y59.584 E6.04555
G1 X59.146 Y58.033 E6.05838
G1 X59.995 Y56.343 E6.07275
G1 X60.986 Y54.667 E6.08754
G1 X61.904 Y53.316 E6.09995
G1 X62.951 Y51.958 E6.11297
G1 X63.192 Y52.050 F7800.000
G4 P31
G1 X64.362 Y50.716 E6.12645 F1800.000
G1 X65.613 Y49.458 E6.13994
G1 X66.941 Y48.282 E6.15342
G1 X68.260 Y47.253 E6.16612
G1 X69.925 Y46.114 E6.18145
G1 X71.455 Y45.215 E6.19493
G1 X73.038 Y44.413 E6.20841
G1 X74.537 Y43.764 E6.22082
G1 X76.205 Y43.159 E6.23430
G1 X77.907 Y42.660 E6.24778
G1 X79.638 Y42.268 E6.26126
G1 X81.390 Y41.986 E6.27474
G1 X83.156 Y41.815 E6.28822
G1 X85.173 Y41.758 E6.30355
G1 X86.844 Y41.815 E6.31625 F1800.000
G1 X88.470 Y41.969 E6.32866
G1 X90.362 Y42.268 E6.34321
G1 X92.093 Y42.660 E6.35669
G1 X93.661 Y43.115 E6.36910
G1 X95.332 Y43.712 E6.38258
G1 X97.090 Y44.473 E6.39714
G1 X98.545 Y45.215 E6.40955
G1 X99.987 Y46.062 E6.42225
G1 X101.545 Y47.108 E6.43651
G1 X103.059 Y48.282 E6.45106
G1 X104.284 Y49.362 E6.46347
G1 X105.469 Y50.541 E6.47617
G1 X106.718 Y51.941 E6.49043
G1 X107.809 Y53.341 E6.50391
G1 X108.886 Y54.925 E6.51846
G1 X109.718 Y56.331 E6.53087
G1 X110.527 Y57.910 E6.54435
G1 X111.236 Y59.537 E6.55783
G1 X111.885 Y61.339 E6.57238
G1 X112.340 Y62.907 E6.58479
G1 X112.732 Y64.638 E6.59827
G1 X113.031 Y66.530 E6.61282
G1 X113.194 Y68.297 E6.62631
G1 X113.245 Y69.929 E6.63871
G1 X113.194 Y71.703 E6.65219
G1 X113.014 Y73.610 E6.66675
G1 X112.758 Y75.223 E6.67916
G1 X112.375 Y76.956 E6.69264
G1 X111.885 Y78.661 E6.70612
G1 X111.236 Y80.463 E6.72067
G1 X110.481 Y82.181 E6.73492
G1 X109.718 Y83.669 E6.74763
G1 X108.886 Y85.075 E6.76004
G1 X107.809 Y86.659 E6.77459
G1 X106.651 Y88.135 E6.78885
G1 X105.542 Y89.387 E6.80155
G1 X104.387 Y90.542 E6.81396
G1 X102.950 Y91.808 E6.82851
G1 X101.659 Y92.809 E6.84092
G1 X100.194 Y93.810 E6.85440
G1 X98.669 Y94.718 E6.86788
G1 X96.962 Y95.587 E6.88243
G1 X95.463 Y96.236 E6.89484
G1 X93.891 Y96.806 E6.90755
G1 X92.093 Y97.340 E6.92180
G1 X90.223 Y97.758 E6.93636
G1 X88.470 Y98.031 E6.94984
G1 X86.844 Y98.185 E6.96225
G1 X85.071 Y98.245 E6.97573
G1 X83.156 Y98.185 E6.99028
G1 X81.289 Y97.998 E7.00453
G1 X79.638 Y97.732 E7.01724
G1 X78.044 Y97.375 E7.02965
G1 X76.339 Y96.885 E7.04313
G1 X74.537 Y96.236 E7.05768
G1 X72.910 Y95.527 E7.07116
G1 X71.331 Y94.718 E7.08464
G1 X69.925 Y93.886 E7.09705
G1 X68.341 Y92.809 E7.11160
G1 X67.050 Y91.808 E7.12401
G1 X65.716 Y90.638 E7.13749
G1 X64.458 Y89.387 E7.15097
G1 X63.192 Y87.950 E7.16553
G1 X62.191 Y86.659 E7.17794
G1 X61.190 Y85.194 E7.19142
G1 X60.282 Y83.669 E7.20490
G1 X59.413 Y81.962 E7.21945
G1 X58.764 Y80.463 E7.23186
G1 X58.159 Y78.795 E7.24534
G1 X57.660 Y77.093 E7.25882
G1 X57.242 Y75.223 E7.27337
G1 X56.969 Y73.470 E7.28685
G1 X56.815 Y71.844 E7.29926
G1 X56.755 Y70.071 E7.31274
G1 X56.806 Y68.297 E7.32622
G1 X56.986 Y66.390 E7.34078
G1 X57.242 Y64.777 E7.35318
G1 X57.625 Y63.044 E7.36666
G1 X58.159 Y61.205 E7.38122
G1 X58.712 Y59.668 E7.39363
G1 X59.372 Y58.131 E7.40633
G1 X60.215 Y56.455 E7.42059
G1 X61.190 Y54.806 E7.43514
G1 X62.108 Y53.455 E7.44755
G1 X63.146 Y52.109 E7.46046
G1 F6240
G1 X64.362 Y50.716 E6.95368
G1 F6240
G1 X65.613 Y49.458 E6.46742
G1 F6240
G1 X66.941 Y48.282 E5.98116
G1 F6240
G1 X68.152 Y47.337 E5.56046
G1 E5.46046 F1800.00000
G92 E0
G1 X98.800 Y78.731 F7800.000
G1 E2.00000 F1800.00000
G1 X98.879 Y78.814 E2.00087 F1800.000
G1 X99.103 Y78.691 E2.00281
G1 X99.673 Y78.544 E2.00728
G1 X100.260 Y78.544 E2.01175
G1 X100.833 Y78.691 E2.01624
G1 X101.354 Y78.981 E2.02077
G1 X101.776 Y79.377 E2.02516
G1 X102.091 Y79.873 E2.02963
G1 X102.272 Y80.431 E2.03409
G1 X102.310 Y81.018 E2.03856
G1 X102.198 Y81.604 E2.04309
G1 X101.951 Y82.129 E2.04749
G1 X101.572 Y82.587 E2.05201
G1 X101.096 Y82.932 E2.05648
G1 X100.558 Y83.145 E2.06087
G1 X99.968 Y83.222 E2.06539
G1 X99.384 Y83.148 E2.06987
G1 X98.836 Y82.932 E2.07435
G1 X98.359 Y82.585 E2.07883
G1 X97.984 Y82.132 E2.08329
G1 X97.737 Y81.606 E2.08771
G1 X97.623 Y81.022 E2.09223
G1 X97.659 Y80.488 E2.09629
G4 P15
G1 X97.561 Y80.447 E2.09710
G1 X96.787 Y81.321 E2.10597
G1 X95.838 Y82.233 E2.11597
G1 X94.818 Y83.065 E2.12597
G1 X93.735 Y83.813 E2.13597
G1 X92.574 Y84.481 E2.14614
G1 X91.406 Y85.035 E2.15596
G1 X90.175 Y85.502 E2.16596
G1 X88.911 Y85.868 E2.17596
G1 X87.622 Y86.132 E2.18596
G1 X86.315 Y86.290 E2.19596
G1 X85.000 Y86.343 E2.20596
G1 X83.685 Y86.290 E2.21596
G1 X82.378 Y86.132 E2.22596
G1 X80.980 Y85.837 E2.23682
G1 X80.922 Y85.938 E2.23770
G1 X81.087 Y86.093 E2.23943
G1 X81.407 Y86.594 E2.24394
G1 X81.589 Y87.154 E2.24841
G1 X81.627 Y87.744 E2.25290
G1 X81.512 Y88.329 E2.25743
G1 X81.266 Y88.852 E2.26183
G1 X80.891 Y89.306 E2.26630
G1 X80.409 Y89.654 E2.27082
G1 X79.870 Y89.867 E2.27522
G1 X79.287 Y89.942 E2.27969
G1 X78.695 Y89.867 E2.28422
G1 X78.149 Y89.650 E2.28868
G1 X77.675 Y89.305 E2.29314
G1 X77.301 Y88.853 E2.29760
G1 X77.050 Y88.320 E2.30207
G1 X76.940 Y87.743 E2.30653
G1 X76.977 Y87.154 E2.31101
G1 X77.159 Y86.594 E2.31549
G1 X77.474 Y86.098 E2.31996
G1 X77.904 Y85.695 E2.32443
G1 X78.420 Y85.411 E2.32891
G1 X78.943 Y85.279 E2.33301
G1 X78.950 Y85.170 E2.33383
G1 X78.594 Y85.035 E2.33673
G1 X77.385 Y84.460 E2.34690
G1 X76.265 Y83.813 E2.35672
G1 X75.182 Y83.065 E2.36672
G1 X74.162 Y82.233 E2.37672
G1 X73.213 Y81.321 E2.38672
G1 X72.327 Y80.318 E2.39689
G1 X71.550 Y79.284 E2.40672
G1 X70.846 Y78.172 E2.41672
G1 X70.235 Y77.006 E2.42672
G1 X69.719 Y75.795 E2.43671
G1 X69.302 Y74.547 E2.44671
G1 X68.987 Y73.269 E2.45671
G1 X68.776 Y71.970 E2.46671
G1 X68.702 Y71.050 E2.47372
G1 X68.590 Y71.030 E2.47459
G1 X68.482 Y71.258 E2.47651
G1 X68.107 Y71.712 E2.48098
G1 X67.632 Y72.057 E2.48544
G1 X67.084 Y72.274 E2.48992
G1 X66.501 Y72.348 E2.49439
G1 X65.915 Y72.274 E2.49887
G1 X65.363 Y72.054 E2.50339
G1 X64.895 Y71.713 E2.50778
G1 X64.520 Y71.261 E2.51224
G1 X64.269 Y70.730 E2.51671
G1 X64.157 Y70.152 E2.52118
G1 X64.194 Y69.557 E2.52571
G1 X64.376 Y68.999 E2.53017
G1 X64.691 Y68.504 E2.53463
G1 X65.120 Y68.100 E2.53910
G1 X65.635 Y67.817 E2.54356
G1 X66.206 Y67.670 E2.54804
G1 X66.795 Y67.671 E2.55252
G1 X67.364 Y67.817 E2.55699
G1 X67.881 Y68.101 E2.56146
G1 X68.309 Y68.503 E2.56593
G1 X68.600 Y68.961 E2.57005
G1 X68.703 Y68.935 E2.57086
G1 X68.776 Y68.030 E2.57776
G1 X68.983 Y66.754 E2.58758
G1 X69.302 Y65.453 E2.59775
G1 X69.719 Y64.205 E2.60775
G1 X70.235 Y62.994 E2.61775
G1 X70.846 Y61.828 E2.62775
G1 X71.550 Y60.716 E2.63775
G1 X72.340 Y59.664 E2.64775
G1 X73.213 Y58.679 E2.65775
G1 X74.163 Y57.767 E2.66775
G1 X75.201 Y56.921 E2.67792
G1 X76.265 Y56.187 E2.68774
G1 X77.397 Y55.533 E2.69768
G1 X78.594 Y54.965 E2.70774
G1 X78.962 Y54.825 E2.71074
G1 X78.949 Y54.710 E2.71161
G1 X78.693 Y54.677 E2.71357
G1 X78.152 Y54.463 E2.71799
G1 X77.677 Y54.118 E2.72246
G1 X77.301 Y53.664 E2.72693
G1 X77.050 Y53.132 E2.73140
G1 X76.940 Y52.552 E2.73588
G1 X76.979 Y51.959 E2.74040
G1 X77.158 Y51.408 E2.74480
G1 X77.472 Y50.911 E2.74927
G1 X77.907 Y50.503 E2.75380
G1 X78.416 Y50.224 E2.75820
