; generated by Slic3r 1.2.9 on 2017-06-12 at 21:47:00

; external perimeters extrusion width = 0.50mm
; perimeters extrusion width = 0.50mm
; infill extrusion width = 0.50mm
; solid infill extrusion width = 0.50mm
; top infill extrusion width = 0.50mm

M107
M190 S60 ; set bed temperature
M104 S210 ; set temperature
G28 ; home all axes
M109 S210 ; wait for temperature to be reached
G21 ; set units to millimeters
G90 ; use absolute coordinates
M82 ; use absolute distances for extrusion
G92 E0
G1 E-2.00000 F1800.00000
G92 E0
G1 Z0.250 F7800.000
G1 X62.608 Y51.597 F7800.000
G1 E2.00000 F1800.00000
M204 S3000
G1 X63.807 Y50.227 E2.01383 F1800.000
G1 X65.091 Y48.936 E2.02767
G1 X66.453 Y47.727 E2.04150
G1 X67.807 Y46.669 E2.05456
G1 X69.549 Y45.478 E2.07059
G1 X71.119 Y44.556 E2.08442
G1 X72.744 Y43.735 E2.09826
G1 X74.417 Y43.017 E2.11209
G1 X75.954 Y42.464 E2.12450
G1 X77.701 Y41.950 E2.13833
G1 X79.477 Y41.547 E2.15216
G1 X81.274 Y41.256 E2.16600
G1 X83.086 Y41.079 E2.17983
G1 X85.196 Y41.019 E2.19586
G1 X86.914 Y41.079 E2.20892 F1800.000
G1 X88.540 Y41.233 E2.22133
G1 X90.523 Y41.547 E2.23659
G1 X92.299 Y41.950 E2.25042
G1 X93.867 Y42.406 E2.26283
G1 X95.583 Y43.017 E2.27666
G1 X97.426 Y43.814 E2.29192
G1 X98.881 Y44.556 E2.30433
G1 X100.363 Y45.426 E2.31739
G1 X101.960 Y46.496 E2.33199
G1 X103.547 Y47.727 E2.34725
G1 X104.772 Y48.807 E2.35966
G1 X105.992 Y50.019 E2.37272
G1 X107.273 Y51.453 E2.38733
G1 X108.393 Y52.888 E2.40116
G1 X109.522 Y54.549 E2.41642
G1 X110.354 Y55.955 E2.42883
G1 X111.139 Y57.483 E2.44188
G1 X111.914 Y59.243 E2.45649
G1 X112.594 Y61.133 E2.47175
G1 X113.050 Y62.701 E2.48416
G1 X113.453 Y64.477 E2.49799
G1 X113.767 Y66.460 E2.51325
G1 X113.933 Y68.274 E2.52708
G1 X113.984 Y70.094 E2.54091
G1 X113.933 Y71.726 E2.55332
G1 X113.767 Y73.540 E2.56716
G1 X113.453 Y75.523 E2.58241
G1 X113.097 Y77.117 E2.59482
G1 X112.594 Y78.867 E2.60866
G1 X111.983 Y80.583 E2.62249
G1 X111.186 Y82.426 E2.63775
G1 X110.354 Y84.045 E2.65158
G1 X109.522 Y85.451 E2.66399
G1 X108.504 Y86.960 E2.67782
G1 X107.273 Y88.547 E2.69308
G1 X106.193 Y89.772 E2.70549
G1 X104.909 Y91.064 E2.71932
G1 X103.403 Y92.392 E2.73458
G1 X102.112 Y93.393 E2.74699
G1 X100.694 Y94.364 E2.76005
G1 X99.045 Y95.354 E2.77465
G1 X97.256 Y96.265 E2.78991
G1 X95.757 Y96.914 E2.80232
G1 X94.046 Y97.536 E2.81615
G1 X92.299 Y98.050 E2.82999
G1 X90.523 Y98.453 E2.84382
G1 X88.540 Y98.767 E2.85908
G1 X86.913 Y98.921 E2.87149
G1 X85.094 Y98.984 E2.88532
G1 X83.274 Y98.933 E2.89915
G1 X81.274 Y98.744 E2.91441
G1 X79.661 Y98.488 E2.92682
G1 X77.883 Y98.097 E2.94065
G1 X75.954 Y97.536 E2.95591
G1 X74.243 Y96.914 E2.96974
G1 X72.574 Y96.186 E2.98358
G1 X71.119 Y95.444 E2.99599
G1 X69.549 Y94.522 E3.00982
G1 X67.888 Y93.393 E3.02508
G1 X66.453 Y92.273 E3.03891
G1 X65.228 Y91.193 E3.05132
G1 X63.936 Y89.909 E3.06515
G1 X62.608 Y88.403 E3.08041
G1 X61.439 Y86.876 E3.09502
G1 X60.478 Y85.451 E3.10807
G1 X59.646 Y84.045 E3.12048
G1 X58.735 Y82.256 E3.13574
G1 X58.086 Y80.757 E3.14815
G1 X57.464 Y79.046 E3.16198
G1 X56.950 Y77.299 E3.17582
G1 X56.512 Y75.339 E3.19107
G1 X56.233 Y73.540 E3.20491
G1 X56.067 Y71.726 E3.21874
G1 X56.016 Y70.094 E3.23115
G1 X56.079 Y68.086 E3.24641
G1 X56.272 Y66.174 E3.26101
G1 X56.547 Y64.477 E3.27407
G1 X56.903 Y62.883 E3.28648
G1 X57.464 Y60.954 E3.30174
G1 X58.017 Y59.417 E3.31415
G1 X58.694 Y57.838 E3.32720
G1 X59.556 Y56.119 E3.34181
G1 X60.578 Y54.390 E3.35707
G1 X61.496 Y53.040 E3.36948
G1 X62.562 Y51.656 E3.38274
G1 X62.802 Y51.748 F7800.000
G4 P31
G1 X64.110 Y50.265 E3.39776 F1800.000
G1 X65.390 Y48.992 E3.41148
G1 X66.748 Y47.802 E3.42520
G1 X68.178 Y46.700 E3.43891
G1 X69.674 Y45.690 E3.45263
G1 X71.231 Y44.776 E3.46634
G1 X72.842 Y43.961 E3.48006
G1 X74.341 Y43.312 E3.49247
G1 X76.038 Y42.695 E3.50618
G1 X77.770 Y42.187 E3.51990
G1 X79.531 Y41.787 E3.53361
G1 X81.313 Y41.500 E3.54733
G1 X83.110 Y41.324 E3.56105
G1 X85.188 Y41.266 E3.57684
G1 X86.890 Y41.324 E3.58978 F1800.000
G1 X88.516 Y41.478 E3.60219
G1 X90.469 Y41.787 E3.61721
G1 X92.230 Y42.187 E3.63093
G1 X93.799 Y42.642 E3.64334
G1 X95.499 Y43.249 E3.65705
G1 X97.314 Y44.034 E3.67208
G1 X98.769 Y44.776 E3.68449
G1 X100.238 Y45.638 E3.69743
G1 X101.822 Y46.700 E3.71192
G1 X103.384 Y47.912 E3.72694
G1 X104.610 Y48.992 E3.73935
G1 X105.818 Y50.193 E3.75229
G1 X107.088 Y51.616 E3.76678
G1 X108.300 Y53.178 E3.78180
G1 X109.310 Y54.674 E3.79552
G1 X110.142 Y56.080 E3.80793
G1 X110.920 Y57.595 E3.82087
G1 X111.688 Y59.341 E3.83536
G1 X112.358 Y61.201 E3.85038
G1 X112.813 Y62.770 E3.86279
G1 X113.213 Y64.531 E3.87650
G1 X113.500 Y66.313 E3.89022
G1 X113.686 Y68.281 E3.90524
G1 X113.738 Y70.086 E3.91896
G1 X113.686 Y71.719 E3.93137
G1 X113.522 Y73.516 E3.94508
G1 X113.213 Y75.469 E3.96010
G1 X112.856 Y77.063 E3.97251
G1 X112.358 Y78.799 E3.98623
G1 X111.688 Y80.659 E4.00125
G1 X110.966 Y82.314 E4.01497
G1 X110.224 Y83.769 E4.02738
G1 X109.310 Y85.326 E4.04109
G1 X108.300 Y86.822 E4.05481
G1 X107.088 Y88.384 E4.06983
G1 X105.890 Y89.735 E4.08354
G1 X104.735 Y90.890 E4.09595
G1 X103.252 Y92.198 E4.11098
G1 X101.961 Y93.199 E4.12339
G1 X100.556 Y94.161 E4.13633
G1 X98.920 Y95.142 E4.15082
G1 X97.158 Y96.039 E4.16584
G1 X95.659 Y96.688 E4.17825
G1 X93.962 Y97.305 E4.19196
G1 X92.230 Y97.813 E4.20568
G1 X90.469 Y98.213 E4.21939
G1 X88.516 Y98.522 E4.23442
G1 X86.719 Y98.686 E4.24813
G1 X85.086 Y98.738 E4.26054
G1 X83.281 Y98.686 E4.27426
G1 X81.313 Y98.500 E4.28928
G1 X79.700 Y98.245 E4.30169
G1 X77.937 Y97.856 E4.31540
G1 X76.201 Y97.358 E4.32912
G1 X74.341 Y96.688 E4.34414
G1 X72.686 Y95.966 E4.35786
G1 X71.231 Y95.224 E4.37027
G1 X69.674 Y94.310 E4.38398
G1 X68.039 Y93.199 E4.39900
G1 X66.748 Y92.198 E4.41141
G1 X65.390 Y91.008 E4.42513
G1 X64.110 Y89.735 E4.43885
G1 X62.802 Y88.252 E4.45387
G1 X61.643 Y86.738 E4.46836
G1 X60.690 Y85.326 E4.48130
G1 X59.858 Y83.920 E4.49371
G1 X58.961 Y82.158 E4.50873
G1 X58.312 Y80.659 E4.52114
G1 X57.695 Y78.962 E4.53485
G1 X57.187 Y77.230 E4.54857
G1 X56.755 Y75.300 E4.56359
G1 X56.469 Y73.415 E4.57808
G1 X56.314 Y71.719 E4.59102
G1 X56.262 Y70.086 E4.60343
G1 X56.324 Y68.110 E4.61845
G1 X56.516 Y66.212 E4.63294
G1 X56.787 Y64.531 E4.64588
G1 X57.144 Y62.937 E4.65829
G1 X57.695 Y61.038 E4.67331
G1 X58.249 Y59.501 E4.68572
G1 X58.920 Y57.936 E4.69866
G1 X59.776 Y56.231 E4.71315
G1 X60.782 Y54.529 E4.72818
G1 X61.700 Y53.178 E4.74059
G1 X62.756 Y51.807 E4.75373
G1 X62.997 Y51.899 F7800.000
G4 P31
G1 X64.177 Y50.553 E4.76733 F1800.000
G1 X65.439 Y49.284 E4.78093
G1 X66.779 Y48.097 E4.79453
G1 X68.109 Y47.059 E4.80735
G1 X69.800 Y45.902 E4.82291
G1 X71.343 Y44.995 E4.83651
G1 X72.940 Y44.187 E4.85011
G1 X74.584 Y43.480 E4.86370
G1 X76.121 Y42.927 E4.87611
G1 X77.839 Y42.423 E4.88971
G1 X79.584 Y42.028 E4.90331
G1 X81.351 Y41.743 E4.91691
G1 X83.133 Y41.570 E4.93051
G1 X85.180 Y41.512 E4.94607
G1 X86.867 Y41.570 E4.95889 F1800.000
G1 X88.493 Y41.723 E4.97130
G1 X90.416 Y42.028 E4.98609
G1 X92.010 Y42.384 E4.99850
G1 X93.632 Y42.850 E5.01132
G1 X95.416 Y43.480 E5.02569
G1 X97.202 Y44.253 E5.04048
G1 X98.657 Y44.995 E5.05289
G1 X100.113 Y45.850 E5.06571
G1 X101.684 Y46.904 E5.08008
G1 X103.221 Y48.097 E5.09487
G1 X104.447 Y49.177 E5.10728
G1 X105.644 Y50.367 E5.12010
G1 X106.903 Y51.779 E5.13447
G1 X108.004 Y53.190 E5.14807
G1 X109.098 Y54.800 E5.16286
G1 X109.930 Y56.206 E5.17527
G1 X110.747 Y57.798 E5.18887
G1 X111.520 Y59.584 E5.20365
G1 X112.073 Y61.121 E5.21606
G1 X112.548 Y62.741 E5.22889
G1 X112.972 Y64.584 E5.24326
G1 X113.257 Y66.351 E5.25686
G1 X113.440 Y68.289 E5.27164
G1 X113.491 Y70.078 E5.28524
G1 X113.440 Y71.711 E5.29765
G1 X113.277 Y73.493 E5.31125
G1 X112.972 Y75.416 E5.32604
G1 X112.616 Y77.010 E5.33845
G1 X112.121 Y78.730 E5.35204
G1 X111.520 Y80.416 E5.36564
G1 X110.747 Y82.202 E5.38043
G1 X109.930 Y83.794 E5.39403
G1 X109.098 Y85.200 E5.40644
G1 X108.096 Y86.684 E5.42003
G1 X106.903 Y88.221 E5.43482
G1 X105.823 Y89.447 E5.44723
G1 X104.561 Y90.716 E5.46083
G1 X103.101 Y92.003 E5.47562
G1 X101.810 Y93.004 E5.48803
G1 X100.417 Y93.957 E5.50085
G1 X98.794 Y94.930 E5.51522
G1 X97.060 Y95.813 E5.53001
G1 X95.561 Y96.462 E5.54242
G1 X93.879 Y97.073 E5.55602
G1 X92.161 Y97.577 E5.56961
G1 X90.416 Y97.972 E5.58321
G1 X88.493 Y98.277 E5.59800
G1 X86.711 Y98.440 E5.61160
G1 X85.078 Y98.491 E5.62401
G1 X83.289 Y98.440 E5.63760
G1 X81.351 Y98.257 E5.65239
G1 X79.738 Y98.001 E5.66480
G1 X77.990 Y97.616 E5.67840
G1 X76.121 Y97.073 E5.69319
G1 X74.584 Y96.520 E5.70560
G1 X72.940 Y95.813 E5.71919
G1 X71.343 Y95.005 E5.73279
G1 X69.667 Y94.014 E5.74758
G1 X68.190 Y93.004 E5.76118
G1 X66.899 Y92.003 E5.77359
G1 X65.553 Y90.823 E5.78718
G1 X64.284 Y89.561 E5.80078
G1 X62.997 Y88.101 E5.81557
G1 X61.996 Y86.810 E5.82798
G1 X60.986 Y85.333 E5.84158
G1 X60.070 Y83.794 E5.85518
G1 X59.187 Y82.060 E5.86996
G1 X58.538 Y80.561 E5.88237
G1 X57.927 Y78.879 E5.89597
G1 X57.423 Y77.161 E5.90957
G1 X56.999 Y75.262 E5.92436
G1 X56.714 Y73.392 E5.93873
G1 X56.560 Y71.711 E5.95155
G1 X56.509 Y70.078 E5.96396
G1 X56.570 Y68.133 E5.97875
G1 X56.759 Y66.251 E5.99312
G1 X57.028 Y64.584 E6.00594
G1 X57.384 Y62.990 E6.01835
G1 X57.927 Y61.121 E6.03314
G1 X58.480 Y59.584 E6.04555
G1 X59.146 Y58.033 E6.05837
G1 X59.995 Y56.343 E6.07274
G1 X60.986 Y54.667 E6.08753
G1 X61.904 Y53.316 E6.09994
G1 X62.951 Y51.958 E6.11297
G1 X63.192 Y52.050 F7800.000
G4 P31
G1 X64.362 Y50.716 E6.12645 F1800.000
G1 X65.613 Y49.458 E6.13993
G1 X66.941 Y48.282 E6.15341
G1 X68.260 Y47.253 E6.16611
G1 X69.925 Y46.114 E6.18144
G1 X71.455 Y45.215 E6.19492
G1 X73.038 Y44.413 E6.20840
G1 X74.537 Y43.764 E6.22081
G1 X76.205 Y43.159 E6.23429
G1 X77.907 Y42.660 E6.24777
G1 X79.638 Y42.268 E6.26125
G1 X81.390 Y41.986 E6.27473
G1 X83.156 Y41.815 E6.28821
G1 X85.173 Y41.758 E6.30354
G1 X86.844 Y41.815 E6.31625 F1800.000
G1 X88.470 Y41.969 E6.32866
G1 X90.362 Y42.268 E6.34321
G1 X91.956 Y42.625 E6.35562
G1 X93.563 Y43.087 E6.36832
G1 X95.332 Y43.712 E6.38258
G1 X97.090 Y44.473 E6.39713
G1 X98.545 Y45.215 E6.40954
G1 X99.987 Y46.062 E6.42224
G1 X101.545 Y47.108 E6.43650
G1 X103.059 Y48.282 E6.45105
G1 X104.284 Y49.362 E6.46346
G1 X105.469 Y50.541 E6.47616
G1 X106.718 Y51.941 E6.49042
G1 X107.809 Y53.341 E6.50390
G1 X108.886 Y54.925 E6.51845
G1 X109.718 Y56.331 E6.53086
G1 X110.481 Y57.819 E6.54357
G1 X111.236 Y59.537 E6.55782
G1 X111.885 Y61.339 E6.57237
G1 X112.340 Y62.907 E6.58478
G1 X112.732 Y64.638 E6.59826
G1 X113.031 Y66.530 E6.61282
G1 X113.194 Y68.297 E6.62630
G1 X113.245 Y70.071 E6.63978
G1 X113.194 Y71.703 E6.65219
G1 X113.031 Y73.470 E6.66567
G1 X112.732 Y75.362 E6.68022
G1 X112.375 Y76.956 E6.69263
G1 X111.885 Y78.661 E6.70611
G1 X111.288 Y80.332 E6.71959
G1 X110.527 Y82.090 E6.73414
G1 X109.718 Y83.669 E6.74762
G1 X108.886 Y85.075 E6.76003
G1 X107.892 Y86.545 E6.77351
G1 X106.718 Y88.059 E6.78806
G1 X105.542 Y89.387 E6.80154
G1 X104.387 Y90.542 E6.81395
G1 X102.950 Y91.808 E6.82851
G1 X101.659 Y92.809 E6.84091
G1 X100.279 Y93.753 E6.85362
G1 X98.669 Y94.718 E6.86788
G1 X96.962 Y95.587 E6.88243
G1 X95.332 Y96.288 E6.89591
G1 X93.795 Y96.841 E6.90832
G1 X92.093 Y97.340 E6.92180
G1 X90.362 Y97.732 E6.93528
G1 X88.470 Y98.031 E6.94983
G1 X86.844 Y98.185 E6.96224
G1 X85.071 Y98.245 E6.97572
G1 X83.297 Y98.194 E6.98920
G1 X81.390 Y98.014 E7.00375
G1 X79.777 Y97.758 E7.01616
G1 X78.044 Y97.375 E7.02964
G1 X76.339 Y96.885 E7.04312
G1 X74.537 Y96.236 E7.05768
G1 X72.910 Y95.527 E7.07116
G1 X71.455 Y94.785 E7.08357
G1 X69.925 Y93.886 E7.09705
G1 X68.341 Y92.809 E7.11160
G1 X66.941 Y91.718 E7.12508
G1 X65.716 Y90.638 E7.13749
G1 X64.458 Y89.387 E7.15097
G1 X63.192 Y87.950 E7.16552
G1 X62.191 Y86.659 E7.17793
G1 X61.190 Y85.194 E7.19141
G1 X60.215 Y83.545 E7.20596
G1 X59.413 Y81.962 E7.21944
G1 X58.712 Y80.332 E7.23292
G1 X58.159 Y78.795 E7.24533
G1 X57.660 Y77.093 E7.25881
G1 X57.242 Y75.223 E7.27337
G1 X56.959 Y73.368 E7.28762
G1 X56.806 Y71.703 E7.30033
G1 X56.755 Y70.071 E7.31274
G1 X56.815 Y68.156 E7.32729
G1 X57.002 Y66.289 E7.34154
G1 X57.268 Y64.638 E7.35425
G1 X57.625 Y63.044 E7.36666
G1 X58.159 Y61.205 E7.38121
G1 X58.712 Y59.668 E7.39362
G1 X59.372 Y58.131 E7.40632
G1 X60.215 Y56.455 E7.42058
G1 X61.190 Y54.806 E7.43513
G1 X62.108 Y53.455 E7.44754
G1 X63.146 Y52.109 E7.46045
G1 F6240
G1 X64.362 Y50.716 E6.95367
G1 F6240
G1 X65.613 Y49.458 E6.46742
G1 F6240
G1 X66.941 Y48.282 E5.98116
G1 F6240
G1 X68.152 Y47.337 E5.56045
G1 E5.46045 F1800.00000
G92 E0
G1 X102.860 Y82.047 F7800.000
G1 E2.00000 F1800.00000
G1 X101.976 Y83.263 E2.01142 F1800.000
G1 X101.010 Y84.415 E2.02285
G1 X99.965 Y85.497 E2.03427
G1 X98.834 Y86.514 E2.04583
G1 X97.663 Y87.429 E2.05712
G1 X96.416 Y88.270 E2.06854
G1 X95.114 Y89.021 E2.07997
G1 X93.762 Y89.681 E2.09139
G1 X92.385 Y90.237 E2.10268
G1 X90.938 Y90.709 E2.11424
G1 X89.462 Y91.075 E2.12580
G1 X87.998 Y91.333 E2.13709
G1 X86.503 Y91.491 E2.14851
G1 X85.000 Y91.543 E2.15993
G1 X83.515 Y91.491 E2.17122
G1 X82.002 Y91.333 E2.18278
G1 X80.521 Y91.072 E2.19420
G1 X79.062 Y90.709 E2.20563
G1 X77.632 Y90.244 E2.21705
G1 X76.222 Y89.673 E2.22861
G1 X74.886 Y89.021 E2.23990
G1 X73.584 Y88.270 E2.25132
G1 X72.337 Y87.429 E2.26275
G1 X71.139 Y86.491 E2.27431
G1 X70.035 Y85.497 E2.28560
G1 X68.990 Y84.415 E2.29702
G1 X68.024 Y83.263 E2.30845
G1 X67.131 Y82.032 E2.32000
G1 X66.343 Y80.772 E2.33129
G1 X65.637 Y79.444 E2.34271
G1 X65.026 Y78.070 E2.35414
G1 X64.511 Y76.657 E2.36556
G1 X64.097 Y75.212 E2.37699
G1 X63.784 Y73.741 E2.38841
G1 X63.575 Y72.252 E2.39983
G1 X63.470 Y70.752 E2.41126
G1 X63.470 Y69.248 E2.42268
G1 X63.575 Y67.748 E2.43411
G1 X63.784 Y66.259 E2.44553
G1 X64.102 Y64.771 E2.45709
G1 X64.511 Y63.343 E2.46838
G1 X65.026 Y61.930 E2.47980
G1 X65.645 Y60.541 E2.49136
G1 X66.343 Y59.228 E2.50265
G1 X67.140 Y57.953 E2.51407
G1 X68.024 Y56.737 E2.52550
G1 X68.990 Y55.585 E2.53692
G1 X70.035 Y54.503 E2.54834
G1 X71.152 Y53.497 E2.55977
G1 X72.337 Y52.571 E2.57119
G1 X73.584 Y51.730 E2.58262
G1 X74.886 Y50.979 E2.59404
G1 X76.238 Y50.319 E2.60546
G1 X77.632 Y49.756 E2.61689
G1 X79.045 Y49.297 E2.62818
G1 X80.521 Y48.928 E2.63973
G1 X82.002 Y48.667 E2.65116
G1 X83.515 Y48.509 E2.66272
G1 X85.000 Y48.457 E2.67401 F1800.000
G1 X86.503 Y48.509 E2.68543
G1 X87.998 Y48.667 E2.69685
G1 X89.479 Y48.928 E2.70828
G1 X90.921 Y49.287 E2.71957
G1 X92.368 Y49.756 E2.73112
G1 X93.762 Y50.319 E2.74255
G1 X95.098 Y50.971 E2.75384
G1 X96.416 Y51.730 E2.76539
G1 X97.663 Y52.571 E2.77682
G1 X98.848 Y53.497 E2.78824
G1 X99.965 Y54.503 E2.79967
G1 X101.010 Y55.585 E2.81109
G1 X101.976 Y56.737 E2.82252
G1 X102.860 Y57.953 E2.83394
G1 X103.657 Y59.228 E2.84536
G1 X104.355 Y60.541 E2.85665
G1 X104.974 Y61.930 E2.86821
G1 X105.489 Y63.343 E2.87964
G1 X105.907 Y64.805 E2.89119
G1 X106.216 Y66.259 E2.90248
G1 X106.425 Y67.748 E2.91391
G1 X106.530 Y69.248 E2.92533
G1 X106.530 Y70.752 E2.93676
G1 X106.423 Y72.269 E2.94831
G1 X106.216 Y73.741 E2.95960
G1 X105.903 Y75.212 E2.97103
G1 X105.489 Y76.657 E2.98245
G1 X104.974 Y78.070 E2.99387
G1 X104.363 Y79.444 E3.00530
G1 X103.657 Y80.772 E3.01672
G1 X102.900 Y81.983 E3.02758
G1 X102.656 Y81.909 F7800.000
G4 P31
G1 X101.782 Y83.111 E3.03887 F1800.000
G1 X100.826 Y84.250 E3.05016
G1 X99.794 Y85.320 E3.06146
G1 X98.675 Y86.325 E3.07288
G1 X97.518 Y87.229 E3.08404
G1 X96.285 Y88.061 E3.09533
G1 X94.998 Y88.804 E3.10663
G1 X93.662 Y89.455 E3.11792
G1 X92.300 Y90.006 E3.12908
G1 X90.870 Y90.472 E3.14051
G1 X89.411 Y90.834 E3.15193
G1 X87.964 Y91.089 E3.16309
G1 X86.486 Y91.245 E3.17439
G1 X85.000 Y91.297 E3.18568
G1 X83.532 Y91.245 E3.19684
G1 X82.036 Y91.089 E3.20826
G1 X80.572 Y90.831 E3.21956
G1 X79.130 Y90.472 E3.23085
G1 X77.716 Y90.012 E3.24215
G1 X76.322 Y89.448 E3.25357
G1 X75.002 Y88.804 E3.26473
G1 X73.715 Y88.061 E3.27602
G1 X72.482 Y87.229 E3.28732
G1 X71.298 Y86.302 E3.29874
G1 X70.206 Y85.319 E3.30990
G1 X69.174 Y84.250 E3.32120
G1 X68.218 Y83.111 E3.33249
G1 X67.335 Y81.894 E3.34392
G1 X66.557 Y80.648 E3.35508
G1 X65.859 Y79.336 E3.36637
G1 X65.254 Y77.978 E3.37766
G1 X64.746 Y76.581 E3.38895
G1 X64.336 Y75.152 E3.40025
G1 X64.027 Y73.698 E3.41154
G1 X63.820 Y72.226 E3.42283
G1 X63.716 Y70.743 E3.43413
