; generated by Slic3r 1.2.9 on 2017-06-11 at 22:26:29

; external perimeters extrusion width = 0.50mm
; perimeters extrusion width = 0.50mm
; infill extrusion width = 0.50mm
; solid infill extrusion width = 0.50mm
; top infill extrusion width = 0.50mm

M107
M190 S60 ; set bed temperature
M104 S210 ; set temperature
G28 ; home all axes
M109 S210 ; wait for temperature to be reached
G21 ; set units to millimeters
G90 ; use absolute coordinates
M82 ; use absolute distances for extrusion
G92 E0
G1 E-2.00000 F1800.00000
G92 E0
G1 Z0.250 F7800.000
G1 X46.522 Y51.671 F7800.000
G1 E2.00000 F1800.00000
M204 S3000
G1 X47.654 Y50.684 E2.01141 F1800.000
G1 X49.009 Y49.648 E2.02437
G1 X50.606 Y48.601 E2.03888
G1 X52.096 Y47.770 E2.05184
G1 X53.453 Y47.125 E2.06325
G1 X55.037 Y46.493 E2.07621
G1 X56.858 Y45.915 E2.09072
G1 X58.317 Y45.560 E2.10213
G1 X59.997 Y45.263 E2.11510
G1 X61.897 Y45.068 E2.12960
G1 X63.696 Y45.020 E2.14328
G1 X65.307 Y45.082 E2.15552 F1800.000
G1 X66.936 Y45.252 E2.16797
G1 X116.396 Y52.630 E2.54788
G1 X117.790 Y52.922 E2.55871
G1 X119.215 Y53.345 E2.57000
G1 X120.599 Y53.886 E2.58129
G1 X121.108 Y54.127 E2.58557
G1 X122.117 Y54.643 E2.59418
G1 X123.206 Y55.308 E2.60387
G1 X124.410 Y56.179 E2.61517
G1 X124.844 Y56.539 E2.61945
G1 X125.676 Y57.279 E2.62790
G1 X126.701 Y58.346 E2.63914
G1 X127.632 Y59.495 E2.65039
G1 X128.373 Y60.575 E2.66033
G1 X128.665 Y61.057 E2.66461
G1 X129.191 Y62.008 E2.67287
G1 X129.745 Y63.209 E2.68292
G1 X129.952 Y63.733 E2.68720
G1 X130.260 Y64.603 E2.69421
G1 X130.423 Y65.143 E2.69849
G1 X130.688 Y66.176 E2.70659
G1 X130.948 Y67.632 E2.71784
G1 X131.077 Y68.976 E2.72809
G1 X131.098 Y69.415 E2.73143
G1 X131.101 Y70.462 E2.73938
G1 X131.077 Y71.024 E2.74366
G1 X130.999 Y71.944 E2.75067
G1 X130.928 Y72.503 E2.75495
G1 X130.688 Y73.824 E2.76516
G1 X130.423 Y74.857 E2.77326
G1 X130.260 Y75.397 E2.77754
G1 X129.806 Y76.646 E2.78764
G1 X129.191 Y77.992 E2.79888
G1 X128.665 Y78.943 E2.80714
G1 X128.373 Y79.425 E2.81142
G1 X127.632 Y80.505 E2.82137
G1 X126.946 Y81.364 E2.82972
G1 X126.578 Y81.790 E2.83400
G1 X125.676 Y82.721 E2.84385
G1 X124.844 Y83.461 E2.85231
G1 X124.410 Y83.821 E2.85659
G1 X123.376 Y84.579 E2.86633
G1 X122.420 Y85.176 E2.87489
G1 X121.933 Y85.458 E2.87917
G1 X120.797 Y86.026 E2.88882
G1 X119.215 Y86.655 E2.90175
G1 X118.013 Y87.021 E2.91130
G1 X116.871 Y87.276 E2.92018
G1 X116.396 Y87.370 E2.92387
G1 X66.936 Y94.748 E3.30378
G1 X65.307 Y94.918 E3.31623
G1 X63.398 Y94.984 E3.33074
G1 X61.897 Y94.932 E3.34215
G1 X60.199 Y94.765 E3.35511
G1 X58.317 Y94.440 E3.36962
G1 X56.858 Y94.085 E3.38103
G1 X55.229 Y93.575 E3.39399
G1 X53.640 Y92.956 E3.40695
G1 X52.097 Y92.230 E3.41991
G1 X50.606 Y91.399 E3.43287
G1 X49.176 Y90.470 E3.44583
G1 X47.812 Y89.444 E3.45880
G1 X46.522 Y88.329 E3.47175
G1 X45.171 Y86.978 E3.48626
G1 X44.056 Y85.688 E3.49922
G1 X43.030 Y84.324 E3.51218
G1 X42.206 Y83.068 E3.52360
G1 X41.364 Y81.585 E3.53656
G1 X40.625 Y80.047 E3.54952
G1 X39.993 Y78.463 E3.56248
G1 X39.470 Y76.839 E3.57544
G1 X39.060 Y75.183 E3.58840
G1 X38.735 Y73.301 E3.60291
G1 X38.568 Y71.603 E3.61587
G1 X38.516 Y69.898 E3.62883
G1 X38.582 Y68.193 E3.64179
G1 X38.763 Y66.497 E3.65475
G1 X39.060 Y64.817 E3.66771
G1 X39.470 Y63.161 E3.68067
G1 X39.993 Y61.537 E3.69363
G1 X40.625 Y59.953 E3.70659
G1 X41.364 Y58.415 E3.71955
G1 X42.206 Y56.932 E3.73251
G1 X43.148 Y55.509 E3.74548
G1 X44.184 Y54.154 E3.75843
G1 X45.311 Y52.873 E3.77140
G1 X46.467 Y51.723 E3.78379
G1 X46.684 Y51.857 F7800.000
G4 P31
G1 X47.816 Y50.870 E3.79520 F1800.000
G1 X49.158 Y49.844 E3.80803
G1 X50.727 Y48.815 E3.82228
G1 X52.202 Y47.993 E3.83512
G1 X53.559 Y47.348 E3.84653
G1 X55.128 Y46.722 E3.85936
G1 X56.916 Y46.155 E3.87362
G1 X58.375 Y45.799 E3.88503
G1 X60.039 Y45.506 E3.89786
G1 X61.905 Y45.314 E3.91211
G1 X63.687 Y45.266 E3.92566
G1 X65.281 Y45.327 E3.93778 F1800.000
G1 X66.900 Y45.496 E3.95014
G1 X116.359 Y52.873 E4.33005
G1 X117.738 Y53.163 E4.34076
G1 X119.143 Y53.580 E4.35189
G1 X120.507 Y54.115 E4.36302
G1 X120.997 Y54.347 E4.36714
G1 X121.991 Y54.855 E4.37562
G1 X123.077 Y55.518 E4.38529
G1 X124.264 Y56.377 E4.39642
G1 X125.501 Y57.453 E4.40888
G1 X126.513 Y58.505 E4.41997
G1 X127.432 Y59.638 E4.43105
G1 X128.169 Y60.713 E4.44095
G1 X128.450 Y61.178 E4.44507
G1 X128.969 Y62.116 E4.45323
G1 X129.521 Y63.311 E4.46322
G1 X129.720 Y63.815 E4.46734
G1 X130.028 Y64.685 E4.47435
G1 X130.184 Y65.205 E4.47848
G1 X130.447 Y66.226 E4.48649
G1 X130.704 Y67.663 E4.49757
G1 X130.832 Y68.996 E4.50775
G1 X130.852 Y69.425 E4.51102
G1 X130.854 Y70.462 E4.51889
G1 X130.832 Y71.004 E4.52301
G1 X130.753 Y71.923 E4.53002
G1 X130.685 Y72.461 E4.53414
G1 X130.447 Y73.774 E4.54428
G1 X130.184 Y74.795 E4.55229
G1 X130.028 Y75.315 E4.55641
G1 X129.577 Y76.557 E4.56645
G1 X128.969 Y77.884 E4.57754
G1 X128.450 Y78.822 E4.58569
G1 X128.169 Y79.287 E4.58981
G1 X127.432 Y80.362 E4.59971
G1 X126.754 Y81.209 E4.60796
G1 X126.400 Y81.620 E4.61208
G1 X125.501 Y82.547 E4.62189
G1 X124.405 Y83.511 E4.63297
G1 X123.077 Y84.482 E4.64548
G1 X121.991 Y85.145 E4.65515
G1 X120.997 Y85.653 E4.66362
G1 X120.507 Y85.885 E4.66774
G1 X119.336 Y86.352 E4.67732
G1 X117.738 Y86.837 E4.69001
G1 X116.359 Y87.127 E4.70071
G1 X66.776 Y94.520 E5.08157
G1 X65.095 Y94.686 E5.09441
G1 X63.594 Y94.737 E5.10582
G1 X61.719 Y94.673 E5.12007
G1 X60.039 Y94.494 E5.13290
G1 X58.559 Y94.239 E5.14432
G1 X56.736 Y93.795 E5.15857
G1 X55.128 Y93.278 E5.17140
G1 X53.559 Y92.652 E5.18424
G1 X52.036 Y91.921 E5.19707
G1 X50.567 Y91.088 E5.20990
G1 X49.158 Y90.156 E5.22274
G1 X47.961 Y89.248 E5.23415
G1 X46.684 Y88.143 E5.24698
G1 X45.485 Y86.953 E5.25981
G1 X44.370 Y85.684 E5.27265
G1 X43.344 Y84.342 E5.28548
G1 X42.412 Y82.933 E5.29831
G1 X41.579 Y81.464 E5.31114
G1 X40.848 Y79.941 E5.32398
G1 X40.222 Y78.372 E5.33681
G1 X39.705 Y76.764 E5.34964
G1 X39.299 Y75.125 E5.36248
G1 X38.980 Y73.276 E5.37673
G1 X38.814 Y71.595 E5.38956
G1 X38.763 Y69.906 E5.40239
G1 X38.827 Y68.219 E5.41523
G1 X39.006 Y66.539 E5.42806
G1 X39.299 Y64.875 E5.44089
G1 X39.705 Y63.236 E5.45373
G1 X40.222 Y61.628 E5.46656
G1 X40.848 Y60.059 E5.47939
G1 X41.579 Y58.536 E5.49222
G1 X42.412 Y57.067 E5.50506
G1 X43.344 Y55.658 E5.51789
G1 X44.370 Y54.316 E5.53072
G1 X45.485 Y53.047 E5.54356
G1 X46.629 Y51.908 E5.55582
G1 X46.846 Y52.043 F7800.000
G4 P31
G1 X47.978 Y51.056 E5.56723 F1800.000
G1 X49.307 Y50.041 E5.57994
G1 X50.847 Y49.030 E5.59393
G1 X52.308 Y48.215 E5.60664
G1 X53.821 Y47.502 E5.61934
G1 X55.218 Y46.951 E5.63076
G1 X56.974 Y46.394 E5.64475
G1 X58.600 Y46.004 E5.65746
G1 X60.081 Y45.748 E5.66887
G1 X61.914 Y45.560 E5.68287
G1 X63.679 Y45.512 E5.69629
G1 X65.256 Y45.572 E5.70828 F1800.000
G1 X66.863 Y45.739 E5.72055
G1 X116.323 Y53.117 E6.10047
G1 X117.686 Y53.404 E6.11105
G1 X119.070 Y53.816 E6.12202
G1 X120.415 Y54.343 E6.13300
G1 X120.859 Y54.553 E6.13673
G1 X121.864 Y55.067 E6.14531
G1 X122.948 Y55.728 E6.15495
G1 X124.117 Y56.575 E6.16592
G1 X125.327 Y57.627 E6.17810
G1 X126.325 Y58.664 E6.18903
G1 X127.231 Y59.782 E6.19996
G1 X127.965 Y60.851 E6.20982
G1 X128.235 Y61.298 E6.21378
G1 X128.748 Y62.224 E6.22183
G1 X129.296 Y63.412 E6.23177
G1 X129.795 Y64.768 E6.24274
G1 X129.946 Y65.267 E6.24670
G1 X130.206 Y66.277 E6.25463
G1 X130.459 Y67.693 E6.26556
G1 X130.586 Y69.017 E6.27566
G1 X130.606 Y69.435 E6.27884
G1 X130.608 Y70.462 E6.28664
G1 X130.586 Y70.983 E6.29060
G1 X130.508 Y71.902 E6.29761
G1 X130.443 Y72.420 E6.30158
G1 X130.206 Y73.723 E6.31164
G1 X129.946 Y74.733 E6.31956
G1 X129.795 Y75.232 E6.32353
G1 X129.347 Y76.467 E6.33351
G1 X128.748 Y77.776 E6.34444
G1 X128.235 Y78.702 E6.35249
G1 X127.965 Y79.149 E6.35645
G1 X127.231 Y80.218 E6.36630
G1 X126.562 Y81.054 E6.37444
G1 X126.222 Y81.449 E6.37840
G1 X125.327 Y82.373 E6.38817
G1 X124.246 Y83.323 E6.39910
G1 X122.948 Y84.272 E6.41132
G1 X121.864 Y84.933 E6.42096
G1 X120.886 Y85.433 E6.42931
G1 X120.415 Y85.657 E6.43327
G1 X119.247 Y86.123 E6.44283
G1 X117.686 Y86.596 E6.45522
G1 X116.323 Y86.883 E6.46580
G1 X66.751 Y94.275 E6.84658
G1 X65.087 Y94.440 E6.85928
G1 X63.585 Y94.491 E6.87070
G1 X61.744 Y94.428 E6.88469
G1 X60.081 Y94.252 E6.89740
G1 X58.600 Y93.996 E6.90881
G1 X56.810 Y93.560 E6.92281
G1 X55.218 Y93.049 E6.93551
G1 X53.665 Y92.430 E6.94822
G1 X52.157 Y91.706 E6.96092
G1 X50.702 Y90.882 E6.97363
G1 X49.446 Y90.058 E6.98504
G1 X48.110 Y89.052 E6.99775
G1 X46.846 Y87.957 E7.01045
G1 X45.659 Y86.779 E7.02316
G1 X44.556 Y85.522 E7.03586
G1 X43.541 Y84.193 E7.04857
G1 X42.618 Y82.798 E7.06127
G1 X41.794 Y81.343 E7.07398
G1 X41.070 Y79.835 E7.08668
G1 X40.451 Y78.282 E7.09939
G1 X39.940 Y76.690 E7.11209
G1 X39.538 Y75.066 E7.12480
G1 X39.225 Y73.251 E7.13879
G1 X39.060 Y71.586 E7.15150
G1 X39.009 Y69.915 E7.16420
G1 X39.072 Y68.244 E7.17691
G1 X39.248 Y66.581 E7.18961
G1 X39.538 Y64.934 E7.20232
G1 X39.940 Y63.310 E7.21503
G1 X40.451 Y61.718 E7.22773
G1 X41.070 Y60.165 E7.24043
G1 X41.794 Y58.657 E7.25314
G1 X42.618 Y57.202 E7.26584
G1 X43.541 Y55.807 E7.27855
G1 X44.556 Y54.478 E7.29125
G1 X45.659 Y53.221 E7.30396
G1 X46.791 Y52.094 E7.31610
G1 X47.008 Y52.228 F7800.000
G4 P31
G1 X48.140 Y51.241 E7.32751 F1800.000
G1 X49.456 Y50.237 E7.34009
G1 X50.968 Y49.245 E7.35383
G1 X52.414 Y48.438 E7.36641
G1 X53.911 Y47.732 E7.37898
G1 X55.309 Y47.181 E7.39040
G1 X57.033 Y46.633 E7.40414
G1 X58.492 Y46.278 E7.41555
G1 X60.123 Y45.991 E7.42813
G1 X61.922 Y45.806 E7.44187
G1 X63.671 Y45.758 E7.45516
G1 X65.231 Y45.817 E7.46702 F1800.000
G1 X66.827 Y45.983 E7.47921
G1 X116.287 Y53.361 E7.85913
G1 X117.634 Y53.645 E7.86959
G1 X118.998 Y54.052 E7.88041
G1 X120.323 Y54.572 E7.89122
G1 X120.751 Y54.774 E7.89481
G1 X121.738 Y55.278 E7.90324
G1 X122.819 Y55.938 E7.91285
G1 X123.971 Y56.774 E7.92367
G1 X125.153 Y57.801 E7.93557
G1 X126.137 Y58.824 E7.94635
G1 X127.031 Y59.925 E7.95712
G1 X127.761 Y60.989 E7.96693
G1 X128.019 Y61.418 E7.97073
G1 X128.527 Y62.333 E7.97868
G1 X129.072 Y63.514 E7.98856
G1 X129.563 Y64.850 E7.99937
G1 X129.707 Y65.329 E8.00318
G1 X129.965 Y66.327 E8.01101
G1 X130.215 Y67.724 E8.02179
G1 X130.341 Y69.038 E8.03182
G1 X130.360 Y69.446 E8.03492
G1 X130.362 Y70.462 E8.04264
G1 X130.341 Y70.962 E8.04644
G1 X130.262 Y71.881 E8.05345
G1 X130.200 Y72.378 E8.05726
G1 X129.965 Y73.673 E8.06725
G1 X129.707 Y74.671 E8.07509
G1 X129.563 Y75.150 E8.07889
G1 X129.118 Y76.378 E8.08881
G1 X128.527 Y77.667 E8.09959
G1 X127.761 Y79.011 E8.11133
G1 X127.031 Y80.075 E8.12114
G1 X126.371 Y80.899 E8.12916
G1 X126.044 Y81.279 E8.13297
G1 X125.153 Y82.199 E8.14269
G1 X124.087 Y83.135 E8.15347
G1 X122.819 Y84.062 E8.16541
G1 X121.738 Y84.722 E8.17503
G1 X120.776 Y85.213 E8.18324
G1 X120.323 Y85.428 E8.18704
G1 X119.157 Y85.893 E8.19658
G1 X117.634 Y86.355 E8.20867
G1 X116.287 Y86.639 E8.21914
G1 X66.725 Y94.030 E8.59983
G1 X65.078 Y94.194 E8.61240
G1 X63.577 Y94.245 E8.62382
G1 X61.769 Y94.183 E8.63756
G1 X60.123 Y94.009 E8.65014
G1 X58.642 Y93.754 E8.66155
G1 X56.885 Y93.325 E8.67529
G1 X55.309 Y92.819 E8.68787
G1 X53.770 Y92.207 E8.70045
G1 X52.278 Y91.492 E8.71302
G1 X50.837 Y90.676 E8.72560
G1 X49.456 Y89.763 E8.73818
G1 X48.140 Y88.759 E8.75075
G1 X47.008 Y87.772 E8.76217
G1 X45.833 Y86.605 E8.77475
G1 X44.741 Y85.360 E8.78732
G1 X43.737 Y84.044 E8.79990
G1 X42.824 Y82.663 E8.81248
G1 X42.008 Y81.222 E8.82505
G1 X41.293 Y79.730 E8.83763
G1 X40.681 Y78.191 E8.85021
G1 X40.175 Y76.615 E8.86279
G1 X39.778 Y75.008 E8.87536
G1 X39.470 Y73.225 E8.88911
G1 X39.306 Y71.578 E8.90168
G1 X39.255 Y69.923 E8.91426
G1 X39.317 Y68.269 E8.92684
G1 X39.491 Y66.623 E8.93942
G1 X39.778 Y64.992 E8.95199
G1 X40.175 Y63.385 E8.96457
G1 X40.681 Y61.809 E8.97715
G1 X41.293 Y60.270 E8.98972
G1 X42.008 Y58.778 E9.00230
G1 X42.824 Y57.337 E9.01488
G1 X43.737 Y55.956 E9.02746
G1 X44.741 Y54.640 E9.04003
G1 X45.833 Y53.395 E9.05261
G1 X46.953 Y52.280 E9.06462
G1 F6240
G1 X48.140 Y51.241 E8.63241
G1 F6240
G1 X49.456 Y50.237 E8.17881
G1 F6240
G1 X50.968 Y49.245 E7.68311
G1 F6240
G1 X52.414 Y48.438 E7.22939
G1 F6240
G1 X52.628 Y48.337 E7.16462
G1 E7.06462 F1800.00000
G92 E0
G1 X60.003 Y88.348 F7800.000
G1 E2.00000 F1800.00000
G1 X59.766 Y88.852 E2.00423 F1800.000
G1 X59.388 Y89.309 E2.00874
G1 X58.886 Y89.663 E2.01340
G1 X58.368 Y89.868 E2.01764
G1 X57.782 Y89.943 E2.02212
G1 X57.184 Y89.863 E2.02670
G1 X56.666 Y89.658 E2.03094
G1 X56.186 Y89.315 E2.03542
G1 X55.793 Y88.838 E2.04012
G1 X55.555 Y88.332 E2.04437
G1 X55.441 Y87.752 E2.04885
G1 X55.482 Y87.135 E2.05355
G1 X55.655 Y86.604 E2.05780
G1 X55.968 Y86.106 E2.06226
G1 X56.395 Y85.701 E2.06674
G1 X56.914 Y85.413 E2.07125
G1 X57.514 Y85.265 E2.07594
G1 X58.072 Y85.265 E2.08018 F1800.000
G1 X58.642 Y85.409 E2.08465
G1 X59.159 Y85.692 E2.08913
G1 X59.593 Y86.098 E2.09364
G1 X59.917 Y86.623 E2.09832
G1 X60.089 Y87.153 E2.10256
G1 X60.127 Y87.746 E2.10707
G1 X60.018 Y88.275 E2.11117
G1 X59.767 Y88.270 F7800.000
G4 P31
G1 X59.556 Y88.719 E2.11495 F1800.000
G1 X59.219 Y89.127 E2.11897
G1 X58.768 Y89.445 E2.12316
G1 X58.306 Y89.628 E2.12693
G1 X57.783 Y89.694 E2.13094
G1 X57.247 Y89.623 E2.13505
G1 X56.784 Y89.440 E2.13882
G1 X56.356 Y89.133 E2.14283
G1 X56.003 Y88.705 E2.14705
G1 X55.791 Y88.254 E2.15083
G1 X55.689 Y87.736 E2.15484
G1 X55.726 Y87.183 E2.15906
G1 X55.880 Y86.709 E2.16284
G1 X56.160 Y86.264 E2.16684
G1 X56.542 Y85.901 E2.17084
G1 X57.005 Y85.644 E2.17486
G1 X57.544 Y85.511 E2.17908
G1 X58.041 Y85.511 E2.18285 F1800.000
G1 X58.551 Y85.641 E2.18685
G1 X59.014 Y85.893 E2.19086
G1 X59.401 Y86.256 E2.19489
G1 X59.692 Y86.727 E2.19909
G1 X59.845 Y87.200 E2.20287
G1 X59.879 Y87.728 E2.20689
G1 X59.783 Y88.196 E2.21053
G1 X59.532 Y88.192 F7800.000
G4 P31
G1 X59.346 Y88.586 E2.21384 F1800.000
G1 X59.050 Y88.945 E2.21737
G1 X58.650 Y89.227 E2.22109
G1 X58.244 Y89.387 E2.22441
G1 X57.783 Y89.446 E2.22793
G1 X57.309 Y89.383 E2.23157
G1 X56.903 Y89.222 E2.23489
G1 X56.525 Y88.952 E2.23842
G1 X56.212 Y88.572 E2.24216
G1 X56.027 Y88.177 E2.24547
G1 X55.937 Y87.721 E2.24901
G1 X55.970 Y87.230 E2.25274
G1 X56.105 Y86.814 E2.25606
G1 X56.352 Y86.421 E2.25959
G1 X56.689 Y86.102 E2.26312
G1 X57.096 Y85.876 E2.26666
G1 X57.574 Y85.757 E2.27039
G1 X58.010 Y85.757 E2.27371 F1800.000
G1 X58.460 Y85.872 E2.27724
G1 X58.868 Y86.095 E2.28077
G1 X59.208 Y86.413 E2.28431
G1 X59.466 Y86.831 E2.28804
G1 X59.601 Y87.246 E2.29136
G1 X59.631 Y87.711 E2.29490
G1 X59.547 Y88.118 E2.29805
G4 P19
G1 X59.809 Y88.529 F7800.000
G1 F6240
G4 P29
G1 X59.346 Y88.586 E2.15842
G1 F6240
G1 X59.050 Y88.945 E2.03101
G1 F6240
G1 X58.650 Y89.227 E1.89682
G1 F6240
G1 X58.244 Y89.387 E1.77727
G1 F6240
G1 X57.783 Y89.446 E1.65002
G1 F6240
G1 X57.309 Y89.383 E1.51887
G1 F6240
G1 X56.903 Y89.222 E1.39928
G1 F6240
G1 X56.525 Y88.952 E1.27192
G1 F6240
G1 X56.212 Y88.572 E1.13706
G1 F6240
G1 X56.027 Y88.177 E1.01737
G1 F6240
G1 X55.937 Y87.721 E0.88995
G1 F6240
G1 X55.970 Y87.230 E0.75511
G1 F6240
G1 X56.105 Y86.814 E0.63545
G1 F6240
G1 X56.352 Y86.421 E0.50821
G1 F6240
G1 X56.643 Y86.145 E0.39805
G1 E0.29805 F1800.00000
G92 E0
G4 P16
G1 X55.038 Y78.291 F7800.000
G1 E2.00000 F1800.00000
G1 X54.631 Y78.452 E2.00333 F1800.000
G1 X54.196 Y78.507 E2.00666
G4 P4
G1 X53.762 Y78.452 E2.00999
G1 X53.363 Y78.295 E2.01324
G1 X53.001 Y78.035 E2.01662
G1 X52.721 Y77.696 E2.01997
G1 X52.534 Y77.300 E2.02330
G1 X52.452 Y76.867 E2.02664
G1 X52.483 Y76.423 E2.03003
G1 X52.615 Y76.015 E2.03328
G1 X52.850 Y75.645 E2.03661
G1 X53.169 Y75.346 E2.03994
G1 X53.553 Y75.134 E2.04327
G1 X53.977 Y75.025 E2.04660
G1 X54.415 Y75.025 E2.04992 F1800.000
G1 X54.840 Y75.134 E2.05325
G1 X55.224 Y75.346 E2.05658
G1 X55.536 Y75.639 E2.05983
G1 X55.777 Y76.013 E2.06322
G1 X55.913 Y76.432 E2.06656
G1 X55.941 Y76.869 E2.06989
G1 X55.859 Y77.300 E2.07322
G1 X55.672 Y77.696 E2.07655
G1 X55.393 Y78.034 E2.07988
G1 X55.099 Y78.247 E2.08264
G1 X54.919 Y78.074 F7800.000
G4 P31
G1 X54.569 Y78.212 E2.08549 F1800.000
G1 X54.196 Y78.259 E2.08835
G4 P8
G1 X53.823 Y78.212 E2.09120
G1 X53.482 Y78.077 E2.09399
G1 X53.171 Y77.854 E2.09690
G1 X52.930 Y77.563 E2.09977
G1 X52.770 Y77.223 E2.10263
G1 X52.700 Y76.852 E2.10549
G1 X52.726 Y76.470 E2.10840
G1 X52.840 Y76.121 E2.11119
