; generated by Slic3r 1.2.9 on 2017-06-14 at 22:12:59

; external perimeters extrusion width = 0.50mm
; perimeters extrusion width = 0.50mm
; infill extrusion width = 0.50mm
; solid infill extrusion width = 0.50mm
; top infill extrusion width = 0.50mm

M107
M190 S60 ; set bed temperature
M104 S210 ; set temperature
G28 ; home all axes
M109 S210 ; wait for temperature to be reached
G21 ; set units to millimeters
G90 ; use absolute coordinates
M82 ; use absolute distances for extrusion
G92 E0
G1 E-2.00000 F1800.00000
G92 E0
G1 Z0.250 F7800.000
G1 X71.554 Y58.636 F7800.000
G1 E2.00000 F1800.00000
M204 S3000
G1 X71.922 Y58.210 E2.00428 F1800.000
G1 X72.824 Y57.279 E2.01413
G1 X73.656 Y56.539 E2.02258
G1 X74.090 Y56.179 E2.02686
G1 X75.124 Y55.421 E2.03661
G1 X76.080 Y54.824 E2.04517
G1 X76.567 Y54.542 E2.04945
G1 X77.703 Y53.974 E2.05910
G1 X79.285 Y53.345 E2.07203
G1 X80.487 Y52.979 E2.08158
G1 X81.932 Y52.661 E2.09282
G1 X83.641 Y52.444 E2.10591
G1 X84.877 Y52.392 E2.11530
G1 X85.433 Y52.405 E2.11953
G1 X86.601 Y52.465 E2.12841 F1800.000
G1 X88.068 Y52.661 E2.13966
G1 X89.513 Y52.979 E2.15090
G1 X90.926 Y53.418 E2.16214
G1 X92.297 Y53.974 E2.17338
G1 X93.617 Y54.643 E2.18462
G1 X94.876 Y55.421 E2.19586
G1 X96.065 Y56.301 E2.20710
G1 X97.176 Y57.279 E2.21834
G1 X98.201 Y58.346 E2.22959
G1 X99.132 Y59.495 E2.24083
G1 X99.964 Y60.719 E2.25207
G1 X100.691 Y62.008 E2.26331
G1 X101.306 Y63.354 E2.27455
G1 X101.806 Y64.746 E2.28579
G1 X102.155 Y66.036 E2.29594
G1 X102.252 Y66.479 E2.29939
G1 X102.428 Y67.497 E2.30724
G1 X102.487 Y67.940 E2.31063
G1 X102.598 Y69.415 E2.32187
G1 X102.585 Y70.895 E2.33311
G1 X102.448 Y72.368 E2.34435
G1 X102.188 Y73.824 E2.35559
G1 X101.806 Y75.254 E2.36683
G1 X101.306 Y76.646 E2.37807
G1 X100.691 Y77.992 E2.38932
G1 X99.964 Y79.281 E2.40056
G1 X99.132 Y80.505 E2.41180
G1 X98.201 Y81.654 E2.42304
G1 X97.176 Y82.721 E2.43428
G1 X96.065 Y83.699 E2.44552
G1 X94.876 Y84.579 E2.45676
G1 X93.617 Y85.357 E2.46801
G1 X92.297 Y86.026 E2.47925
G1 X90.926 Y86.582 E2.49049
G1 X89.513 Y87.021 E2.50173
G1 X88.068 Y87.339 E2.51297
G1 X86.601 Y87.535 E2.52421
G1 X85.123 Y87.608 E2.53545
G1 X83.641 Y87.556 E2.54672
G1 X82.166 Y87.379 E2.55801
G1 X80.710 Y87.078 E2.56930
G1 X79.285 Y86.655 E2.58059
G1 X77.901 Y86.114 E2.59188
G1 X76.567 Y85.458 E2.60318
G1 X75.294 Y84.692 E2.61447
G1 X74.090 Y83.821 E2.62576
G1 X72.963 Y82.851 E2.63705
G1 X71.922 Y81.790 E2.64834
G1 X70.975 Y80.645 E2.65963
G1 X70.644 Y80.189 E2.66391
G1 X70.036 Y79.281 E2.67222
G1 X69.309 Y77.992 E2.68346
G1 X68.694 Y76.646 E2.69470
G1 X68.194 Y75.254 E2.70594
G1 X67.812 Y73.824 E2.71718
G1 X67.552 Y72.368 E2.72842
G1 X67.415 Y70.895 E2.73966
G1 X67.402 Y69.415 E2.75090
G1 X67.513 Y67.940 E2.76214
G1 X67.572 Y67.497 E2.76554
G1 X67.748 Y66.479 E2.77339
G1 X67.845 Y66.036 E2.77683
G1 X68.105 Y65.043 E2.78463
G1 X68.240 Y64.603 E2.78812
G1 X68.581 Y63.642 E2.79587
G1 X68.755 Y63.209 E2.79942
G1 X69.173 Y62.286 E2.80711
G1 X69.385 Y61.863 E2.81071
G1 X69.877 Y60.985 E2.81836
G1 X70.127 Y60.575 E2.82200
G1 X70.687 Y59.748 E2.82960
G1 X70.975 Y59.355 E2.83330
G1 X71.507 Y58.695 E2.83974
G1 X71.746 Y58.791 F7800.000
G4 P31
G1 X72.100 Y58.380 E2.84386 F1800.000
G1 X72.999 Y57.453 E2.85367
G1 X74.236 Y56.377 E2.86613
G1 X75.268 Y55.621 E2.87584
G1 X76.209 Y55.034 E2.88427
G1 X76.678 Y54.762 E2.88839
G1 X77.811 Y54.196 E2.89802
G1 X79.357 Y53.580 E2.91066
G1 X80.558 Y53.215 E2.92019
G1 X81.983 Y52.902 E2.93127
G1 X83.652 Y52.690 E2.94406
G1 X84.887 Y52.638 E2.95345
G1 X85.423 Y52.651 E2.95752
G1 X86.571 Y52.709 E2.96625 F1800.000
G1 X88.017 Y52.902 E2.97734
G1 X89.442 Y53.215 E2.98843
G1 X90.836 Y53.648 E2.99951
G1 X92.189 Y54.196 E3.01060
G1 X93.491 Y54.855 E3.02169
G1 X94.732 Y55.621 E3.03277
G1 X95.905 Y56.489 E3.04386
G1 X97.001 Y57.453 E3.05495
G1 X98.013 Y58.505 E3.06603
G1 X98.932 Y59.638 E3.07712
G1 X99.753 Y60.845 E3.08821
G1 X100.469 Y62.116 E3.09929
G1 X101.077 Y63.443 E3.11038
G1 X101.570 Y64.816 E3.12146
G1 X101.917 Y66.098 E3.13155
G1 X102.011 Y66.530 E3.13491
G1 X102.185 Y67.539 E3.14269
G1 X102.242 Y67.970 E3.14599
G1 X102.352 Y69.425 E3.15708
G1 X102.339 Y70.884 E3.16817
G1 X102.204 Y72.337 E3.17925
G1 X101.947 Y73.774 E3.19034
G1 X101.570 Y75.184 E3.20142
G1 X101.077 Y76.557 E3.21251
G1 X100.469 Y77.884 E3.22360
G1 X99.753 Y79.155 E3.23468
G1 X98.932 Y80.362 E3.24577
G1 X98.013 Y81.495 E3.25686
G1 X97.001 Y82.547 E3.26794
G1 X95.905 Y83.511 E3.27903
G1 X94.732 Y84.379 E3.29012
G1 X93.491 Y85.145 E3.30120
G1 X92.189 Y85.804 E3.31229
G1 X90.836 Y86.352 E3.32338
G1 X89.442 Y86.785 E3.33446
G1 X88.017 Y87.098 E3.34555
G1 X86.571 Y87.291 E3.35664
G1 X85.113 Y87.362 E3.36772
G1 X83.652 Y87.310 E3.37883
G1 X82.197 Y87.134 E3.38997
G1 X80.762 Y86.837 E3.40110
G1 X79.357 Y86.420 E3.41223
G1 X77.993 Y85.885 E3.42336
G1 X76.678 Y85.238 E3.43450
G1 X75.423 Y84.482 E3.44563
G1 X74.236 Y83.623 E3.45676
G1 X73.126 Y82.666 E3.46789
G1 X72.739 Y82.286 E3.47201
G1 X71.987 Y81.495 E3.48031
G1 X71.166 Y80.491 E3.49016
G1 X70.848 Y80.051 E3.49428
G1 X70.247 Y79.155 E3.50248
G1 X69.531 Y77.884 E3.51357
G1 X68.923 Y76.557 E3.52465
G1 X68.430 Y75.184 E3.53574
G1 X68.053 Y73.774 E3.54683
G1 X67.796 Y72.337 E3.55791
G1 X67.661 Y70.884 E3.56900
G1 X67.648 Y69.425 E3.58008
G1 X67.758 Y67.970 E3.59117
G1 X67.815 Y67.539 E3.59448
G1 X67.989 Y66.530 E3.60226
G1 X68.083 Y66.098 E3.60561
G1 X68.341 Y65.113 E3.61335
G1 X68.472 Y64.685 E3.61675
G1 X68.811 Y63.732 E3.62443
G1 X68.979 Y63.311 E3.62788
G1 X69.395 Y62.395 E3.63552
G1 X69.600 Y61.983 E3.63901
G1 X70.089 Y61.111 E3.64661
G1 X70.331 Y60.713 E3.65015
G1 X70.888 Y59.891 E3.65770
G1 X71.166 Y59.509 E3.66128
G1 X71.699 Y58.849 E3.66773
G1 X71.938 Y58.946 F7800.000
G4 P31
G1 X72.278 Y58.551 E3.67169 F1800.000
G1 X73.173 Y57.627 E3.68146
G1 X74.383 Y56.575 E3.69364
G1 X75.411 Y55.822 E3.70332
G1 X76.338 Y55.244 E3.71162
G1 X76.789 Y54.982 E3.71558
G1 X77.919 Y54.417 E3.72518
G1 X79.430 Y53.816 E3.73753
G1 X80.628 Y53.452 E3.74705
G1 X82.033 Y53.143 E3.75798
G1 X83.662 Y52.937 E3.77045
G1 X84.897 Y52.884 E3.77984
G1 X85.413 Y52.897 E3.78376
G1 X86.540 Y52.953 E3.79234 F1800.000
G1 X87.967 Y53.143 E3.80327
G1 X89.372 Y53.452 E3.81420
G1 X90.747 Y53.877 E3.82514
G1 X92.081 Y54.417 E3.83607
G1 X93.364 Y55.067 E3.84700
G1 X94.589 Y55.822 E3.85793
G1 X95.746 Y56.677 E3.86886
G1 X96.827 Y57.627 E3.87980
G1 X97.825 Y58.664 E3.89073
G1 X98.731 Y59.782 E3.90166
G1 X99.541 Y60.971 E3.91259
G1 X100.248 Y62.224 E3.92352
G1 X100.847 Y63.533 E3.93446
G1 X101.334 Y64.887 E3.94539
G1 X101.678 Y66.160 E3.95541
G1 X101.769 Y66.580 E3.95867
G1 X101.998 Y68.001 E3.96960
G1 X102.106 Y69.435 E3.98054
G1 X102.093 Y70.874 E3.99147
G1 X101.959 Y72.307 E4.00240
G1 X101.706 Y73.723 E4.01333
G1 X101.334 Y75.113 E4.02426
G1 X100.847 Y76.467 E4.03519
G1 X100.248 Y77.776 E4.04613
G1 X99.541 Y79.029 E4.05706
G1 X98.731 Y80.218 E4.06799
G1 X97.825 Y81.336 E4.07892
G1 X96.827 Y82.373 E4.08985
G1 X95.746 Y83.323 E4.10079
G1 X94.589 Y84.178 E4.11172
G1 X93.364 Y84.933 E4.12265
G1 X92.081 Y85.583 E4.13358
G1 X90.747 Y86.123 E4.14451
G1 X89.372 Y86.548 E4.15545
G1 X87.967 Y86.857 E4.16638
G1 X86.540 Y87.047 E4.17731
G1 X85.103 Y87.116 E4.18824
G1 X83.460 Y87.047 E4.20074
G1 X82.033 Y86.857 E4.21167
G1 X80.628 Y86.548 E4.22260
G1 X79.253 Y86.123 E4.23353
G1 X77.919 Y85.583 E4.24446
G1 X76.636 Y84.933 E4.25540
G1 X75.411 Y84.178 E4.26633
G1 X74.254 Y83.323 E4.27726
G1 X73.173 Y82.373 E4.28819
G1 X72.175 Y81.336 E4.29912
G1 X71.269 Y80.218 E4.31006
G1 X70.459 Y79.029 E4.32099
G1 X69.752 Y77.776 E4.33192
G1 X69.153 Y76.467 E4.34285
G1 X68.666 Y75.113 E4.35378
G1 X68.294 Y73.723 E4.36472
G1 X68.041 Y72.307 E4.37565
G1 X67.907 Y70.874 E4.38658
G1 X67.894 Y69.435 E4.39751
G1 X68.002 Y68.001 E4.40844
G1 X68.231 Y66.580 E4.41937
G1 X68.322 Y66.160 E4.42264
G1 X68.577 Y65.184 E4.43030
G1 X68.705 Y64.768 E4.43361
G1 X69.040 Y63.821 E4.44124
G1 X69.204 Y63.412 E4.44459
G1 X69.616 Y62.503 E4.45217
G1 X69.815 Y62.104 E4.45556
G1 X70.300 Y61.237 E4.46310
G1 X70.535 Y60.851 E4.46654
G1 X71.088 Y60.034 E4.47404
G1 X71.358 Y59.664 E4.47751
G1 X71.891 Y59.004 E4.48395
G1 X72.129 Y59.101 F7800.000
G4 P31
G1 X72.456 Y58.721 E4.48776 F1800.000
G1 X73.347 Y57.801 E4.49749
G1 X74.529 Y56.774 E4.50939
G1 X75.554 Y56.022 E4.51904
G1 X76.467 Y55.454 E4.52722
G1 X76.900 Y55.202 E4.53102
G1 X78.028 Y54.638 E4.54060
G1 X79.502 Y54.052 E4.55265
G1 X80.698 Y53.688 E4.56215
G1 X82.084 Y53.384 E4.57293
G1 X83.673 Y53.183 E4.58510
G1 X84.907 Y53.131 E4.59448
G1 X85.403 Y53.143 E4.59825
G1 X86.510 Y53.198 E4.60667 F1800.000
G1 X87.916 Y53.384 E4.61745
G1 X89.302 Y53.688 E4.62822
G1 X90.657 Y54.107 E4.63900
G1 X91.972 Y54.638 E4.64978
G1 X93.238 Y55.278 E4.66056
G1 X94.446 Y56.022 E4.67133
G1 X95.587 Y56.865 E4.68211
G1 X96.653 Y57.801 E4.69289
G1 X97.637 Y58.824 E4.70367
G1 X98.531 Y59.925 E4.71444
G1 X99.329 Y61.097 E4.72522
G1 X100.027 Y62.333 E4.73600
G1 X100.618 Y63.622 E4.74678
G1 X101.098 Y64.957 E4.75755
G1 X101.440 Y66.222 E4.76751
G1 X101.528 Y66.631 E4.77068
G1 X101.753 Y68.031 E4.78146
G1 X101.860 Y69.446 E4.79224
G1 X101.847 Y70.864 E4.80301
G1 X101.715 Y72.276 E4.81379
G1 X101.465 Y73.673 E4.82457
G1 X101.098 Y75.043 E4.83534
G1 X100.618 Y76.378 E4.84612
G1 X100.027 Y77.667 E4.85690
G1 X99.329 Y78.903 E4.86768
G1 X98.531 Y80.075 E4.87845
G1 X97.637 Y81.176 E4.88923
G1 X96.653 Y82.199 E4.90001
G1 X95.587 Y83.135 E4.91079
G1 X94.446 Y83.978 E4.92156
G1 X93.238 Y84.722 E4.93234
G1 X91.972 Y85.362 E4.94312
G1 X90.657 Y85.893 E4.95389
G1 X89.302 Y86.312 E4.96467
G1 X87.916 Y86.616 E4.97545
G1 X86.510 Y86.802 E4.98623
G1 X85.093 Y86.869 E4.99700
G1 X83.490 Y86.802 E5.00919
G1 X82.084 Y86.616 E5.01997
G1 X80.698 Y86.312 E5.03074
G1 X79.343 Y85.893 E5.04152
G1 X78.028 Y85.362 E5.05230
G1 X76.762 Y84.722 E5.06308
G1 X75.554 Y83.978 E5.07385
G1 X74.413 Y83.135 E5.08463
G1 X73.347 Y82.199 E5.09541
G1 X72.363 Y81.176 E5.10619
G1 X71.469 Y80.075 E5.11696
G1 X70.671 Y78.903 E5.12774
G1 X69.973 Y77.667 E5.13852
G1 X69.382 Y76.378 E5.14930
G1 X68.902 Y75.043 E5.16007
G1 X68.535 Y73.673 E5.17085
G1 X68.285 Y72.276 E5.18163
G1 X68.153 Y70.864 E5.19240
G1 X68.140 Y69.446 E5.20318
G1 X68.247 Y68.031 E5.21396
G1 X68.472 Y66.631 E5.22473
G1 X68.560 Y66.222 E5.22791
G1 X68.813 Y65.254 E5.23551
G1 X68.937 Y64.850 E5.23872
G1 X69.270 Y63.911 E5.24629
G1 X69.428 Y63.514 E5.24954
G1 X69.837 Y62.611 E5.25707
G1 X70.030 Y62.224 E5.26036
G1 X70.512 Y61.363 E5.26785
G1 X70.739 Y60.989 E5.27117
G1 X71.289 Y60.177 E5.27862
G1 X71.550 Y59.819 E5.28199
G1 X72.082 Y59.159 E5.28843
G1 F6240
G1 X72.456 Y58.721 E5.13071
G1 F6240
G1 X73.347 Y57.801 E4.77975
G1 F6240
G1 X74.529 Y56.774 E4.35048
G1 F6240
G1 X75.554 Y56.022 E4.00228
G1 F6240
G1 X76.467 Y55.454 E3.70739
G1 F6240
G1 X76.900 Y55.202 E3.57022
G1 F6240
G1 X77.493 Y54.905 E3.38843
G1 E3.28843 F1800.00000
G92 E0
G1 X87.952 Y78.257 F7800.000
G1 E2.00000 F1800.00000
G1 X87.984 Y78.383 E2.00099 F1800.000
G1 X88.516 Y78.316 E2.00506
G4 P15
G1 X89.206 Y78.393 E2.01033
G1 X89.819 Y78.636 E2.01534
G1 X90.351 Y79.023 E2.02035
G1 X90.771 Y79.530 E2.02535
G1 X91.035 Y80.092 E2.03006
G1 X91.175 Y80.771 E2.03533
G1 X91.133 Y81.429 E2.04034
G1 X90.930 Y82.055 E2.04534
G1 X90.577 Y82.611 E2.05034
G1 X90.097 Y83.062 E2.05535
G1 X89.520 Y83.379 E2.06035
G1 X88.883 Y83.543 E2.06535
G1 X88.225 Y83.543 E2.07035
G1 X87.587 Y83.379 E2.07535
G1 X87.010 Y83.062 E2.08035
G1 X86.530 Y82.611 E2.08535
G1 X86.177 Y82.055 E2.09035
G1 X85.974 Y81.429 E2.09536
G1 X85.933 Y80.772 E2.10036
G1 X86.049 Y80.163 E2.10507
G1 X86.336 Y79.531 E2.11034
G1 X86.756 Y79.023 E2.11535
G1 X87.289 Y78.636 E2.12035
G1 X87.568 Y78.525 E2.12263
G1 X87.523 Y78.392 E2.12370
G1 X86.901 Y78.567 E2.12861
G1 X85.956 Y78.723 E2.13588
G1 X85.000 Y78.775 E2.14316
G1 X84.044 Y78.723 E2.15043
G1 X83.099 Y78.567 E2.15771
G1 X82.228 Y78.325 E2.16457
G1 X81.338 Y77.974 E2.17185
G1 X80.490 Y77.527 E2.17912
G1 X79.656 Y76.957 E2.18680
G1 X78.967 Y76.372 E2.19367
G1 X78.308 Y75.677 E2.20094
G1 X78.056 Y75.344 E2.20411
G1 X77.942 Y75.413 E2.20513
G1 X78.178 Y75.914 E2.20933
G1 X78.317 Y76.594 E2.21460
G1 X78.276 Y77.252 E2.21961
G1 X78.073 Y77.878 E2.22461
G1 X77.719 Y78.434 E2.22962
G1 X77.207 Y78.902 E2.23489
G1 X76.663 Y79.201 E2.23961
G1 X76.025 Y79.365 E2.24461
G1 X75.367 Y79.365 E2.24961
G1 X74.730 Y79.201 E2.25461
G1 X74.153 Y78.884 E2.25961
G1 X73.673 Y78.434 E2.26461
G1 X73.320 Y77.878 E2.26962
G1 X73.117 Y77.252 E2.27462
G1 X73.075 Y76.595 E2.27962
G1 X73.199 Y75.948 E2.28462
G1 X73.479 Y75.352 E2.28962
G1 X73.899 Y74.845 E2.29462
G1 X74.431 Y74.458 E2.29962
G1 X75.043 Y74.216 E2.30462
G1 X75.659 Y74.138 E2.30934
G1 X76.348 Y74.215 E2.31461
G1 X76.961 Y74.458 E2.31962
G1 X77.494 Y74.845 E2.32462
G1 X77.622 Y75.000 E2.32615
G1 X77.734 Y74.921 E2.32719
G1 X77.238 Y74.092 E2.33453
G1 X76.858 Y73.272 E2.34139
G1 X76.550 Y72.365 E2.34867
G1 X76.342 Y71.431 E2.35594
G1 X76.238 Y70.479 E2.36322
G1 X76.238 Y69.521 E2.37049
G1 X76.336 Y68.622 E2.37736
G1 X76.550 Y67.635 E2.38504
G1 X76.858 Y66.728 E2.39231
G1 X77.238 Y65.908 E2.39918
G1 X77.742 Y65.066 E2.40664
G1 X77.643 Y64.985 E2.40761
G1 X77.207 Y65.383 E2.41210
G1 X76.663 Y65.682 E2.41681
G1 X76.025 Y65.846 E2.42181
G1 X75.367 Y65.846 E2.42682
G1 X74.730 Y65.682 E2.43182
G1 X74.153 Y65.365 E2.43682
G1 X73.673 Y64.914 E2.44182
G1 X73.320 Y64.359 E2.44682
G1 X73.117 Y63.733 E2.45182
G1 X73.075 Y63.076 E2.45682
G1 X73.199 Y62.429 E2.46182
G1 X73.479 Y61.833 E2.46683
G1 X73.899 Y61.326 E2.47183
G1 X74.432 Y60.938 E2.47684
G1 X75.081 Y60.692 E2.48211
G1 X75.696 Y60.614 E2.48682
G1 X76.349 Y60.697 E2.49182
G1 X76.961 Y60.939 E2.49682
G1 X77.494 Y61.326 E2.50183
G1 X77.914 Y61.833 E2.50683
G1 X78.194 Y62.429 E2.51183
G1 X78.317 Y63.076 E2.51683
G1 X78.276 Y63.733 E2.52183
G1 X78.084 Y64.323 E2.52655
G1 X77.878 Y64.658 E2.52954
G1 X77.994 Y64.738 E2.53061
G1 X78.308 Y64.323 E2.53456
G1 X78.967 Y63.628 E2.54184
G1 X79.697 Y63.009 E2.54911
G1 X80.490 Y62.473 E2.55638
G1 X81.289 Y62.049 E2.56325
G1 X82.177 Y61.692 E2.57052
G1 X83.099 Y61.433 E2.57780
G1 X84.097 Y61.274 E2.58548
G1 X85.000 Y61.225 E2.59235
G1 X85.956 Y61.277 E2.59962
G1 X86.901 Y61.433 E2.60690
G1 X87.482 Y61.596 E2.61148
G1 X87.532 Y61.474 E2.61248
G1 X87.010 Y61.187 E2.61700
G1 X86.530 Y60.737 E2.62201
G1 X86.177 Y60.181 E2.62701
G1 X85.974 Y59.555 E2.63201
G1 X85.933 Y58.898 E2.63701
G1 X86.056 Y58.251 E2.64201
G1 X86.336 Y57.656 E2.64701
G1 X86.756 Y57.148 E2.65201
G1 X87.289 Y56.761 E2.65702
G1 X87.938 Y56.514 E2.66229
G1 X88.554 Y56.437 E2.66701
G1 X89.207 Y56.519 E2.67201
G1 X89.819 Y56.761 E2.67701
G1 X90.351 Y57.148 E2.68201
G1 X90.771 Y57.656 E2.68701
G1 X91.035 Y58.217 E2.69173
G1 X91.175 Y58.897 E2.69700
G1 X91.133 Y59.555 E2.70201
G1 X90.930 Y60.181 E2.70701
G1 X90.577 Y60.737 E2.71201
G1 X90.097 Y61.187 E2.71701
G1 X89.520 Y61.505 E2.72201
G1 X88.883 Y61.668 E2.72702
G1 X88.225 Y61.668 E2.73202
G1 X87.981 Y61.606 E2.73393
G4 P24
G1 X87.938 Y61.738 E2.73498
G1 X88.663 Y62.026 E2.74091
G1 X89.510 Y62.473 E2.74819
G1 X90.303 Y63.009 E2.75546
G1 X91.033 Y63.628 E2.76274
G1 X91.692 Y64.323 E2.77001
G1 X92.239 Y65.043 E2.77688
G1 X92.762 Y65.907 E2.78456
G1 X93.142 Y66.728 E2.79143
G1 X93.450 Y67.635 E2.79870
G1 X93.658 Y68.569 E2.80597
G1 X93.762 Y69.521 E2.81325
G1 X93.762 Y69.733 E2.81486
G1 X93.896 Y69.746 E2.81588
G1 X93.995 Y69.225 E2.81991
G1 X94.282 Y68.594 E2.82518
G1 X94.702 Y68.086 E2.83019
G1 X95.236 Y67.698 E2.83520
G1 X95.884 Y67.452 E2.84047
G1 X96.500 Y67.374 E2.84518
G1 X97.153 Y67.456 E2.85018
G1 X97.765 Y67.699 E2.85518
G1 X98.298 Y68.086 E2.86019
G1 X98.717 Y68.593 E2.86519
G1 X98.998 Y69.188 E2.87019
G1 X99.121 Y69.836 E2.87520
G1 X99.068 Y70.528 E2.88047
G1 X98.876 Y71.118 E2.88518
G1 X98.524 Y71.674 E2.89018
G1 X98.044 Y72.125 E2.89519
G1 X97.500 Y72.424 E2.89990
G1 X96.830 Y72.605 E2.90517
G1 X96.171 Y72.605 E2.91018
G1 X95.533 Y72.442 E2.91518
G1 X94.955 Y72.124 E2.92019
G1 X94.456 Y71.642 E2.92546
G1 X94.124 Y71.118 E2.93018
G1 X93.920 Y70.492 E2.93518
G1 X93.905 Y70.253 E2.93700
G1 X93.762 Y70.258 E2.93809
G1 X93.762 Y70.479 E2.93976
