; generated by Slic3r 1.2.9 on 2017-06-11 at 20:40:14

; external perimeters extrusion width = 0.50mm
; perimeters extrusion width = 0.50mm
; infill extrusion width = 0.50mm
; solid infill extrusion width = 0.50mm
; top infill extrusion width = 0.50mm

M107
M190 S60 ; set bed temperature
M104 S210 ; set temperature
G28 ; home all axes
M109 S210 ; wait for temperature to be reached
G21 ; set units to millimeters
G90 ; use absolute coordinates
M82 ; use absolute distances for extrusion
G92 E0
G1 E-2.00000 F1800.00000
G92 E0
G1 Z0.250 F7800.000
G1 X65.684 Y54.154 F7800.000
G1 E2.00000 F1800.00000
M204 S3000
G1 X66.671 Y53.022 E2.01141 F1800.000
G1 X67.873 Y51.811 E2.02437
G1 X69.154 Y50.684 E2.03734
G1 X70.509 Y49.648 E2.05029
G1 X72.106 Y48.601 E2.06480
G1 X73.596 Y47.770 E2.07777
G1 X74.953 Y47.125 E2.08918
G1 X76.537 Y46.493 E2.10214
G1 X78.161 Y45.970 E2.11510
G1 X80.017 Y45.518 E2.12961
G1 X81.497 Y45.263 E2.14102
G1 X83.193 Y45.082 E2.15398
G1 X85.196 Y45.020 E2.16920
G1 X86.807 Y45.082 E2.18145 F1800.000
G1 X88.301 Y45.235 E2.19286
G1 X89.983 Y45.518 E2.20582
G1 X91.642 Y45.915 E2.21878
G1 X93.463 Y46.493 E2.23329
G1 X94.860 Y47.044 E2.24470
G1 X96.403 Y47.770 E2.25766
G1 X97.894 Y48.601 E2.27062
G1 X99.324 Y49.530 E2.28358
G1 X100.846 Y50.684 E2.29809
G1 X101.978 Y51.671 E2.30950
G1 X103.189 Y52.873 E2.32246
G1 X104.316 Y54.154 E2.33543
G1 X105.470 Y55.676 E2.34993
G1 X106.399 Y57.106 E2.36289
G1 X107.230 Y58.597 E2.37586
G1 X107.956 Y60.140 E2.38882
G1 X108.507 Y61.537 E2.40023
G1 X109.085 Y63.358 E2.41474
G1 X109.482 Y65.017 E2.42770
G1 X109.765 Y66.699 E2.44066
G1 X109.918 Y68.193 E2.45207
G1 X109.984 Y69.898 E2.46503
G1 X109.932 Y71.603 E2.47799
G1 X109.737 Y73.503 E2.49250
G1 X109.440 Y75.183 E2.50546
G1 X109.030 Y76.839 E2.51842
G1 X108.507 Y78.463 E2.53138
G1 X107.956 Y79.860 E2.54279
G1 X107.230 Y81.404 E2.55575
G1 X106.399 Y82.894 E2.56872
G1 X105.352 Y84.491 E2.58322
G1 X104.444 Y85.688 E2.59464
G1 X103.329 Y86.978 E2.60760
G1 X102.127 Y88.189 E2.62056
G1 X100.846 Y89.316 E2.63352
G1 X99.324 Y90.470 E2.64803
G1 X98.068 Y91.294 E2.65944
G1 X96.585 Y92.136 E2.67240
G1 X95.047 Y92.875 E2.68536
G1 X93.271 Y93.575 E2.69987
G1 X91.642 Y94.085 E2.71283
G1 X89.983 Y94.482 E2.72579
G1 X88.301 Y94.765 E2.73875
G1 X86.603 Y94.932 E2.75171
G1 X85.102 Y94.984 E2.76312
G1 X83.397 Y94.932 E2.77608
G1 X81.497 Y94.737 E2.79059
G1 X79.817 Y94.440 E2.80355
G1 X78.161 Y94.030 E2.81651
G1 X76.729 Y93.575 E2.82793
G1 X75.140 Y92.956 E2.84089
G1 X73.597 Y92.230 E2.85385
G1 X71.932 Y91.294 E2.86835
G1 X70.509 Y90.352 E2.88132
G1 X69.312 Y89.444 E2.89273
G1 X68.022 Y88.329 E2.90569
G1 X66.811 Y87.127 E2.91865
G1 X65.556 Y85.688 E2.93316
G1 X64.530 Y84.324 E2.94612
G1 X63.706 Y83.068 E2.95753
G1 X62.864 Y81.585 E2.97049
G1 X62.125 Y80.047 E2.98345
G1 X61.425 Y78.271 E2.99796
G1 X60.970 Y76.839 E3.00937
G1 X60.560 Y75.183 E3.02233
G1 X60.263 Y73.503 E3.03529
G1 X60.082 Y71.807 E3.04826
G1 X60.016 Y69.898 E3.06276
G1 X60.068 Y68.397 E3.07418
G1 X60.226 Y66.792 E3.08642
G1 X60.518 Y65.017 E3.10009
G1 X60.915 Y63.358 E3.11306
G1 X61.493 Y61.537 E3.12756
G1 X62.125 Y59.953 E3.14052
G1 X62.770 Y58.597 E3.15194
G1 X63.601 Y57.106 E3.16490
G1 X64.530 Y55.676 E3.17786
G1 X65.637 Y54.212 E3.19180
G1 X65.870 Y54.316 F7800.000
G4 P31
G1 X66.857 Y53.184 E3.20321 F1800.000
G1 X68.047 Y51.985 E3.21604
G1 X69.316 Y50.870 E3.22888
G1 X70.658 Y49.844 E3.24171
G1 X72.227 Y48.815 E3.25596
G1 X73.702 Y47.993 E3.26879
G1 X75.059 Y47.348 E3.28021
G1 X76.628 Y46.722 E3.29304
G1 X78.236 Y46.205 E3.30587
G1 X80.059 Y45.761 E3.32013
G1 X81.539 Y45.506 E3.33154
G1 X83.219 Y45.327 E3.34437
G1 X85.187 Y45.266 E3.35934
G1 X86.781 Y45.327 E3.37145 F1800.000
G1 X88.276 Y45.480 E3.38287
G1 X89.941 Y45.761 E3.39570
G1 X91.584 Y46.155 E3.40853
G1 X93.372 Y46.722 E3.42279
G1 X94.770 Y47.273 E3.43420
G1 X96.298 Y47.993 E3.44703
G1 X97.773 Y48.815 E3.45986
G1 X99.342 Y49.844 E3.47412
G1 X100.684 Y50.870 E3.48695
G1 X101.816 Y51.857 E3.49836
G1 X103.015 Y53.047 E3.51120
G1 X104.130 Y54.316 E3.52403
G1 X105.264 Y55.811 E3.53828
G1 X106.185 Y57.227 E3.55111
G1 X107.007 Y58.702 E3.56395
G1 X107.652 Y60.059 E3.57536
G1 X108.278 Y61.628 E3.58819
G1 X108.845 Y63.416 E3.60244
G1 X109.239 Y65.059 E3.61528
G1 X109.520 Y66.724 E3.62811
G1 X109.673 Y68.219 E3.63952
G1 X109.737 Y69.906 E3.65236
G1 X109.686 Y71.595 E3.66519
G1 X109.494 Y73.461 E3.67944
G1 X109.201 Y75.125 E3.69227
G1 X108.795 Y76.764 E3.70511
G1 X108.278 Y78.372 E3.71794
G1 X107.727 Y79.770 E3.72935
G1 X107.007 Y81.298 E3.74218
G1 X106.185 Y82.773 E3.75502
G1 X105.156 Y84.342 E3.76927
G1 X104.130 Y85.684 E3.78210
G1 X103.143 Y86.816 E3.79352
G1 X101.953 Y88.015 E3.80635
G1 X100.684 Y89.130 E3.81918
G1 X99.189 Y90.264 E3.83344
G1 X97.933 Y91.088 E3.84485
G1 X96.464 Y91.921 E3.85768
G1 X94.941 Y92.652 E3.87051
G1 X93.196 Y93.340 E3.88477
G1 X91.584 Y93.845 E3.89760
G1 X89.941 Y94.239 E3.91043
G1 X88.276 Y94.520 E3.92327
G1 X86.595 Y94.686 E3.93610
G1 X85.094 Y94.737 E3.94751
G1 X83.405 Y94.686 E3.96034
G1 X81.539 Y94.494 E3.97460
G1 X79.875 Y94.201 E3.98743
G1 X78.236 Y93.795 E4.00026
G1 X76.804 Y93.340 E4.01168
G1 X75.230 Y92.727 E4.02451
G1 X73.702 Y92.007 E4.03734
G1 X72.067 Y91.088 E4.05159
G1 X70.658 Y90.156 E4.06443
G1 X69.461 Y89.248 E4.07584
G1 X68.184 Y88.143 E4.08867
G1 X66.985 Y86.953 E4.10150
G1 X65.752 Y85.539 E4.11576
G1 X64.736 Y84.189 E4.12859
G1 X63.815 Y82.773 E4.14142
G1 X63.079 Y81.464 E4.15283
G1 X62.348 Y79.941 E4.16567
G1 X61.660 Y78.196 E4.17992
G1 X61.205 Y76.764 E4.19133
G1 X60.799 Y75.125 E4.20417
G1 X60.506 Y73.461 E4.21700
G1 X60.327 Y71.781 E4.22983
G1 X60.263 Y69.906 E4.24408
G1 X60.314 Y68.405 E4.25550
G1 X60.471 Y66.818 E4.26762
G1 X60.761 Y65.059 E4.28116
G1 X61.155 Y63.416 E4.29399
G1 X61.722 Y61.628 E4.30825
G1 X62.348 Y60.059 E4.32108
G1 X62.993 Y58.702 E4.33249
G1 X63.815 Y57.227 E4.34533
G1 X64.736 Y55.811 E4.35816
G1 X65.823 Y54.374 E4.37184
G1 X66.056 Y54.478 F7800.000
G4 P31
G1 X67.043 Y53.346 E4.38325 F1800.000
G1 X68.221 Y52.159 E4.39596
G1 X69.478 Y51.056 E4.40867
G1 X70.807 Y50.041 E4.42137
G1 X72.347 Y49.030 E4.43537
G1 X73.808 Y48.215 E4.44807
G1 X75.165 Y47.570 E4.45949
G1 X76.718 Y46.951 E4.47219
G1 X78.310 Y46.440 E4.48489
G1 X80.100 Y46.004 E4.49889
G1 X81.749 Y45.725 E4.51160
G1 X83.244 Y45.572 E4.52301
G1 X85.179 Y45.512 E4.53772
G1 X86.756 Y45.572 E4.54971 F1800.000
G1 X88.251 Y45.725 E4.56112
G1 X89.899 Y46.004 E4.57383
G1 X91.526 Y46.394 E4.58653
G1 X93.282 Y46.951 E4.60053
G1 X94.679 Y47.502 E4.61194
G1 X96.192 Y48.215 E4.62465
G1 X97.653 Y49.030 E4.63735
G1 X99.193 Y50.041 E4.65135
G1 X100.522 Y51.056 E4.66406
G1 X101.654 Y52.043 E4.67547
G1 X102.841 Y53.221 E4.68817
G1 X103.944 Y54.478 E4.70088
G1 X105.058 Y55.946 E4.71488
G1 X105.970 Y57.347 E4.72758
G1 X106.785 Y58.808 E4.74029
G1 X107.497 Y60.321 E4.75299
G1 X108.049 Y61.718 E4.76440
G1 X108.606 Y63.474 E4.77840
G1 X108.996 Y65.100 E4.79111
G1 X109.275 Y66.749 E4.80381
G1 X109.428 Y68.244 E4.81523
G1 X109.491 Y69.915 E4.82793
G1 X109.440 Y71.587 E4.84064
G1 X109.252 Y73.419 E4.85463
G1 X108.962 Y75.066 E4.86734
G1 X108.560 Y76.690 E4.88004
G1 X108.049 Y78.282 E4.89275
G1 X107.497 Y79.679 E4.90416
G1 X106.785 Y81.192 E4.91686
G1 X105.970 Y82.653 E4.92957
G1 X104.959 Y84.193 E4.94357
G1 X104.052 Y85.390 E4.95498
G1 X102.957 Y86.654 E4.96769
G1 X101.779 Y87.841 E4.98039
G1 X100.522 Y88.944 E4.99310
G1 X99.054 Y90.058 E5.00709
G1 X97.798 Y90.882 E5.01851
G1 X96.343 Y91.706 E5.03121
G1 X94.835 Y92.430 E5.04392
G1 X93.122 Y93.106 E5.05791
G1 X91.526 Y93.606 E5.07062
G1 X89.899 Y93.996 E5.08332
G1 X88.251 Y94.275 E5.09603
G1 X86.587 Y94.440 E5.10873
G1 X85.085 Y94.491 E5.12015
G1 X83.414 Y94.440 E5.13285
G1 X81.581 Y94.252 E5.14685
G1 X79.934 Y93.962 E5.15955
G1 X78.310 Y93.560 E5.17226
G1 X76.878 Y93.106 E5.18367
G1 X75.321 Y92.497 E5.19638
G1 X73.808 Y91.785 E5.20908
G1 X72.202 Y90.882 E5.22308
G1 X70.807 Y89.959 E5.23579
G1 X69.610 Y89.052 E5.24720
G1 X68.346 Y87.957 E5.25990
G1 X67.159 Y86.779 E5.27261
G1 X65.948 Y85.390 E5.28660
G1 X64.942 Y84.054 E5.29931
G1 X64.118 Y82.798 E5.31072
G1 X63.294 Y81.343 E5.32343
G1 X62.570 Y79.835 E5.33613
G1 X61.894 Y78.122 E5.35013
G1 X61.440 Y76.690 E5.36154
G1 X61.038 Y75.066 E5.37425
G1 X60.748 Y73.419 E5.38695
G1 X60.572 Y71.756 E5.39966
G1 X60.509 Y69.915 E5.41366
G1 X60.560 Y68.414 E5.42507
G1 X60.716 Y66.843 E5.43706
G1 X61.004 Y65.100 E5.45048
G1 X61.394 Y63.474 E5.46318
G1 X61.951 Y61.718 E5.47718
G1 X62.502 Y60.321 E5.48859
G1 X63.215 Y58.808 E5.50130
G1 X64.030 Y57.347 E5.51400
G1 X64.942 Y55.946 E5.52671
G1 X66.008 Y54.536 E5.54013
G1 X66.241 Y54.640 F7800.000
G4 P31
G1 X67.228 Y53.508 E5.55155 F1800.000
G1 X68.395 Y52.333 E5.56413
G1 X69.640 Y51.241 E5.57670
G1 X70.956 Y50.237 E5.58928
G1 X72.468 Y49.245 E5.60302
G1 X73.914 Y48.438 E5.61560
G1 X75.270 Y47.793 E5.62701
G1 X76.809 Y47.181 E5.63959
G1 X78.385 Y46.675 E5.65217
G1 X80.142 Y46.246 E5.66591
G1 X81.623 Y45.991 E5.67732
G1 X83.269 Y45.817 E5.68990
G1 X85.171 Y45.758 E5.70435
G1 X86.731 Y45.817 E5.71622 F1800.000
G1 X88.225 Y45.970 E5.72763
G1 X89.858 Y46.246 E5.74021
G1 X91.467 Y46.633 E5.75278
G1 X93.191 Y47.181 E5.76653
G1 X94.589 Y47.732 E5.77794
G1 X96.086 Y48.438 E5.79051
G1 X97.532 Y49.245 E5.80309
G1 X98.919 Y50.148 E5.81567
G1 X100.360 Y51.241 E5.82941
G1 X101.605 Y52.333 E5.84199
G1 X102.667 Y53.395 E5.85340
G1 X103.759 Y54.640 E5.86598
G1 X104.852 Y56.081 E5.87972
G1 X105.755 Y57.468 E5.89230
G1 X106.562 Y58.914 E5.90488
G1 X107.207 Y60.270 E5.91629
G1 X107.819 Y61.809 E5.92887
G1 X108.367 Y63.533 E5.94261
G1 X108.754 Y65.142 E5.95519
G1 X109.030 Y66.775 E5.96776
G1 X109.183 Y68.269 E5.97918
G1 X109.245 Y69.923 E5.99175
G1 X109.194 Y71.578 E6.00433
G1 X109.009 Y73.377 E6.01807
G1 X108.722 Y75.008 E6.03065
G1 X108.325 Y76.615 E6.04323
G1 X107.819 Y78.191 E6.05580
G1 X107.268 Y79.589 E6.06722
G1 X106.562 Y81.086 E6.07979
G1 X105.755 Y82.532 E6.09237
G1 X104.763 Y84.044 E6.10611
G1 X103.855 Y85.241 E6.11753
G1 X102.772 Y86.492 E6.13010
G1 X101.605 Y87.667 E6.14268
G1 X100.360 Y88.759 E6.15526
G1 X98.919 Y89.852 E6.16900
G1 X97.663 Y90.676 E6.18041
G1 X96.222 Y91.492 E6.19299
G1 X94.730 Y92.207 E6.20557
G1 X93.047 Y92.871 E6.21931
G1 X91.467 Y93.367 E6.23189
G1 X89.858 Y93.754 E6.24446
G1 X88.225 Y94.030 E6.25704
G1 X86.578 Y94.194 E6.26962
G1 X85.077 Y94.245 E6.28103
G1 X83.422 Y94.194 E6.29361
G1 X81.623 Y94.009 E6.30735
G1 X79.992 Y93.722 E6.31993
G1 X78.385 Y93.325 E6.33251
G1 X76.953 Y92.871 E6.34392
G1 X75.411 Y92.268 E6.35650
G1 X73.914 Y91.562 E6.36907
G1 X72.337 Y90.676 E6.38281
G1 X70.956 Y89.763 E6.39539
G1 X69.759 Y88.855 E6.40681
G1 X68.508 Y87.772 E6.41938
G1 X67.333 Y86.605 E6.43196
G1 X66.145 Y85.241 E6.44570
G1 X65.148 Y83.919 E6.45828
G1 X64.324 Y82.663 E6.46969
G1 X63.508 Y81.222 E6.48227
G1 X62.793 Y79.730 E6.49485
G1 X62.129 Y78.047 E6.50859
G1 X61.675 Y76.615 E6.52000
G1 X61.300 Y75.099 E6.53186
G1 X60.991 Y73.377 E6.54515
G1 X60.817 Y71.731 E6.55773
G1 X60.755 Y69.923 E6.57147
G1 X60.806 Y68.422 E6.58289
G1 X60.961 Y66.868 E6.59475
G1 X61.246 Y65.142 E6.60804
G1 X61.633 Y63.533 E6.62062
G1 X62.181 Y61.809 E6.63436
G1 X62.732 Y60.411 E6.64577
G1 X63.438 Y58.914 E6.65835
G1 X64.245 Y57.468 E6.67093
G1 X65.148 Y56.081 E6.68350
G1 X66.194 Y54.698 E6.69668
G1 F6240
G1 X67.228 Y53.508 E6.26447
G1 F6240
G1 X68.395 Y52.333 E5.81077
G1 F6240
G1 X69.640 Y51.241 E5.35705
G1 F6240
G1 X70.956 Y50.237 E4.90345
G1 F6240
G1 X71.281 Y50.023 E4.79668
G1 E4.69668 F1800.00000
G92 E0
G1 X81.503 Y88.348 F7800.000
G1 E2.00000 F1800.00000
G1 X81.266 Y88.852 E2.00423 F1800.000
G1 X80.888 Y89.309 E2.00874
G1 X80.386 Y89.663 E2.01340
G1 X79.868 Y89.868 E2.01764
G1 X79.282 Y89.943 E2.02212
G1 X78.684 Y89.863 E2.02670
G1 X78.166 Y89.658 E2.03094
G1 X77.686 Y89.315 E2.03542
G1 X77.293 Y88.838 E2.04012
G1 X77.055 Y88.332 E2.04437
G1 X76.941 Y87.752 E2.04885
G1 X76.982 Y87.135 E2.05355
G1 X77.155 Y86.604 E2.05780
G1 X77.468 Y86.106 E2.06226
G1 X77.895 Y85.701 E2.06674
G1 X78.414 Y85.413 E2.07125
G1 X79.014 Y85.265 E2.07594
G1 X79.572 Y85.265 E2.08018 F1800.000
G1 X80.142 Y85.409 E2.08465
G1 X80.659 Y85.692 E2.08913
G1 X81.093 Y86.098 E2.09364
G1 X81.417 Y86.623 E2.09832
G1 X81.589 Y87.153 E2.10256
G1 X81.627 Y87.746 E2.10707
G1 X81.518 Y88.275 E2.11117
G1 X81.267 Y88.270 F7800.000
G4 P31
G1 X81.056 Y88.719 E2.11495 F1800.000
G1 X80.719 Y89.127 E2.11897
G1 X80.268 Y89.445 E2.12316
G1 X79.806 Y89.628 E2.12693
G1 X79.283 Y89.694 E2.13094
G1 X78.747 Y89.623 E2.13505
G1 X78.284 Y89.440 E2.13882
G1 X77.856 Y89.133 E2.14283
G1 X77.503 Y88.705 E2.14705
G1 X77.291 Y88.254 E2.15083
G1 X77.189 Y87.736 E2.15484
G1 X77.226 Y87.183 E2.15906
G1 X77.380 Y86.709 E2.16284
G1 X77.660 Y86.264 E2.16684
G1 X78.042 Y85.901 E2.17084
G1 X78.505 Y85.644 E2.17486
G1 X79.044 Y85.511 E2.17908
G1 X79.541 Y85.511 E2.18285 F1800.000
G1 X80.051 Y85.641 E2.18685
G1 X80.514 Y85.893 E2.19086
G1 X80.901 Y86.256 E2.19489
G1 X81.192 Y86.727 E2.19909
G1 X81.345 Y87.200 E2.20287
G1 X81.379 Y87.728 E2.20689
G1 X81.283 Y88.196 E2.21053
G1 X81.032 Y88.192 F7800.000
G4 P31
G1 X80.846 Y88.586 E2.21384 F1800.000
G1 X80.550 Y88.945 E2.21737
G1 X80.150 Y89.227 E2.22109
G1 X79.744 Y89.387 E2.22441
G1 X79.283 Y89.446 E2.22793
G1 X78.809 Y89.383 E2.23157
G1 X78.403 Y89.222 E2.23489
G1 X78.025 Y88.952 E2.23842
G1 X77.712 Y88.572 E2.24216
G1 X77.527 Y88.177 E2.24547
G1 X77.437 Y87.721 E2.24901
G1 X77.470 Y87.230 E2.25274
G1 X77.605 Y86.814 E2.25606
G1 X77.852 Y86.421 E2.25959
G1 X78.189 Y86.102 E2.26312
G1 X78.596 Y85.876 E2.26666
G1 X79.074 Y85.757 E2.27039
G1 X79.510 Y85.757 E2.27371 F1800.000
G1 X79.960 Y85.872 E2.27724
G1 X80.368 Y86.095 E2.28077
G1 X80.708 Y86.413 E2.28431
G1 X80.966 Y86.831 E2.28804
G1 X81.101 Y87.246 E2.29136
G1 X81.131 Y87.711 E2.29490
G1 X81.047 Y88.118 E2.29805
G4 P19
G1 X81.309 Y88.529 F7800.000
G1 F6240
G4 P29
G1 X80.846 Y88.586 E2.15842
G1 F6240
G1 X80.550 Y88.945 E2.03101
G1 F6240
G1 X80.150 Y89.227 E1.89682
G1 F6240
G1 X79.744 Y89.387 E1.77727
G1 F6240
G1 X79.283 Y89.446 E1.65002
G1 F6240
G1 X78.809 Y89.383 E1.51887
G1 F6240
G1 X78.403 Y89.222 E1.39928
G1 F6240
G1 X78.025 Y88.952 E1.27192
G1 F6240
G1 X77.712 Y88.572 E1.13706
G1 F6240
G1 X77.527 Y88.177 E1.01737
G1 F6240
G1 X77.437 Y87.721 E0.88995
G1 F6240
G1 X77.470 Y87.230 E0.75511
G1 F6240
G1 X77.605 Y86.814 E0.63545
G1 F6240
G1 X77.852 Y86.421 E0.50821
G1 F6240
G1 X78.143 Y86.145 E0.39805
G1 E0.29805 F1800.00000
G92 E0
G4 P16
G1 X76.538 Y78.291 F7800.000
G1 E2.00000 F1800.00000
G1 X76.131 Y78.452 E2.00333 F1800.000
G1 X75.696 Y78.507 E2.00666
G4 P4
G1 X75.262 Y78.452 E2.00999
G1 X74.863 Y78.295 E2.01324
G1 X74.501 Y78.035 E2.01662
G1 X74.221 Y77.696 E2.01997
G1 X74.034 Y77.300 E2.02330
G1 X73.952 Y76.867 E2.02664
G1 X73.983 Y76.423 E2.03003
G1 X74.115 Y76.015 E2.03328
G1 X74.350 Y75.645 E2.03661
G1 X74.669 Y75.346 E2.03994
G1 X75.053 Y75.134 E2.04327
G1 X75.477 Y75.025 E2.04660
G1 X75.915 Y75.025 E2.04992 F1800.000
G1 X76.340 Y75.134 E2.05325
G1 X76.724 Y75.346 E2.05658
G1 X77.036 Y75.639 E2.05983
G1 X77.277 Y76.013 E2.06322
G1 X77.413 Y76.432 E2.06656
G1 X77.441 Y76.869 E2.06989
G1 X77.359 Y77.300 E2.07322
G1 X77.172 Y77.696 E2.07655
G1 X76.893 Y78.034 E2.07988
G1 X76.599 Y78.247 E2.08264
G1 X76.419 Y78.074 F7800.000
G4 P31
G1 X76.069 Y78.212 E2.08549 F1800.000
G1 X75.696 Y78.259 E2.08835
G4 P8
G1 X75.323 Y78.212 E2.09120
G1 X74.982 Y78.077 E2.09399
G1 X74.671 Y77.854 E2.09690
G1 X74.430 Y77.563 E2.09977
G1 X74.270 Y77.223 E2.10263
G1 X74.200 Y76.852 E2.10549
G1 X74.226 Y76.470 E2.10840
G1 X74.340 Y76.121 E2.11119
G1 X74.541 Y75.804 E2.11405
G1 X74.815 Y75.546 E2.11690
G1 X75.144 Y75.365 E2.11976
G1 X75.508 Y75.272 E2.12261
G1 X75.884 Y75.272 E2.12547 F1800.000
G1 X76.248 Y75.365 E2.12832
G1 X76.578 Y75.546 E2.13118
G1 X76.845 Y75.798 E2.13397
G1 X77.053 Y76.120 E2.13688
G1 X77.169 Y76.479 E2.13974
G1 X77.193 Y76.854 E2.14260
G1 X77.122 Y77.223 E2.14546
G1 X76.962 Y77.563 E2.14831
G1 X76.723 Y77.853 E2.15117
G1 X76.479 Y78.029 E2.15345
G1 X76.299 Y77.856 F7800.000
G4 P31
G1 X76.007 Y77.971 E2.15584 F1800.000
G1 X75.696 Y78.011 E2.15822
G4 P12
