; generated by Slic3r 1.2.9 on 2017-06-12 at 23:02:42

; external perimeters extrusion width = 0.50mm
; perimeters extrusion width = 0.50mm
; infill extrusion width = 0.50mm
; solid infill extrusion width = 0.50mm
; top infill extrusion width = 0.50mm

M107
M190 S60 ; set bed temperature
M104 S210 ; set temperature
G28 ; home all axes
M109 S210 ; wait for temperature to be reached
G21 ; set units to millimeters
G90 ; use absolute coordinates
M82 ; use absolute distances for extrusion
G92 E0
G1 E-2.00000 F1800.00000
G92 E0
G1 Z0.250 F7800.000
G1 X63.375 Y52.565 F7800.000
G1 E2.00000 F1800.00000
M204 S3000
G1 X64.440 Y51.319 E2.01245 F1800.000
G1 X65.684 Y50.035 E2.02604
G1 X67.008 Y48.834 E2.03962
G1 X68.284 Y47.813 E2.05204
G1 X69.874 Y46.699 E2.06678
G1 X71.264 Y45.855 E2.07914
G1 X72.842 Y45.023 E2.09269
G1 X73.150 Y44.878 E2.09527
G1 X74.627 Y44.230 E2.10753
G1 X76.306 Y43.616 E2.12111
G1 X78.021 Y43.112 E2.13469
G1 X79.765 Y42.718 E2.14828
G1 X81.531 Y42.438 E2.16186
G1 X83.122 Y42.284 E2.17400
G1 X84.904 Y42.221 E2.18755
G1 X86.539 Y42.267 E2.19998
G1 X86.878 Y42.284 E2.20256 F1800.000
G1 X88.469 Y42.438 E2.21470
G1 X90.413 Y42.753 E2.22966
G1 X91.979 Y43.112 E2.24187
G1 X93.535 Y43.568 E2.25418
G1 X95.373 Y44.230 E2.26903
G1 X97.009 Y44.950 E2.28261
G1 X98.736 Y45.855 E2.29742
G1 X100.126 Y46.699 E2.30978
G1 X101.442 Y47.612 E2.32194
G1 X102.992 Y48.834 E2.33694
G1 X104.316 Y50.035 E2.35052
G1 X105.655 Y51.424 E2.36518
G1 X106.719 Y52.680 E2.37768
G1 X107.668 Y53.946 E2.38970
G1 X108.763 Y55.612 E2.40485
G1 X109.696 Y57.282 E2.41938
G1 X110.414 Y58.781 E2.43201
G1 X111.004 Y60.232 E2.44391
G1 X111.644 Y62.137 E2.45918
G1 X112.117 Y63.974 E2.47359
G1 X112.432 Y65.622 E2.48634
G1 X112.632 Y67.159 E2.49811
G1 X112.767 Y69.180 E2.51350
G1 X112.758 Y71.062 E2.52780
G1 X112.657 Y72.604 E2.53954
G1 X112.448 Y74.273 E2.55232
G1 X112.094 Y76.133 E2.56670
G1 X111.577 Y78.079 E2.58200
G1 X111.083 Y79.561 E2.59387
G1 X110.462 Y81.107 E2.60652
G1 X109.696 Y82.718 E2.62008
G1 X108.763 Y84.388 E2.63461
G1 X107.668 Y86.054 E2.64976
G1 X106.719 Y87.320 E2.66177
G1 X105.655 Y88.576 E2.67428
G1 X104.316 Y89.965 E2.68894
G1 X102.845 Y91.287 E2.70397
G1 X101.593 Y92.279 E2.71610
G1 X100.257 Y93.214 E2.72849
G1 X98.596 Y94.225 E2.74326
G1 X96.850 Y95.121 E2.75817
G1 X95.373 Y95.770 E2.77043
G1 X93.859 Y96.329 E2.78269
G1 X91.979 Y96.888 E2.79759
G1 X90.413 Y97.247 E2.80980
G1 X90.079 Y97.307 E2.81238
G1 X88.469 Y97.562 E2.82476
G1 X86.878 Y97.716 E2.83690
G1 X85.096 Y97.779 E2.85045
G1 X83.122 Y97.716 E2.86546
G1 X81.347 Y97.538 E2.87901
G1 X79.765 Y97.282 E2.89118
G1 X78.166 Y96.922 E2.90364
G1 X76.306 Y96.384 E2.91835
G1 X74.470 Y95.706 E2.93321
G1 X72.991 Y95.050 E2.94551
G1 X71.562 Y94.309 E2.95774
G1 X69.874 Y93.301 E2.97267
G1 X68.407 Y92.280 E2.98625
G1 X66.895 Y91.068 E3.00097
G1 X65.684 Y89.965 E3.01342
G1 X64.575 Y88.826 E3.02549
G1 X63.281 Y87.320 E3.04058
G1 X62.136 Y85.777 E3.05518
G1 X61.237 Y84.388 E3.06775
G1 X60.462 Y83.019 E3.07970
G1 X59.586 Y81.219 E3.09491
G1 X58.878 Y79.450 E3.10938
G1 X58.356 Y77.863 E3.12207
G1 X57.959 Y76.357 E3.13391
G1 X57.568 Y74.378 E3.14924
G1 X57.335 Y72.503 E3.16359
G1 X57.233 Y70.820 E3.17640
G1 X57.231 Y69.278 E3.18811
G1 X57.343 Y67.396 E3.20244
G1 X57.607 Y65.391 E3.21780
G1 X57.906 Y63.867 E3.22960
G1 X58.325 Y62.246 E3.24232
G1 X58.917 Y60.439 E3.25676
G1 X59.677 Y58.583 E3.27200
G1 X60.360 Y57.170 E3.28393
G1 X61.171 Y55.723 E3.29652
G1 X62.211 Y54.113 E3.31109
G1 X63.327 Y52.623 E3.32523
G1 X63.565 Y52.721 F7800.000
G4 P31
G1 X64.619 Y51.487 E3.33756 F1800.000
G1 X65.852 Y50.215 E3.35102
G1 X67.164 Y49.024 E3.36448
G1 X68.438 Y48.006 E3.37687
G1 X70.004 Y46.909 E3.39140
G1 X71.392 Y46.065 E3.40374
G1 X72.956 Y45.241 E3.41717
G1 X73.249 Y45.104 E3.41963
G1 X74.714 Y44.460 E3.43178
G1 X76.377 Y43.852 E3.44524
G1 X78.077 Y43.351 E3.45870
G1 X79.805 Y42.961 E3.47216
G1 X81.555 Y42.683 E3.48562
G1 X83.145 Y42.530 E3.49776
G1 X84.912 Y42.467 E3.51119
G1 X86.531 Y42.514 E3.52349
G1 X86.855 Y42.530 E3.52596 F1800.000
G1 X88.445 Y42.683 E3.53810
G1 X90.358 Y42.994 E3.55282
G1 X91.923 Y43.351 E3.56502
G1 X93.465 Y43.804 E3.57722
G1 X95.286 Y44.460 E3.59193
G1 X96.908 Y45.175 E3.60539
G1 X98.608 Y46.065 E3.61998
G1 X99.996 Y46.909 E3.63231
G1 X101.301 Y47.814 E3.64438
G1 X102.836 Y49.024 E3.65923
G1 X104.243 Y50.308 E3.67370
G1 X105.381 Y51.487 E3.68615
G1 X106.403 Y52.684 E3.69811
G1 X107.588 Y54.256 E3.71307
G1 X108.554 Y55.742 E3.72653
G1 X109.474 Y57.389 E3.74086
G1 X110.189 Y58.883 E3.75345
G1 X110.775 Y60.324 E3.76526
G1 X111.408 Y62.208 E3.78037
G1 X111.875 Y64.021 E3.79459
G1 X112.189 Y65.662 E3.80728
G1 X112.388 Y67.191 E3.81899
G1 X112.521 Y69.188 E3.83420
G1 X112.512 Y71.046 E3.84831
G1 X112.412 Y72.580 E3.85999
G1 X112.204 Y74.242 E3.87272
G1 X111.854 Y76.077 E3.88691
G1 X111.343 Y78.002 E3.90204
G1 X110.852 Y79.474 E3.91383
G1 X110.233 Y81.014 E3.92644
G1 X109.474 Y82.611 E3.93987
G1 X108.554 Y84.258 E3.95421
G1 X107.471 Y85.907 E3.96920
G1 X106.529 Y87.164 E3.98113
G1 X105.467 Y88.416 E3.99360
G1 X104.148 Y89.785 E4.00805
G1 X102.691 Y91.094 E4.02292
G1 X101.450 Y92.079 E4.03496
G1 X100.116 Y93.012 E4.04733
G1 X98.480 Y94.008 E4.06188
G1 X96.751 Y94.896 E4.07665
G1 X95.286 Y95.540 E4.08880
G1 X93.773 Y96.098 E4.10105
G1 X91.923 Y96.649 E4.11572
G1 X90.039 Y97.064 E4.13038
G1 X88.445 Y97.317 E4.14264
G1 X86.855 Y97.470 E4.15478
G1 X85.088 Y97.533 E4.16821
G1 X83.145 Y97.470 E4.18298
G1 X81.386 Y97.295 E4.19641
G1 X79.805 Y97.039 E4.20857
G1 X78.221 Y96.682 E4.22091
G1 X76.377 Y96.148 E4.23549
G1 X74.570 Y95.481 E4.25013
G1 X73.092 Y94.825 E4.26241
G1 X71.676 Y94.091 E4.27453
G1 X70.004 Y93.091 E4.28933
G1 X68.550 Y92.079 E4.30279
G1 X67.060 Y90.886 E4.31729
G1 X65.852 Y89.785 E4.32971
G1 X64.752 Y88.654 E4.34169
G1 X63.471 Y87.164 E4.35663
G1 X62.343 Y85.642 E4.37102
G1 X61.446 Y84.258 E4.38355
G1 X60.677 Y82.898 E4.39542
G1 X59.811 Y81.117 E4.41046
G1 X59.112 Y79.372 E4.42474
G1 X58.592 Y77.792 E4.43738
G1 X58.198 Y76.295 E4.44915
G1 X57.811 Y74.337 E4.46430
G1 X57.580 Y72.487 E4.47847
G1 X57.479 Y70.812 E4.49122
G1 X57.477 Y69.278 E4.50287
G1 X57.588 Y67.420 E4.51701
G1 X57.849 Y65.439 E4.53220
G1 X58.146 Y63.923 E4.54393
G1 X58.564 Y62.309 E4.55660
G1 X59.148 Y60.526 E4.57085
G1 X59.899 Y58.690 E4.58592
G1 X60.578 Y57.286 E4.59777
G1 X61.385 Y55.844 E4.61032
G1 X62.412 Y54.256 E4.62469
G1 X63.518 Y52.779 E4.63870
G1 X63.756 Y52.878 F7800.000
G4 P31
G1 X64.799 Y51.656 E4.65091 F1800.000
G1 X66.021 Y50.395 E4.66425
G1 X67.321 Y49.215 E4.67759
G1 X68.591 Y48.198 E4.68995
G1 X70.134 Y47.118 E4.70426
G1 X71.519 Y46.276 E4.71658
G1 X73.349 Y45.329 E4.73223
G1 X74.800 Y44.691 E4.74427
G1 X76.449 Y44.088 E4.75761
G1 X78.133 Y43.591 E4.77095
G1 X79.845 Y43.204 E4.78428
G1 X81.579 Y42.929 E4.79762
G1 X83.169 Y42.775 E4.80976
G1 X84.920 Y42.713 E4.82307
G1 X86.523 Y42.760 E4.83525
G1 X88.421 Y42.929 E4.84973 F1800.000
G1 X90.303 Y43.234 E4.86422
G1 X91.867 Y43.591 E4.87640
G1 X93.395 Y44.040 E4.88850
G1 X95.200 Y44.691 E4.90308
G1 X96.806 Y45.399 E4.91641
G1 X98.481 Y46.276 E4.93077
G1 X99.866 Y47.118 E4.94309
G1 X101.160 Y48.016 E4.95506
G1 X102.679 Y49.215 E4.96976
G1 X104.066 Y50.480 E4.98402
G1 X105.201 Y51.656 E4.99644
G1 X106.216 Y52.843 E5.00830
G1 X107.388 Y54.400 E5.02311
G1 X108.345 Y55.872 E5.03645
G1 X109.252 Y57.496 E5.05058
G1 X109.965 Y58.985 E5.06312
G1 X110.547 Y60.417 E5.07486
G1 X111.172 Y62.280 E5.08979
G1 X111.633 Y64.068 E5.10383
G1 X111.946 Y65.703 E5.11647
G1 X112.144 Y67.222 E5.12811
G1 X112.275 Y69.196 E5.14314
G1 X112.266 Y71.030 E5.15707
G1 X112.167 Y72.556 E5.16869
G1 X111.959 Y74.210 E5.18135
G1 X111.614 Y76.021 E5.19536
G1 X111.109 Y77.924 E5.21032
G1 X110.622 Y79.387 E5.22204
G1 X110.005 Y80.922 E5.23460
G1 X109.252 Y82.504 E5.24791
G1 X108.345 Y84.128 E5.26205
G1 X107.273 Y85.760 E5.27688
G1 X106.339 Y87.007 E5.28872
G1 X105.280 Y88.256 E5.30116
G1 X103.979 Y89.605 E5.31539
G1 X102.538 Y90.901 E5.33012
G1 X101.306 Y91.879 E5.34207
G1 X99.975 Y92.810 E5.35441
G1 X98.364 Y93.791 E5.36874
G1 X96.651 Y94.671 E5.38337
G1 X95.200 Y95.309 E5.39542
G1 X93.688 Y95.866 E5.40765
G1 X91.867 Y96.409 E5.42209
G1 X90.000 Y96.821 E5.43662
G1 X88.421 Y97.071 E5.44876
G1 X86.831 Y97.225 E5.46090
G1 X85.080 Y97.287 E5.47421
G1 X83.169 Y97.225 E5.48873
G1 X81.425 Y97.052 E5.50205
G1 X79.845 Y96.796 E5.51421
G1 X78.277 Y96.442 E5.52642
G1 X76.449 Y95.912 E5.54088
G1 X74.669 Y95.255 E5.55529
G1 X73.194 Y94.601 E5.56756
G1 X71.790 Y93.872 E5.57957
G1 X70.134 Y92.882 E5.59423
G1 X68.694 Y91.879 E5.60757
G1 X67.226 Y90.704 E5.62185
G1 X66.021 Y89.605 E5.63424
G1 X64.929 Y88.483 E5.64613
G1 X63.661 Y87.007 E5.66091
G1 X62.549 Y85.508 E5.67510
G1 X61.655 Y84.128 E5.68759
G1 X60.891 Y82.777 E5.69938
G1 X60.035 Y81.015 E5.71426
G1 X59.346 Y79.295 E5.72834
G1 X58.828 Y77.720 E5.74094
G1 X58.436 Y76.232 E5.75263
G1 X58.054 Y74.297 E5.76761
G1 X57.826 Y72.471 E5.78159
G1 X57.725 Y70.804 E5.79428
G1 X57.724 Y69.278 E5.80587
G1 X57.833 Y67.444 E5.81983
G1 X58.091 Y65.486 E5.83484
G1 X58.386 Y63.979 E5.84650
G1 X58.802 Y62.371 E5.85912
G1 X59.378 Y60.613 E5.87318
G1 X60.121 Y58.797 E5.88808
G1 X60.795 Y57.402 E5.89985
G1 X61.600 Y55.965 E5.91237
G1 X62.612 Y54.400 E5.92652
G1 X63.708 Y52.936 E5.94042
G1 X63.946 Y53.034 F7800.000
G4 P31
G1 X64.979 Y51.824 E5.95251 F1800.000
G1 X66.189 Y50.574 E5.96572
G1 X67.477 Y49.405 E5.97894
G1 X68.745 Y48.391 E5.99127
G1 X70.264 Y47.327 E6.00537
G1 X71.647 Y46.487 E6.01766
G1 X73.449 Y45.554 E6.03307
G1 X74.887 Y44.922 E6.04501
G1 X76.520 Y44.323 E6.05822
G1 X78.189 Y43.831 E6.07144
G1 X79.885 Y43.448 E6.08465
G1 X81.603 Y43.174 E6.09787
G1 X83.193 Y43.020 E6.11000
G1 X84.928 Y42.960 E6.12319
G1 X86.515 Y43.006 E6.13526
G1 X88.397 Y43.174 E6.14961 F1800.000
G1 X90.249 Y43.474 E6.16386
G1 X91.811 Y43.831 E6.17604
G1 X93.325 Y44.276 E6.18802
G1 X95.113 Y44.922 E6.20247
G1 X96.704 Y45.624 E6.21568
G1 X98.353 Y46.487 E6.22982
G1 X99.736 Y47.327 E6.24211
G1 X101.019 Y48.218 E6.25398
G1 X102.523 Y49.405 E6.26854
G1 X103.889 Y50.651 E6.28258
G1 X105.021 Y51.824 E6.29497
G1 X106.028 Y53.003 E6.30675
G1 X107.188 Y54.543 E6.32140
G1 X108.136 Y56.002 E6.33461
G1 X109.031 Y57.603 E6.34854
G1 X109.741 Y59.086 E6.36104
G1 X110.319 Y60.509 E6.37271
G1 X110.936 Y62.351 E6.38747
G1 X111.392 Y64.115 E6.40131
G1 X111.703 Y65.743 E6.41390
G1 X111.900 Y67.254 E6.42547
G1 X112.029 Y69.204 E6.44033
G1 X112.020 Y71.014 E6.45408
G1 X111.922 Y72.532 E6.46563
G1 X111.715 Y74.179 E6.47824
G1 X111.374 Y75.965 E6.49206
G1 X110.876 Y77.847 E6.50684
G1 X110.391 Y79.300 E6.51849
G1 X109.777 Y80.829 E6.53101
G1 X109.031 Y82.397 E6.54420
G1 X108.136 Y83.998 E6.55813
G1 X107.076 Y85.612 E6.57280
G1 X106.148 Y86.851 E6.58456
G1 X105.092 Y88.097 E6.59696
G1 X103.811 Y89.426 E6.61099
G1 X102.384 Y90.709 E6.62557
G1 X101.163 Y91.679 E6.63742
G1 X99.835 Y92.608 E6.64973
G1 X98.247 Y93.574 E6.66384
G1 X96.551 Y94.446 E6.67833
G1 X95.113 Y95.078 E6.69027
G1 X93.603 Y95.635 E6.70250
G1 X91.811 Y96.169 E6.71670
G1 X89.961 Y96.578 E6.73110
G1 X88.397 Y96.826 E6.74313
G1 X86.807 Y96.980 E6.75526
G1 X85.072 Y97.040 E6.76846
G1 X83.193 Y96.980 E6.78274
G1 X81.465 Y96.808 E6.79593
G1 X79.885 Y96.552 E6.80809
G1 X78.333 Y96.202 E6.82017
G1 X76.520 Y95.677 E6.83452
G1 X74.769 Y95.030 E6.84870
G1 X73.296 Y94.376 E6.86095
G1 X71.903 Y93.654 E6.87286
G1 X70.264 Y92.673 E6.88737
G1 X68.837 Y91.679 E6.90059
G1 X67.392 Y90.521 E6.91466
G1 X66.189 Y89.426 E6.92702
G1 X65.106 Y88.312 E6.93882
G1 X63.852 Y86.851 E6.95345
G1 X62.755 Y85.374 E6.96742
G1 X61.864 Y83.998 E6.97988
G1 X61.106 Y82.656 E6.99159
G1 X60.259 Y80.914 E7.00630
G1 X59.579 Y79.217 E7.02019
G1 X59.064 Y77.649 E7.03273
G1 X58.674 Y76.170 E7.04435
G1 X58.297 Y74.257 E7.05916
G1 X58.072 Y72.455 E7.07296
G1 X57.971 Y70.795 E7.08559
G1 X57.970 Y69.278 E7.09712
G1 X58.078 Y67.468 E7.11089
G1 X58.332 Y65.533 E7.12572
G1 X58.626 Y64.035 E7.13732
G1 X59.040 Y62.434 E7.14989
G1 X59.609 Y60.700 E7.16375
G1 X60.343 Y58.904 E7.17849
G1 X61.012 Y57.518 E7.19018
G1 X61.815 Y56.086 E7.20265
G1 X62.812 Y54.543 E7.21661
G1 X63.898 Y53.092 E7.23038
G1 F6240
G1 X64.979 Y51.824 E6.77385
G1 F6240
G1 X66.189 Y50.574 E6.29718
G1 F6240
G1 X67.477 Y49.405 E5.82050
G1 F6240
G1 X68.745 Y48.391 E5.37548
G1 F6240
G1 X68.880 Y48.296 E5.33038
G1 E5.23038 F1800.00000
G92 E0
G1 X103.954 Y83.965 F7800.000
G1 E2.00000 F1800.00000
G1 X102.979 Y85.200 E2.01195 F1800.000
G1 X101.923 Y86.367 E2.02391
G1 X100.792 Y87.461 E2.03586
G1 X99.591 Y88.477 E2.04781
G1 X98.324 Y89.410 E2.05977
G1 X96.998 Y90.256 E2.07172
G1 X95.618 Y91.013 E2.08368
G1 X94.178 Y91.680 E2.09573
G1 X92.723 Y92.240 E2.10758
G1 X91.220 Y92.707 E2.11953
G1 X89.689 Y93.071 E2.13149
G1 X88.138 Y93.333 E2.14344
G1 X86.572 Y93.490 E2.15539
G1 X85.000 Y93.543 E2.16735
G1 X83.427 Y93.490 E2.17930
G1 X81.862 Y93.333 E2.19125
G1 X80.311 Y93.071 E2.20321
G1 X78.793 Y92.710 E2.21506
G1 X77.277 Y92.240 E2.22711
G1 X75.809 Y91.675 E2.23907
G1 X74.382 Y91.013 E2.25102
G1 X73.002 Y90.256 E2.26297
G1 X71.676 Y89.410 E2.27493
G1 X70.409 Y88.477 E2.28688
G1 X69.208 Y87.461 E2.29883
G1 X68.077 Y86.367 E2.31079
G1 X67.021 Y85.200 E2.32274
G1 X66.046 Y83.965 E2.33469
G1 X65.156 Y82.668 E2.34665
G1 X64.361 Y81.326 E2.35850
G1 X63.644 Y79.910 E2.37055
G1 X63.030 Y78.462 E2.38251
G1 X62.514 Y76.975 E2.39446
G1 X62.098 Y75.458 E2.40641
G1 X61.785 Y73.916 E2.41837
G1 X61.575 Y72.357 E2.43032
G1 X61.470 Y70.787 E2.44227
G1 X61.470 Y69.213 E2.45423
G1 X61.575 Y67.643 E2.46618
G1 X61.785 Y66.084 E2.47813
G1 X62.098 Y64.542 E2.49009
G1 X62.510 Y63.038 E2.50194
G1 X63.030 Y61.539 E2.51399
G1 X63.644 Y60.090 E2.52595
G1 X64.354 Y58.686 E2.53790
G1 X65.156 Y57.332 E2.54986
G1 X66.055 Y56.024 E2.56191
G1 X67.021 Y54.800 E2.57376
G1 X68.077 Y53.633 E2.58572
G1 X69.218 Y52.531 E2.59777
G1 X70.409 Y51.523 E2.60962
G1 X71.676 Y50.590 E2.62157
G1 X73.002 Y49.744 E2.63353
G1 X74.370 Y48.994 E2.64538
G1 X75.809 Y48.325 E2.65743
G1 X77.277 Y47.760 E2.66939
G1 X78.780 Y47.293 E2.68134
G1 X80.311 Y46.929 E2.69329
G1 X81.862 Y46.667 E2.70525
G1 X83.441 Y46.509 E2.71730
G1 X85.000 Y46.457 E2.72915 F1800.000
G1 X86.572 Y46.510 E2.74111
G1 X88.138 Y46.667 E2.75306
G1 X89.689 Y46.929 E2.76501
G1 X91.220 Y47.293 E2.77697
G1 X92.723 Y47.760 E2.78892
G1 X94.191 Y48.325 E2.80088
G1 X95.618 Y48.987 E2.81283
G1 X96.998 Y49.744 E2.82478
G1 X98.324 Y50.590 E2.83674
G1 X99.591 Y51.523 E2.84869
G1 X100.792 Y52.539 E2.86064
G1 X101.932 Y53.643 E2.87270
G1 X102.979 Y54.800 E2.88455
G1 X103.954 Y56.035 E2.89650
G1 X104.844 Y57.332 E2.90846
G1 X105.646 Y58.686 E2.92041
G1 X106.356 Y60.090 E2.93236
G1 X106.970 Y61.538 E2.94432
G1 X107.482 Y63.012 E2.95617
G1 X107.902 Y64.542 E2.96822
G1 X108.215 Y66.084 E2.98018
G1 X108.425 Y67.643 E2.99213
G1 X108.530 Y69.213 E3.00408
G1 X108.530 Y70.787 E3.01604
G1 X108.426 Y72.343 E3.02789
G1 X108.215 Y73.916 E3.03994
G1 X107.902 Y75.458 E3.05190
G1 X107.486 Y76.975 E3.06385
G1 X106.970 Y78.462 E3.07580
G1 X106.356 Y79.910 E3.08776
G1 X105.646 Y81.314 E3.09971
G1 X104.844 Y82.668 E3.11166
G1 X103.996 Y83.903 E3.12305
G1 X103.755 Y83.819 F7800.000
G4 P31
G1 X102.790 Y85.041 E3.13487 F1800.000
G1 X101.746 Y86.196 E3.14670
G1 X100.627 Y87.278 E3.15853
G1 X99.438 Y88.283 E3.17036
G1 X98.185 Y89.207 E3.18219
G1 X96.872 Y90.044 E3.19402
G1 X95.507 Y90.793 E3.20584
G1 X94.082 Y91.453 E3.21777
G1 X92.642 Y92.008 E3.22950
G1 X91.155 Y92.469 E3.24133
G1 X89.640 Y92.830 E3.25316
G1 X88.105 Y93.089 E3.26498
G1 X86.556 Y93.245 E3.27681
G1 X85.000 Y93.297 E3.28864
G1 X83.444 Y93.245 E3.30047
G1 X81.895 Y93.089 E3.31230
G1 X80.360 Y92.830 E3.32413
G1 X78.858 Y92.472 E3.33585
G1 X77.358 Y92.008 E3.34778
G1 X75.905 Y91.448 E3.35961
G1 X74.493 Y90.793 E3.37144
G1 X73.128 Y90.044 E3.38327
G1 X71.815 Y89.207 E3.39510
G1 X70.562 Y88.283 E3.40692
G1 X69.373 Y87.278 E3.41875
G1 X68.254 Y86.196 E3.43058
G1 X67.210 Y85.041 E3.44241
G1 X66.245 Y83.819 E3.45424
G1 X65.364 Y82.535 E3.46606
G1 X64.577 Y81.207 E3.47779
G1 X63.868 Y79.806 E3.48972
G1 X63.260 Y78.373 E3.50155
G1 X62.749 Y76.902 E3.51338
G1 X62.338 Y75.401 E3.52521
