; generated by Slic3r 1.2.9 on 2017-08-27 at 01:22:24

; external perimeters extrusion width = 0.50mm
; perimeters extrusion width = 0.50mm
; infill extrusion width = 0.50mm
; solid infill extrusion width = 0.50mm
; top infill extrusion width = 0.50mm

M107
M190 S60 ; set bed temperature
M104 S210 ; set temperature
G28 ; home all axes
M109 S210 ; wait for temperature to be reached
G21 ; set units to millimeters
G90 ; use absolute coordinates
M82 ; use absolute distances for extrusion
G92 E0
G1 E-2.00000 F1800.00000
G92 E0
G1 Z0.250 F7800.000
G1 X65.849 Y45.924 F7800.000
G1 E2.00000 F1800.00000
M204 S3000
G1 X66.087 Y45.614 E2.00298 F1800.000
G1 X66.638 Y45.063 E2.00890
G1 X66.949 Y44.824 E2.01187
G1 X67.624 Y44.435 E2.01779
G1 X67.986 Y44.285 E2.02077
G1 X68.738 Y44.083 E2.02669
G1 X69.502 Y44.006 E2.03252
G1 X93.535 Y43.892 E2.21510
G1 X100.549 Y43.892 E2.26839
G1 X100.939 Y43.917 E2.27136
G1 X101.327 Y43.968 E2.27434 F1800.000
G1 X102.110 Y44.183 E2.28050
G1 X102.442 Y44.320 E2.28323
G1 X103.117 Y44.710 E2.28915
G1 X103.427 Y44.948 E2.29212
G1 X103.978 Y45.499 E2.29805
G1 X104.217 Y45.810 E2.30102
G1 X104.606 Y46.485 E2.30694
G1 X104.756 Y46.846 E2.30992
G1 X104.958 Y47.599 E2.31584
G1 X105.009 Y47.987 E2.31881
G1 X105.035 Y48.377 E2.32178
G1 X105.035 Y58.386 E2.39782
G1 X104.936 Y90.132 E2.63900
G1 X104.911 Y90.512 E2.64190
G1 X104.808 Y91.289 E2.64785
G1 X104.607 Y92.042 E2.65377
G1 X104.307 Y92.765 E2.65972
G1 X103.917 Y93.440 E2.66564
G1 X103.441 Y94.062 E2.67159
G1 X102.890 Y94.613 E2.67751
G1 X102.268 Y95.090 E2.68346
G1 X101.593 Y95.479 E2.68938
G1 X100.870 Y95.779 E2.69533
G1 X100.117 Y95.981 E2.70126
G1 X99.340 Y96.083 E2.70720
G1 X98.951 Y96.108 E2.71017
G1 X70.951 Y96.108 E2.92289
G1 X70.561 Y96.083 E2.92586
G1 X69.785 Y95.981 E2.93181
G1 X69.032 Y95.779 E2.93773
G1 X68.308 Y95.479 E2.94368
G1 X67.633 Y95.089 E2.94960
G1 X67.012 Y94.613 E2.95555
G1 X66.461 Y94.062 E2.96147
G1 X65.984 Y93.440 E2.96742
G1 X65.595 Y92.765 E2.97334
G1 X65.295 Y92.042 E2.97930
G1 X65.093 Y91.289 E2.98522
G1 X64.991 Y90.512 E2.99117
G1 X64.965 Y90.123 E2.99413
G1 X64.965 Y67.123 E3.16887
G1 X65.031 Y48.481 E3.31050
G1 X65.108 Y47.714 E3.31636
G1 X65.309 Y46.961 E3.32228
G1 X65.459 Y46.599 E3.32525
G1 X65.811 Y45.989 E3.33060
G1 X66.044 Y46.074 F7800.000
G4 P31
G1 X66.283 Y45.764 E3.33358 F1800.000
G1 X66.788 Y45.258 E3.33901
G1 X67.099 Y45.020 E3.34198
G1 X67.718 Y44.662 E3.34742
G1 X68.080 Y44.512 E3.35039
G1 X68.771 Y44.327 E3.35582
G1 X69.503 Y44.253 E3.36142
G1 X93.536 Y44.138 E3.54400
G1 X100.549 Y44.138 E3.59728
G1 X100.907 Y44.161 E3.60001
G1 X101.295 Y44.213 E3.60298 F1800.000
G1 X102.016 Y44.410 E3.60866
G1 X102.347 Y44.547 E3.61139
G1 X102.967 Y44.905 E3.61682
G1 X103.277 Y45.143 E3.61979
G1 X103.783 Y45.649 E3.62523
G1 X104.021 Y45.960 E3.62820
G1 X104.379 Y46.579 E3.63363
G1 X104.529 Y46.941 E3.63661
G1 X104.714 Y47.631 E3.64204
G1 X104.765 Y48.020 E3.64501
G1 X104.788 Y48.377 E3.64774
G1 X104.788 Y58.386 E3.72377
G1 X104.690 Y90.131 E3.96496
G1 X104.666 Y90.480 E3.96761
G1 X104.564 Y91.257 E3.97356
G1 X104.379 Y91.948 E3.97900
G1 X104.079 Y92.671 E3.98495
G1 X103.722 Y93.290 E3.99038
G1 X103.245 Y93.912 E3.99633
G1 X102.740 Y94.417 E4.00176
G1 X102.118 Y94.894 E4.00771
G1 X101.499 Y95.252 E4.01314
G1 X100.775 Y95.551 E4.01909
G1 X100.085 Y95.736 E4.02453
G1 X99.308 Y95.839 E4.03048
G1 X98.951 Y95.862 E4.03320
G1 X70.951 Y95.862 E4.24592
G1 X70.593 Y95.839 E4.24864
G1 X69.817 Y95.736 E4.25459
G1 X69.126 Y95.551 E4.26002
G1 X68.403 Y95.252 E4.26597
G1 X67.783 Y94.894 E4.27141
G1 X67.162 Y94.417 E4.27736
G1 X66.657 Y93.912 E4.28279
G1 X66.180 Y93.290 E4.28874
G1 X65.822 Y92.671 E4.29417
G1 X65.522 Y91.948 E4.30012
G1 X65.337 Y91.257 E4.30555
G1 X65.235 Y90.480 E4.31150
G1 X65.212 Y90.123 E4.31422
G1 X65.212 Y67.123 E4.48896
G1 X65.277 Y48.482 E4.63058
G1 X65.352 Y47.746 E4.63620
G1 X65.537 Y47.055 E4.64163
G1 X65.687 Y46.694 E4.64461
G1 X66.007 Y46.139 E4.64947
G1 X66.240 Y46.224 F7800.000
G4 P31
G1 X66.478 Y45.914 E4.65245 F1800.000
G1 X66.938 Y45.454 E4.65739
G1 X67.249 Y45.215 E4.66037
G1 X67.812 Y44.890 E4.66531
G1 X68.174 Y44.740 E4.66829
G1 X68.803 Y44.572 E4.67323
G1 X69.504 Y44.499 E4.67859
G1 X93.537 Y44.384 E4.86117
G1 X100.549 Y44.384 E4.91444
G1 X100.875 Y44.406 E4.91692
G1 X101.263 Y44.457 E4.91990 F1800.000
G1 X101.921 Y44.638 E4.92509
G1 X102.253 Y44.775 E4.92781
G1 X102.817 Y45.100 E4.93276
G1 X103.127 Y45.339 E4.93573
G1 X103.587 Y45.799 E4.94068
G1 X103.826 Y46.110 E4.94365
G1 X104.151 Y46.673 E4.94859
G1 X104.301 Y47.035 E4.95157
G1 X104.469 Y47.663 E4.95651
G1 X104.521 Y48.052 E4.95949
G1 X104.542 Y48.377 E4.96196
G1 X104.542 Y58.385 E5.03800
G1 X104.444 Y90.131 E5.27918
G1 X104.422 Y90.448 E5.28160
G1 X104.320 Y91.225 E5.28755
G1 X104.152 Y91.853 E5.29249
G1 X103.852 Y92.577 E5.29844
G1 X103.526 Y93.140 E5.30338
G1 X103.050 Y93.762 E5.30933
G1 X102.590 Y94.222 E5.31428
G1 X101.968 Y94.699 E5.32023
G1 X101.405 Y95.024 E5.32517
G1 X100.681 Y95.324 E5.33112
G1 X100.053 Y95.492 E5.33607
G1 X99.276 Y95.594 E5.34202
G1 X98.951 Y95.616 E5.34449
G1 X70.951 Y95.616 E5.55722
G1 X70.625 Y95.594 E5.55969
G1 X69.849 Y95.492 E5.56564
G1 X69.220 Y95.324 E5.57059
G1 X68.497 Y95.024 E5.57654
G1 X67.933 Y94.699 E5.58148
G1 X67.312 Y94.222 E5.58743
G1 X66.852 Y93.762 E5.59237
G1 X66.375 Y93.140 E5.59832
G1 X66.050 Y92.577 E5.60327
G1 X65.750 Y91.853 E5.60922
G1 X65.582 Y91.225 E5.61416
G1 X65.479 Y90.448 E5.62011
G1 X65.458 Y90.123 E5.62259
G1 X65.458 Y67.123 E5.79732
G1 X65.524 Y48.483 E5.93894
G1 X65.596 Y47.778 E5.94432
G1 X65.765 Y47.150 E5.94926
G1 X65.914 Y46.788 E5.95224
G1 X66.202 Y46.289 E5.95661
G1 X66.435 Y46.374 F7800.000
G4 P31
G1 X66.674 Y46.064 E5.95959 F1800.000
G1 X67.088 Y45.649 E5.96404
G1 X67.399 Y45.411 E5.96702
G1 X67.907 Y45.117 E5.97147
G1 X68.269 Y44.968 E5.97445
G1 X68.835 Y44.816 E5.97890
G1 X69.506 Y44.745 E5.98403
G1 X93.538 Y44.631 E6.16661
G1 X100.549 Y44.631 E6.21987
G1 X100.842 Y44.650 E6.22211
G1 X101.231 Y44.701 E6.22508 F1800.000
G1 X101.827 Y44.865 E6.22978
G1 X102.159 Y45.003 E6.23251
G1 X102.667 Y45.296 E6.23696
G1 X102.977 Y45.534 E6.23994
G1 X103.392 Y45.949 E6.24440
G1 X103.630 Y46.260 E6.24737
G1 X103.924 Y46.767 E6.25183
G1 X104.073 Y47.129 E6.25480
G1 X104.225 Y47.696 E6.25926
G1 X104.276 Y48.084 E6.26223
G1 X104.296 Y48.377 E6.26446
G1 X104.296 Y58.384 E6.34049
G1 X104.197 Y90.130 E6.58167
G1 X104.178 Y90.416 E6.58385
G1 X104.076 Y91.193 E6.58980
G1 X103.924 Y91.759 E6.59426
G1 X103.624 Y92.483 E6.60021
G1 X103.331 Y92.990 E6.60466
G1 X102.854 Y93.612 E6.61061
G1 X102.440 Y94.026 E6.61507
G1 X101.818 Y94.503 E6.62102
G1 X101.310 Y94.796 E6.62547
G1 X100.587 Y95.096 E6.63142
G1 X100.020 Y95.248 E6.63588
G1 X99.244 Y95.350 E6.64183
G1 X98.951 Y95.369 E6.64406
G1 X70.951 Y95.369 E6.85678
G1 X70.658 Y95.350 E6.85901
G1 X69.881 Y95.248 E6.86496
G1 X69.315 Y95.096 E6.86942
G1 X68.591 Y94.796 E6.87537
G1 X68.083 Y94.503 E6.87982
G1 X67.462 Y94.026 E6.88577
G1 X67.047 Y93.612 E6.89023
G1 X66.571 Y92.990 E6.89618
G1 X66.277 Y92.483 E6.90063
G1 X65.978 Y91.759 E6.90658
G1 X65.826 Y91.193 E6.91104
G1 X65.724 Y90.416 E6.91699
G1 X65.704 Y90.123 E6.91922
G1 X65.704 Y67.123 E7.09396
G1 X65.770 Y48.484 E7.23556
G1 X65.840 Y47.810 E7.24071
G1 X65.992 Y47.244 E7.24516
G1 X66.142 Y46.882 E7.24814
G1 X66.398 Y46.439 E7.25202
G1 F6240
G1 X66.674 Y46.064 E7.12429
G1 F6240
G1 X67.088 Y45.649 E6.96359
G1 F6240
G1 X67.399 Y45.411 E6.85628
G1 F6240
G1 X67.907 Y45.117 E6.69559
G1 F6240
G1 X68.269 Y44.968 E6.58825
G1 F6240
G1 X68.835 Y44.816 E6.42758
G1 F6240
G1 X69.506 Y44.745 E6.24277
G1 F6240
G1 X72.756 Y44.730 E5.35202
G1 E5.25202 F1800.00000
G92 E0
G1 X74.791 Y91.095 F7800.000
G1 E2.00000 F1800.00000
G1 X74.615 Y91.538 E2.00362 F1800.000
G1 X74.335 Y91.923 E2.00723
G1 X73.969 Y92.227 E2.01085
G1 X73.538 Y92.429 E2.01447
G1 X73.069 Y92.519 E2.01809
G1 X72.586 Y92.486 E2.02177
G1 X72.142 Y92.342 E2.02532
G1 X71.739 Y92.086 E2.02894
G1 X71.410 Y91.732 E2.03262
G1 X71.185 Y91.322 E2.03617
G1 X71.066 Y90.861 E2.03979
G1 X71.066 Y90.385 E2.04340
G1 X71.185 Y89.924 E2.04702
G1 X71.414 Y89.506 E2.05064
G1 X71.740 Y89.159 E2.05426
G1 X72.143 Y88.904 E2.05788
G1 X72.604 Y88.757 E2.06156
G1 X73.070 Y88.727 E2.06511 F1800.000
G1 X73.538 Y88.816 E2.06872
G1 X73.969 Y89.019 E2.07234
G1 X74.335 Y89.323 E2.07596
G1 X74.615 Y89.708 E2.07958
G1 X74.791 Y90.151 E2.08319
G1 X74.850 Y90.623 E2.08681
G1 X74.800 Y91.021 E2.08986
G1 X74.550 Y91.034 F7800.000
G1 X74.398 Y91.418 E2.09300 F1800.000
G1 X74.154 Y91.753 E2.09615
G1 X73.836 Y92.017 E2.09929
G1 X73.461 Y92.193 E2.10244
G1 X73.054 Y92.271 E2.10558
G1 X72.634 Y92.242 E2.10879
G1 X72.248 Y92.117 E2.11187
G1 X71.898 Y91.895 E2.11502
G1 X71.611 Y91.586 E2.11822
G1 X71.416 Y91.231 E2.12130
G1 X71.313 Y90.830 E2.12444
G1 X71.313 Y90.416 E2.12759
G1 X71.416 Y90.015 E2.13073
G1 X71.615 Y89.652 E2.13388
G1 X71.898 Y89.351 E2.13702
G1 X72.248 Y89.129 E2.14017
G1 X72.650 Y89.000 E2.14337
G1 X73.054 Y88.975 E2.14645 F1800.000
G1 X73.461 Y89.053 E2.14960
G1 X73.836 Y89.229 E2.15274
G1 X74.154 Y89.493 E2.15589
G1 X74.398 Y89.827 E2.15903
G1 X74.550 Y90.212 E2.16218
G1 X74.602 Y90.623 E2.16532
G1 X74.560 Y90.959 E2.16790
G4 P22
G1 X74.833 Y91.335 F7800.000
G4 P29
G1 X74.808 Y92.266 F7800.000
G4 P26
G1 X95.094 Y92.266 E2.32201 F1800.000
G1 X95.094 Y91.753 E2.32590
G4 P16
G1 X95.580 Y92.277 E2.33133
G1 X95.733 Y92.374 E2.33271
G1 X95.702 Y92.480 E2.33355
G1 X74.049 Y92.480 E2.49805
G1 X74.516 Y92.093 E2.50267
G1 X74.706 Y91.832 E2.50512
G4 P2
G1 X74.808 Y91.866 E2.50593
G1 X74.808 Y92.191 E2.50840
G1 F6240
G1 X81.741 Y92.216 E0.60840
G1 E0.50840 F1800.00000
G92 E0
G1 X95.066 Y90.860 F7800.000
G1 E2.00000 F1800.00000
G1 X95.068 Y90.376 E2.00368 F1800.000
G1 X95.185 Y89.924 E2.00723
G1 X95.414 Y89.506 E2.01084
G1 X95.740 Y89.159 E2.01446
G1 X96.143 Y88.904 E2.01809
G1 X96.604 Y88.757 E2.02176
G1 X97.070 Y88.727 E2.02531 F1800.000
G1 X97.538 Y88.816 E2.02893
G1 X97.969 Y89.019 E2.03254
G1 X98.335 Y89.323 E2.03616
G1 X98.615 Y89.708 E2.03978
G1 X98.791 Y90.151 E2.04340
G1 X98.850 Y90.623 E2.04701
G1 X98.791 Y91.095 E2.05063
G1 X98.615 Y91.538 E2.05425
G1 X98.335 Y91.923 E2.05787
G1 X97.969 Y92.227 E2.06148
G1 X97.538 Y92.429 E2.06510
G1 X97.070 Y92.519 E2.06872
G1 X96.595 Y92.489 E2.07234
G1 X96.142 Y92.342 E2.07595
G1 X95.739 Y92.086 E2.07958
G1 X95.410 Y91.732 E2.08325
G1 X95.185 Y91.322 E2.08680
G1 X95.085 Y90.933 E2.08986
G1 X95.313 Y90.830 F7800.000
G1 X95.315 Y90.408 E2.09306 F1800.000
G1 X95.416 Y90.015 E2.09614
G1 X95.615 Y89.652 E2.09929
G1 X95.898 Y89.351 E2.10243
G1 X96.248 Y89.129 E2.10558
G1 X96.650 Y89.000 E2.10878
G1 X97.054 Y88.975 E2.11186 F1800.000
G1 X97.461 Y89.053 E2.11501
G1 X97.836 Y89.229 E2.11815
G1 X98.154 Y89.493 E2.12130
G1 X98.398 Y89.827 E2.12444
G1 X98.550 Y90.212 E2.12759
G1 X98.602 Y90.623 E2.13073
G1 X98.550 Y91.034 E2.13388
G1 X98.398 Y91.418 E2.13702
G1 X98.154 Y91.753 E2.14016
G1 X97.836 Y92.017 E2.14331
G1 X97.461 Y92.193 E2.14645
G1 X97.054 Y92.271 E2.14960
G1 X96.641 Y92.245 E2.15274
G1 X96.248 Y92.117 E2.15589
G1 X95.898 Y91.895 E2.15903
G1 X95.611 Y91.586 E2.16224
G1 X95.416 Y91.231 E2.16532
G1 X95.331 Y90.902 E2.16790
G1 X94.932 Y90.649 F7800.000
G1 F6240
G1 X95.315 Y90.408 E2.03241
G1 F6240
G1 X95.416 Y90.015 E1.92124
G1 F6240
G1 X95.615 Y89.652 E1.80781
G1 F6240
G1 X95.898 Y89.351 E1.69439
G1 F6240
G1 X96.248 Y89.129 E1.58086
G1 F6240
G1 X96.650 Y89.000 E1.46536
G1 E0.16790 F1800.00000
G92 E0
G1 X96.718 Y68.497 F7800.000
G1 E2.00000 F1800.00000
G1 X96.595 Y68.489 E2.00093 F1800.000
G1 X96.142 Y68.342 E2.00455
G1 X95.739 Y68.086 E2.00818
G1 X95.410 Y67.732 E2.01185
G1 X95.185 Y67.322 E2.01540
G1 X95.066 Y66.861 E2.01902
G1 X95.066 Y66.385 E2.02264
G1 X95.185 Y65.924 E2.02625
G1 X95.414 Y65.506 E2.02987
G1 X95.740 Y65.159 E2.03349
G1 X96.143 Y64.904 E2.03711
G1 X96.604 Y64.757 E2.04079
G1 X97.070 Y64.727 E2.04434 F1800.000
G1 X97.538 Y64.816 E2.04796
G1 X97.969 Y65.019 E2.05157
G1 X98.335 Y65.323 E2.05519
G1 X98.615 Y65.708 E2.05881
G1 X98.791 Y66.151 E2.06243
G1 X98.850 Y66.623 E2.06604
G1 X98.791 Y67.095 E2.06966
G1 X98.615 Y67.538 E2.07328
G1 X98.335 Y67.923 E2.07690
G1 X97.969 Y68.227 E2.08051
G1 X97.538 Y68.429 E2.08413
G1 X97.070 Y68.519 E2.08775
G1 X96.792 Y68.501 E2.08986
G1 X96.733 Y68.251 F7800.000
G1 X96.641 Y68.245 E2.09056 F1800.000
G1 X96.248 Y68.117 E2.09370
G1 X95.898 Y67.895 E2.09685
G1 X95.611 Y67.586 E2.10005
G1 X95.416 Y67.231 E2.10313
G1 X95.313 Y66.830 E2.10628
G1 X95.313 Y66.416 E2.10942
G1 X95.416 Y66.015 E2.11257
G1 X95.615 Y65.652 E2.11571
G1 X95.898 Y65.351 E2.11886
G1 X96.248 Y65.129 E2.12200
G1 X96.650 Y65.000 E2.12521
G1 X97.054 Y64.975 E2.12829 F1800.000
G1 X97.461 Y65.053 E2.13143
G1 X97.836 Y65.229 E2.13458
G1 X98.154 Y65.493 E2.13772
G1 X98.398 Y65.827 E2.14087
G1 X98.550 Y66.212 E2.14401
G1 X98.602 Y66.623 E2.14716
G1 X98.550 Y67.034 E2.15030
G1 X98.398 Y67.418 E2.15344
G1 X98.154 Y67.753 E2.15659
G1 X97.836 Y68.017 E2.15973
G1 X97.461 Y68.193 E2.16288
G1 X97.054 Y68.271 E2.16602
G1 X96.808 Y68.255 E2.16790
G4 P25
G1 X96.682 Y68.327 F7800.000
G1 F6240
G4 P32
G1 X96.641 Y68.245 E2.12219
G1 F6240
G1 X96.248 Y68.117 E2.00876
G1 F6240
G1 X95.898 Y67.895 E1.89523
G1 F6240
G1 X95.611 Y67.586 E1.77973
G1 F6240
G1 X95.416 Y67.231 E1.66855
G1 F6240
G1 X95.313 Y66.830 E1.55513
G1 F6240
G1 X95.313 Y66.416 E1.44171
G1 F6240
G1 X95.416 Y66.015 E1.32828
G1 F6240
G1 X95.615 Y65.652 E1.21486
G1 F6240
G1 X95.898 Y65.351 E1.10143
G1 F6240
G1 X96.248 Y65.129 E0.98790
G1 F6240
G1 X96.650 Y65.000 E0.87240
G1 E0.16790 F1800.00000
G92 E0
G4 P13
G1 X95.094 Y64.980 F7800.000
G1 E2.00000 F1800.00000
G1 X74.808 Y64.980 E2.15411 F1800.000
G1 X74.808 Y65.380 E2.15715
G1 X74.706 Y65.413 E2.15797
G4 P16
G1 X74.516 Y65.153 E2.16042
G1 X74.049 Y64.766 E2.16503
G4 P2
G1 X95.699 Y64.768 E2.32951
G1 X95.730 Y64.874 E2.33035
G1 X95.582 Y64.968 E2.33168
G1 X95.094 Y65.488 E2.33710
G1 X95.094 Y65.055 E2.34039
G1 F6240
G1 X88.160 Y65.030 E0.44039
G1 E0.34039 F1800.00000
G92 E0
G1 X98.594 Y68.480 F7800.000
G1 E2.00000 F1800.00000
G1 X98.049 Y68.480 E2.00414 F1800.000
G4 P15
G1 X98.516 Y68.093 E2.00875
G1 X98.833 Y67.658 E2.01284
G1 X99.031 Y67.157 E2.01693
G1 X99.099 Y66.623 E2.02102
G1 X99.031 Y66.089 E2.02511
G1 X98.833 Y65.588 E2.02920
G1 X98.516 Y65.153 E2.03329
G1 X98.051 Y64.768 E2.03788
G1 X98.925 Y64.768 E2.04452
G1 X99.559 Y64.851 E2.04938
G1 X100.127 Y65.086 E2.05405
G1 X100.614 Y65.460 E2.05871
G1 X100.987 Y65.947 E2.06338
G1 X101.222 Y66.514 E2.06804
G1 X101.308 Y67.165 E2.07303
G1 X101.308 Y72.607 E2.11437
G1 X101.185 Y72.730 E2.11570
G1 X100.308 Y72.730 E2.12235
G1 X100.308 Y84.516 E2.21189
G1 X101.185 Y84.516 E2.21855
G1 X101.308 Y84.639 E2.21988
G1 X101.308 Y90.081 E2.26122
G1 X101.222 Y90.732 E2.26621
G1 X100.987 Y91.299 E2.27087
G1 X100.614 Y91.786 E2.27553
G1 X100.127 Y92.160 E2.28020
G1 X99.559 Y92.395 E2.28486
G1 X98.909 Y92.480 E2.28985
G1 X98.049 Y92.480 E2.29638
G1 X98.516 Y92.093 E2.30100
G1 X98.833 Y91.658 E2.30509
G1 X99.031 Y91.157 E2.30918
G1 X99.099 Y90.623 E2.31327
G1 X99.031 Y90.089 E2.31736
G1 X98.833 Y89.588 E2.32145
G1 X98.516 Y89.153 E2.32554
G1 X98.049 Y88.766 E2.33015
G1 X98.594 Y88.766 E2.33429
G1 X98.594 Y68.555 E2.48783
G1 X98.347 Y68.727 F7800.000
G1 X98.347 Y88.519 E2.63820 F1800.000
G1 X96.977 Y88.519 E2.64861
G1 X96.407 Y88.594 E2.65298
G1 X95.901 Y88.804 E2.65714
G1 X95.466 Y89.138 E2.66131
G1 X95.132 Y89.573 E2.66548
G1 X94.922 Y90.079 E2.66964
G1 X94.847 Y90.649 E2.67400
G1 X94.847 Y92.019 E2.68442
G1 X75.054 Y92.019 E2.83479
G1 X75.054 Y90.649 E2.84520
G1 X74.979 Y90.079 E2.84956
G1 X74.770 Y89.573 E2.85373
G1 X74.436 Y89.138 E2.85789
G1 X74.001 Y88.804 E2.86206
G1 X73.494 Y88.594 E2.86622
G1 X72.925 Y88.519 E2.87059
G1 X71.554 Y88.519 E2.88100
G1 X71.554 Y68.727 E3.03137
G1 X72.925 Y68.727 E3.04178
G1 X73.494 Y68.652 E3.04614
G1 X74.001 Y68.442 E3.05031
G1 X74.436 Y68.108 E3.05447
G1 X74.770 Y67.673 E3.05864
G1 X74.979 Y67.167 E3.06281
G1 X75.054 Y66.597 E3.06717
G1 X75.054 Y65.227 E3.07758
G1 X94.847 Y65.227 E3.22795
G1 X94.847 Y66.597 E3.23836
