; generated by Slic3r 1.2.9 on 2017-08-27 at 00:50:17

; external perimeters extrusion width = 0.50mm
; perimeters extrusion width = 0.50mm
; infill extrusion width = 0.50mm
; solid infill extrusion width = 0.50mm
; top infill extrusion width = 0.50mm

M107
M190 S60 ; set bed temperature
M104 S210 ; set temperature
G28 ; home all axes
M109 S210 ; wait for temperature to be reached
G21 ; set units to millimeters
G90 ; use absolute coordinates
M82 ; use absolute distances for extrusion
G92 E0
G1 E-2.00000 F1800.00000
G92 E0
G1 Z0.250 F7800.000
G1 X70.908 Y43.878 F7800.000
G1 E2.00000 F1800.00000
M204 S3000
G1 X71.984 Y42.787 E2.01164 F1800.000
G1 X73.500 Y42.374 E2.02358
G1 X88.667 Y42.378 E2.13881
G1 X89.559 Y42.428 E2.14560 F1800.000
G1 X89.891 Y42.466 E2.14813
G1 X90.772 Y42.615 E2.15492
G1 X91.097 Y42.689 E2.15746
G1 X91.957 Y42.935 E2.16425
G1 X92.272 Y43.045 E2.16678
G1 X93.098 Y43.386 E2.17357
G1 X93.399 Y43.530 E2.17611
G1 X94.182 Y43.961 E2.18290
G1 X94.465 Y44.138 E2.18543
G1 X95.195 Y44.654 E2.19222
G1 X95.456 Y44.861 E2.19476
G1 X96.124 Y45.455 E2.20155
G1 X96.361 Y45.690 E2.20408
G1 X96.959 Y46.355 E2.21087
G1 X97.167 Y46.615 E2.21341
G1 X97.687 Y47.342 E2.22020
G1 X97.866 Y47.624 E2.22273
G1 X98.301 Y48.405 E2.22953
G1 X98.447 Y48.705 E2.23206
G1 X98.793 Y49.529 E2.23885
G1 X98.904 Y49.844 E2.24139
G1 X99.156 Y50.701 E2.24818
G1 X99.231 Y51.026 E2.25071
G1 X99.386 Y51.907 E2.25750
G1 X99.425 Y52.238 E2.26004
G1 X99.485 Y53.314 E2.26822
G1 X99.485 Y80.955 E2.47822
G1 X99.437 Y81.997 E2.48615
G1 X99.401 Y82.329 E2.48868
G1 X99.257 Y83.211 E2.49547
G1 X99.185 Y83.537 E2.49801
G1 X98.943 Y84.398 E2.50480
G1 X98.835 Y84.713 E2.50733
G1 X98.499 Y85.541 E2.51412
G1 X98.356 Y85.843 E2.51666
G1 X97.930 Y86.629 E2.52345
G1 X91.568 Y96.286 E2.61131
G1 X90.424 Y97.305 E2.62295
G1 X89.076 Y97.626 E2.63347
G1 X73.500 Y97.626 E2.75181
G1 X72.019 Y97.233 E2.76345
G1 X70.928 Y96.157 E2.77509
G1 X70.515 Y94.641 E2.78703
G1 X70.515 Y45.359 E3.16144
G1 X70.889 Y43.950 E3.17251
G1 X71.154 Y43.946 F7800.000
G1 X72.219 Y42.938 E3.18366 F1800.000
G1 X73.500 Y42.620 E3.19368
G1 X88.653 Y42.624 E3.30880
G1 X89.546 Y42.674 E3.31559 F1800.000
G1 X89.850 Y42.708 E3.31792
G1 X90.731 Y42.858 E3.32471
G1 X91.030 Y42.925 E3.32704
G1 X91.889 Y43.172 E3.33383
G1 X92.178 Y43.273 E3.33615
G1 X93.004 Y43.614 E3.34294
G1 X93.280 Y43.746 E3.34527
G1 X94.063 Y44.177 E3.35206
G1 X94.323 Y44.339 E3.35438
G1 X95.053 Y44.855 E3.36118
G1 X95.293 Y45.045 E3.36350
G1 X95.961 Y45.639 E3.37029
G1 X96.178 Y45.855 E3.37262
G1 X96.775 Y46.520 E3.37941
G1 X96.967 Y46.758 E3.38173
G1 X97.487 Y47.486 E3.38853
G1 X97.651 Y47.744 E3.39085
G1 X98.086 Y48.525 E3.39764
G1 X98.220 Y48.800 E3.39997
G1 X98.565 Y49.624 E3.40676
G1 X98.668 Y49.913 E3.40908
G1 X98.919 Y50.771 E3.41587
G1 X98.989 Y51.069 E3.41820
G1 X99.143 Y51.949 E3.42499
G1 X99.179 Y52.253 E3.42732
G1 X99.239 Y53.314 E3.43539
G1 X99.239 Y80.955 E3.64538
G1 X99.191 Y81.985 E3.65322
G1 X99.158 Y82.289 E3.65554
G1 X99.014 Y83.172 E3.66233
G1 X98.948 Y83.470 E3.66466
G1 X98.706 Y84.331 E3.67145
G1 X98.607 Y84.621 E3.67378
G1 X98.271 Y85.449 E3.68057
G1 X98.140 Y85.725 E3.68289
G1 X97.713 Y86.511 E3.68968
G1 X91.362 Y96.150 E3.77738
G1 X90.256 Y97.113 E3.78852
G1 X89.076 Y97.380 E3.79771
G1 X73.500 Y97.380 E3.91605
G1 X72.087 Y96.987 E3.92719
G1 X71.079 Y95.922 E3.93834
G1 X70.761 Y94.641 E3.94836
G1 X70.761 Y45.359 E4.32277
G1 X71.134 Y44.019 E4.33334
G1 X71.399 Y44.018 F7800.000
G1 X72.452 Y43.097 E4.34396 F1800.000
G1 X73.500 Y42.866 E4.35212
G1 X88.639 Y42.870 E4.46713
G1 X89.532 Y42.920 E4.47393 F1800.000
G1 X90.690 Y43.101 E4.48283
G1 X91.821 Y43.409 E4.49174
G1 X92.910 Y43.841 E4.50064
G1 X93.161 Y43.962 E4.50276
G1 X94.181 Y44.541 E4.51166
G1 X95.129 Y45.229 E4.52057
G1 X95.995 Y46.020 E4.52947
G1 X96.592 Y46.684 E4.53626
G1 X97.286 Y47.629 E4.54517
G1 X97.871 Y48.645 E4.55407
G1 X98.338 Y49.720 E4.56298
G1 X98.683 Y50.840 E4.57188
G1 X98.746 Y51.111 E4.57400
G1 X98.933 Y52.268 E4.58290
G1 X98.993 Y53.314 E4.59086
G1 X98.993 Y80.955 E4.80085
G1 X98.945 Y81.973 E4.80859
G1 X98.915 Y82.250 E4.81071
G1 X98.711 Y83.404 E4.81962
G1 X98.379 Y84.528 E4.82852
G1 X98.043 Y85.356 E4.83531
G1 X97.497 Y86.394 E4.84422
G1 X91.157 Y96.014 E4.93175
G1 X90.090 Y96.918 E4.94237
G1 X89.076 Y97.134 E4.95025
G1 X73.500 Y97.134 E5.06858
G1 X72.158 Y96.742 E5.07920
G1 X71.238 Y95.689 E5.08982
G1 X71.007 Y94.641 E5.09798
G1 X71.007 Y45.359 E5.47239
G1 X71.378 Y44.090 E5.48243
G1 X71.644 Y44.094 F7800.000
G4 P31
G1 X72.682 Y43.267 E5.49251 F1800.000
G1 X73.500 Y43.113 E5.49883
G1 X88.626 Y43.116 E5.61375
G1 X89.518 Y43.166 E5.62054 F1800.000
G1 X90.649 Y43.343 E5.62923
G1 X91.753 Y43.646 E5.63793
G1 X92.816 Y44.069 E5.64662
G1 X93.826 Y44.609 E5.65532
G1 X94.769 Y45.257 E5.66402
G1 X94.965 Y45.413 E5.66592
G1 X95.811 Y46.184 E5.67462
G1 X96.566 Y47.045 E5.68331
G1 X97.086 Y47.772 E5.69011
G1 X97.656 Y48.765 E5.69880
G1 X98.111 Y49.815 E5.70750
G1 X98.446 Y50.909 E5.71619
G1 X98.503 Y51.154 E5.71810
G1 X98.687 Y52.283 E5.72680
G1 X98.746 Y53.314 E5.73464
G1 X98.746 Y80.955 E5.94463
G1 X98.672 Y82.210 E5.95418
G1 X98.473 Y83.337 E5.96288
G1 X98.150 Y84.435 E5.97158
G1 X97.814 Y85.263 E5.97837
G1 X97.280 Y86.276 E5.98706
G1 X90.951 Y95.879 E6.07444
G1 X89.927 Y96.720 E6.08451
G1 X89.076 Y96.887 E6.09109
G1 X73.500 Y96.887 E6.20943
G1 X72.234 Y96.496 E6.21950
G1 X71.408 Y95.459 E6.22957
G1 X71.254 Y94.641 E6.23590
G1 X71.254 Y45.359 E6.61030
G1 X71.622 Y44.165 E6.61980
G1 F6240
G1 X72.682 Y43.267 E6.23911
G1 F6240
G1 X73.500 Y43.113 E6.01095
G1 F6240
G1 X78.212 Y43.114 E4.71980
G1 E4.61980 F1800.00000
G92 E0
G1 X82.541 Y65.972 F7800.000
G1 E2.00000 F1800.00000
G1 X79.325 Y65.266 E2.02502 F1800.000
G1 X80.781 Y58.632 E2.07662
G1 X83.997 Y59.337 E2.10164
G1 X82.557 Y65.899 E2.15267
G1 X82.353 Y65.679 F7800.000
G1 X79.618 Y65.079 E2.17394 F1800.000
G1 X80.968 Y58.925 E2.22181
G1 X83.703 Y59.525 E2.24308
G1 X82.369 Y65.605 E2.29037
G1 X82.246 Y66.167 F7800.000
G1 F6240
G1 X79.618 Y65.079 E1.52279
G1 F6240
G1 X80.504 Y61.042 E0.39037
G1 E0.29037 F1800.00000
G92 E0
G1 X79.032 Y65.454 F7800.000
G1 E2.00000 F1800.00000
G1 X82.546 Y66.225 E2.02734 F1800.000
G1 X82.532 Y66.357 E2.02835
G1 X74.143 Y66.357 E2.09208
G1 X74.143 Y46.002 E2.24673
G1 X88.482 Y46.002 E2.35567
G1 X89.303 Y46.048 E2.36191
G1 X90.132 Y46.186 E2.36830
G1 X90.921 Y46.413 E2.37454
G1 X91.681 Y46.726 E2.38078
G1 X92.401 Y47.122 E2.38703
G1 X93.058 Y47.586 E2.39314
G1 X93.688 Y48.143 E2.39952
G1 X94.237 Y48.754 E2.40576
G1 X94.715 Y49.423 E2.41201
G1 X95.115 Y50.141 E2.41825
G1 X95.426 Y50.882 E2.42436
G1 X95.664 Y51.688 E2.43075
G1 X95.806 Y52.497 E2.43699
G1 X95.856 Y53.317 E2.44323
G1 X95.815 Y54.138 E2.44947
G1 X95.682 Y54.950 E2.45572
G1 X95.460 Y55.741 E2.46196
G1 X95.151 Y56.503 E2.46821
G1 X94.759 Y57.225 E2.47445
G1 X94.288 Y57.899 E2.48070
G1 X93.746 Y58.516 E2.48694
G1 X93.138 Y59.069 E2.49319
G1 X92.472 Y59.551 E2.49943
G1 X91.756 Y59.956 E2.50568
G1 X91.000 Y60.278 E2.51192
G1 X89.815 Y60.632 E2.52131
G1 X88.559 Y66.357 E2.56584
G1 X87.828 Y66.357 E2.57140
G1 X89.347 Y59.433 E2.62526
G1 X89.617 Y59.401 E2.62733
G1 X90.363 Y59.214 E2.63317
G1 X91.079 Y58.935 E2.63901
G1 X91.755 Y58.570 E2.64485
G1 X92.381 Y58.122 E2.65069
G1 X92.945 Y57.601 E2.65653
G1 X93.440 Y57.012 E2.66237
G1 X93.857 Y56.367 E2.66821
G1 X94.191 Y55.674 E2.67405
G1 X94.439 Y54.931 E2.68000
G1 X94.587 Y54.192 E2.68573
G1 X94.644 Y53.424 E2.69157
G1 X94.601 Y52.643 E2.69752
G1 X94.468 Y51.901 E2.70325
G1 X94.240 Y51.167 E2.70909
G1 X93.921 Y50.467 E2.71493
G1 X93.517 Y49.812 E2.72077
G1 X93.025 Y49.204 E2.72672
G1 X92.482 Y48.680 E2.73245
G1 X91.867 Y48.220 E2.73829
G1 X91.199 Y47.840 E2.74413
G1 X90.488 Y47.545 E2.74997
G1 X89.732 Y47.341 E2.75592
G1 X88.986 Y47.234 E2.76165
G1 X88.217 Y47.222 E2.76749
G1 X87.453 Y47.305 E2.77333
G1 X86.705 Y47.483 E2.77917
G1 X85.972 Y47.760 E2.78512
G1 X85.305 Y48.111 E2.79085
G1 X84.675 Y48.551 E2.79669
G1 X84.105 Y49.066 E2.80253
G1 X83.603 Y49.649 E2.80837
G1 X83.178 Y50.289 E2.81421
G1 X82.836 Y50.978 E2.82005
G1 X82.583 Y51.704 E2.82589
G1 X82.423 Y52.457 E2.83173
G1 X82.358 Y53.237 E2.83768
G1 X82.389 Y53.990 E2.84341
G1 X82.515 Y54.748 E2.84925
G1 X82.735 Y55.484 E2.85509
G1 X83.046 Y56.188 E2.86093
G1 X83.442 Y56.847 E2.86677
G1 X83.917 Y57.451 E2.87261
G1 X84.464 Y57.991 E2.87845
G1 X85.074 Y58.459 E2.88429
G1 X85.738 Y58.847 E2.89013
G1 X86.444 Y59.149 E2.89597
G1 X86.564 Y59.183 E2.89692
G1 X84.991 Y66.357 E2.95272
G1 X82.709 Y66.357 E2.97005
G1 X84.290 Y59.149 E3.02611
G1 X80.593 Y58.338 E3.05487
G1 X79.048 Y65.381 E3.10965
G1 F6240
G1 X82.546 Y66.225 E2.12331
G1 F6240
G1 X82.532 Y66.357 E2.08696
G1 F6240
G1 X79.331 Y66.357 E1.20965
G1 E1.10965 F1800.00000
G92 E0
G1 X73.896 Y66.604 F7800.000
G1 E2.00000 F1800.00000
G1 X73.896 Y45.755 E2.15839 F1800.000
G1 X88.489 Y45.755 E2.26925
G1 X89.330 Y45.802 E2.27565
G1 X90.186 Y45.945 E2.28225
G1 X91.002 Y46.180 E2.28870
G1 X91.788 Y46.504 E2.29515
G1 X92.532 Y46.913 E2.30161
G1 X93.211 Y47.393 E2.30792
G1 X93.861 Y47.968 E2.31452
G1 X94.429 Y48.599 E2.32097
G1 X94.923 Y49.291 E2.32742
G1 X95.337 Y50.033 E2.33388
G1 X95.658 Y50.799 E2.34019
G1 X95.904 Y51.632 E2.34679
G1 X96.051 Y52.468 E2.35324
G1 X96.103 Y53.316 E2.35969
G1 X96.060 Y54.165 E2.36615
G1 X95.923 Y55.003 E2.37260
G1 X95.694 Y55.821 E2.37906
G1 X95.374 Y56.608 E2.38551
G1 X94.969 Y57.355 E2.39196
G1 X94.482 Y58.051 E2.39842
G1 X93.922 Y58.689 E2.40487
G1 X93.293 Y59.261 E2.41133
G1 X92.605 Y59.759 E2.41778
G1 X91.865 Y60.177 E2.42424
G1 X91.084 Y60.510 E2.43069
G1 X90.025 Y60.827 E2.43908
G1 X88.758 Y66.604 E2.48402
G1 X87.522 Y66.604 E2.49341
G1 X89.144 Y59.210 E2.55092
G1 X89.572 Y59.158 E2.55420
G1 X90.288 Y58.979 E2.55980
G1 X90.976 Y58.711 E2.56541
G1 X91.625 Y58.360 E2.57101
G1 X92.225 Y57.931 E2.57662
G1 X92.766 Y57.430 E2.58223
G1 X93.241 Y56.866 E2.58783
G1 X93.642 Y56.246 E2.59344
G1 X93.963 Y55.581 E2.59905
G1 X94.200 Y54.867 E2.60476
G1 X94.343 Y54.158 E2.61025
G1 X94.397 Y53.422 E2.61586
G1 X94.356 Y52.671 E2.62158
G1 X94.229 Y51.959 E2.62707
G1 X94.009 Y51.255 E2.63267
G1 X93.703 Y50.584 E2.63828
G1 X93.316 Y49.955 E2.64389
G1 X92.843 Y49.371 E2.64960
G1 X92.322 Y48.868 E2.65510
G1 X91.732 Y48.426 E2.66070
G1 X91.090 Y48.061 E2.66631
G1 X90.408 Y47.779 E2.67192
G1 X89.682 Y47.583 E2.67763
G1 X88.966 Y47.480 E2.68312
G1 X88.229 Y47.468 E2.68873
G1 X87.495 Y47.548 E2.69433
G1 X86.777 Y47.719 E2.69994
G1 X86.074 Y47.985 E2.70566
G1 X85.434 Y48.322 E2.71115
G1 X84.829 Y48.744 E2.71675
G1 X84.281 Y49.239 E2.72236
G1 X83.800 Y49.798 E2.72797
G1 X83.392 Y50.413 E2.73357
G1 X83.064 Y51.074 E2.73918
G1 X82.821 Y51.770 E2.74478
G1 X82.667 Y52.493 E2.75039
G1 X82.605 Y53.242 E2.75611
G1 X82.634 Y53.964 E2.76160
G1 X82.756 Y54.692 E2.76720
G1 X82.967 Y55.399 E2.77281
G1 X83.265 Y56.074 E2.77842
G1 X83.645 Y56.707 E2.78402
G1 X84.101 Y57.287 E2.78963
G1 X84.626 Y57.805 E2.79523
G1 X85.211 Y58.254 E2.80084
G1 X85.848 Y58.626 E2.80644
G1 X86.527 Y58.916 E2.81205
G1 X86.855 Y59.010 E2.81464
G1 X85.189 Y66.604 E2.87370
G1 X73.971 Y66.604 E2.95892
G1 X73.650 Y66.850 F7800.000
G1 X73.650 Y45.509 E3.12105 F1800.000
G1 X88.496 Y45.509 E3.23384
G1 X89.357 Y45.557 E3.24040
G1 X90.241 Y45.705 E3.24720
G1 X91.084 Y45.947 E3.25386
G1 X91.895 Y46.281 E3.26053
G1 X92.663 Y46.704 E3.26719
G1 X93.364 Y47.199 E3.27371
G1 X94.035 Y47.793 E3.28052
G1 X94.621 Y48.445 E3.28718
G1 X95.131 Y49.159 E3.29384
G1 X95.559 Y49.925 E3.30051
G1 X95.891 Y50.717 E3.30703
G1 X96.144 Y51.575 E3.31383
G1 X96.296 Y52.439 E3.32050
G1 X96.350 Y53.315 E3.32716
G1 X96.306 Y54.191 E3.33382
G1 X96.164 Y55.056 E3.34049
G1 X95.927 Y55.901 E3.34715
G1 X95.597 Y56.713 E3.35382
G1 X95.179 Y57.484 E3.36048
G1 X94.677 Y58.204 E3.36714
G1 X94.098 Y58.862 E3.37381
G1 X93.449 Y59.453 E3.38047
G1 X92.738 Y59.967 E3.38713
G1 X91.974 Y60.398 E3.39380
G1 X91.167 Y60.742 E3.40046
G1 X90.235 Y61.021 E3.40786
G1 X88.956 Y66.850 E3.45320
G1 X87.215 Y66.850 E3.46642
G1 X88.940 Y58.986 E3.52758
G1 X89.527 Y58.915 E3.53207
G1 X90.213 Y58.743 E3.53745
G1 X90.872 Y58.487 E3.54282
G1 X91.494 Y58.151 E3.54819
G1 X92.069 Y57.740 E3.55356
G1 X92.588 Y57.260 E3.55893
G1 X93.043 Y56.719 E3.56430
G1 X93.427 Y56.125 E3.56967
G1 X93.734 Y55.488 E3.57504
G1 X93.962 Y54.804 E3.58052
G1 X94.098 Y54.125 E3.58578
G1 X94.150 Y53.420 E3.59116
G1 X94.111 Y52.700 E3.59663
G1 X93.989 Y52.018 E3.60190
G1 X93.778 Y51.343 E3.60727
G1 X93.485 Y50.700 E3.61264
G1 X93.114 Y50.098 E3.61801
G1 X92.661 Y49.537 E3.62349
G1 X92.162 Y49.056 E3.62875
G1 X91.596 Y48.633 E3.63412
G1 X90.982 Y48.283 E3.63949
G1 X90.329 Y48.013 E3.64486
G1 X89.632 Y47.824 E3.65034
G1 X88.947 Y47.726 E3.65560
G1 X88.240 Y47.715 E3.66097
G1 X87.537 Y47.791 E3.66634
G1 X86.849 Y47.955 E3.67172
G1 X86.175 Y48.210 E3.67720
G1 X85.562 Y48.533 E3.68246
G1 X84.982 Y48.937 E3.68783
G1 X84.458 Y49.411 E3.69320
G1 X83.996 Y49.947 E3.69857
G1 X83.606 Y50.536 E3.70394
G1 X83.291 Y51.169 E3.70931
G1 X83.059 Y51.837 E3.71468
G1 X82.911 Y52.529 E3.72005
G1 X82.852 Y53.247 E3.72553
G1 X82.880 Y53.939 E3.73079
G1 X82.996 Y54.636 E3.73616
G1 X83.199 Y55.314 E3.74154
G1 X83.484 Y55.960 E3.74691
G1 X83.848 Y56.566 E3.75228
G1 X84.285 Y57.122 E3.75765
G1 X84.788 Y57.619 E3.76302
G1 X85.349 Y58.049 E3.76839
G1 X85.959 Y58.406 E3.77376
G1 X86.610 Y58.684 E3.77913
G1 X87.145 Y58.837 E3.78336
G1 X85.387 Y66.850 E3.84569
G1 X73.725 Y66.850 E3.93429
G1 X73.900 Y66.417 F7800.000
G1 F6240
G4 P29
G1 X73.701 Y59.917 E2.03428
G1 E1.93429 F1800.00000
G92 E0
G1 X80.389 Y66.058 F7800.000
G1 E2.00000 F1800.00000
G1 X81.271 Y66.154 E2.01494 F1800.000
G1 X81.271 Y66.154 F7800.000
G1 X81.937 Y66.226 E2.02003 F1800.000
G1 X83.161 Y66.220 F7800.000
G1 X82.922 Y65.981 E2.02261 F1800.000
G4 P22
G1 X82.985 Y65.694 E2.02485
G4 P2
G1 X83.510 Y66.220 E2.03052
G1 X83.860 Y66.220 E2.03318
G1 X83.047 Y65.408 E2.04194
G1 X83.110 Y65.121 E2.04417
G1 X84.209 Y66.220 E2.05602
G1 X84.559 Y66.220 E2.05868
G1 X83.173 Y64.834 E2.07362
G1 X83.236 Y64.548 E2.07585
G1 X84.894 Y66.206 E2.09372
G1 X84.957 Y65.919 E2.09595
G1 X83.299 Y64.261 E2.11382
G1 X83.362 Y63.975 E2.11605
G1 X85.019 Y65.632 E2.13392
G1 X85.082 Y65.346 E2.13615
G1 X83.425 Y63.688 E2.15402
G1 X83.487 Y63.401 E2.15626
G1 X85.145 Y65.059 E2.17412
G1 X85.208 Y64.773 E2.17636
G1 X83.550 Y63.115 E2.19422
G1 X83.613 Y62.828 E2.19646
G1 X85.271 Y64.486 E2.21432
G1 X85.334 Y64.199 E2.21656
G1 X83.676 Y62.542 E2.23442
G1 X83.739 Y62.255 E2.23666
G1 X85.397 Y63.913 E2.25453
G1 X85.460 Y63.626 E2.25676
G1 X83.802 Y61.969 E2.27463
G1 X83.865 Y61.682 E2.27686
G1 X85.522 Y63.340 E2.29473
G1 X85.585 Y63.053 E2.29696
G1 X83.928 Y61.395 E2.31483
G1 X83.990 Y61.109 E2.31707
G1 X85.648 Y62.766 E2.33493
G1 X85.711 Y62.480 E2.33717
G1 X84.053 Y60.822 E2.35503
G1 X84.116 Y60.536 E2.35727
G1 X85.774 Y62.193 E2.37513
G1 X85.837 Y61.907 E2.37737
G1 X84.179 Y60.249 E2.39523
G1 X84.242 Y59.962 E2.39747
G1 X85.900 Y61.620 E2.41534
G1 X85.963 Y61.333 E2.41757
G1 X84.305 Y59.676 E2.43544
G1 X84.368 Y59.389 E2.43767
G1 X86.025 Y61.047 E2.45554
G1 X86.088 Y60.760 E2.45777
G1 X74.280 Y48.952 E2.58504
G1 X74.280 Y48.602 E2.58770
G1 X86.151 Y60.474 E2.71564
G1 X86.214 Y60.187 E2.71788
G1 X74.280 Y48.253 E2.84650
G1 X74.280 Y47.903 E2.84916
G1 X83.270 Y56.894 E2.94605
G1 X82.832 Y56.106 F7800.000
G1 X74.280 Y47.554 E3.03822 F1800.000
G1 X74.280 Y47.205 E3.04088
G1 X82.581 Y55.505 E3.13034
G1 X82.431 Y55.007 E3.13431
G1 X74.280 Y46.855 E3.22216
G1 X74.280 Y46.506 E3.22483
G1 X82.336 Y54.561 E3.31164
G1 X82.265 Y54.142 E3.31489
G1 X74.291 Y46.167 E3.40083
G1 X74.612 Y46.139 E3.40328
G1 X82.240 Y53.767 E3.48549
G1 X82.226 Y53.403 E3.48827
G1 X74.962 Y46.139 E3.56656
G1 X75.311 Y46.139 E3.56922
G1 X82.239 Y53.067 E3.64388
G1 X82.266 Y52.744 E3.64635
G1 X75.661 Y46.139 E3.71753
G1 X76.010 Y46.139 E3.72020
G1 X82.299 Y52.428 E3.78797
G1 X82.360 Y52.140 E3.79022
G1 X76.359 Y46.139 E3.85489
G1 X76.709 Y46.139 E3.85755
G1 X82.422 Y51.851 E3.91912
G1 X82.497 Y51.578 E3.92128
G1 X77.058 Y46.139 E3.97990
G1 X77.408 Y46.139 E3.98256
G1 X82.588 Y51.319 E4.03838
