; generated by Slic3r 1.2.9 on 2017-08-27 at 16:28:16

; external perimeters extrusion width = 0.50mm
; perimeters extrusion width = 0.50mm
; infill extrusion width = 0.50mm
; solid infill extrusion width = 0.50mm
; top infill extrusion width = 0.50mm

M107
M190 S60 ; set bed temperature
M104 S210 ; set temperature
G28 ; home all axes
M109 S210 ; wait for temperature to be reached
G21 ; set units to millimeters
G90 ; use absolute coordinates
M82 ; use absolute distances for extrusion
G92 E0
G1 E-2.00000 F1800.00000
G92 E0
G1 Z0.250 F7800.000
G1 X66.744 Y54.975 F7800.000
G1 E2.00000 F1800.00000
M204 S3000
G1 X67.295 Y54.424 E2.00592 F1800.000
G1 X67.502 Y54.265 E2.00790
G1 X68.177 Y53.876 E2.01382
G1 X68.418 Y53.776 E2.01581
G1 X69.171 Y53.574 E2.02173
G1 X69.819 Y53.515 E2.02668
G1 X100.132 Y53.515 E2.25697
G1 X100.522 Y53.540 E2.25994
G1 X100.781 Y53.574 E2.26192 F1800.000
G1 X101.533 Y53.776 E2.26784
G1 X101.754 Y53.868 E2.26966
G1 X102.449 Y54.265 E2.27574
G1 X102.656 Y54.424 E2.27773
G1 X103.208 Y54.975 E2.28365
G1 X103.366 Y55.183 E2.28563
G1 X103.756 Y55.858 E2.29155
G1 X103.856 Y56.099 E2.29354
G1 X104.058 Y56.851 E2.29946
G1 X104.092 Y57.110 E2.30144
G1 X104.117 Y57.500 E2.30441
G1 X104.117 Y82.500 E2.49434
G1 X104.058 Y83.149 E2.49929
G1 X103.856 Y83.901 E2.50521
G1 X103.756 Y84.142 E2.50719
G1 X103.366 Y84.817 E2.51311
G1 X103.208 Y85.025 E2.51509
G1 X102.656 Y85.576 E2.52102
G1 X102.449 Y85.734 E2.52300
G1 X101.774 Y86.124 E2.52892
G1 X101.533 Y86.224 E2.53090
G1 X100.780 Y86.426 E2.53682
G1 X100.132 Y86.485 E2.54177
G1 X69.819 Y86.485 E2.77207
G1 X69.171 Y86.426 E2.77701
G1 X68.418 Y86.224 E2.78293
G1 X68.177 Y86.124 E2.78492
G1 X67.502 Y85.735 E2.79084
G1 X67.295 Y85.576 E2.79282
G1 X66.744 Y85.025 E2.79874
G1 X66.585 Y84.817 E2.80073
G1 X66.195 Y84.142 E2.80665
G1 X66.095 Y83.901 E2.80863
G1 X65.893 Y83.149 E2.81455
G1 X65.834 Y82.500 E2.81950
G1 X65.834 Y57.500 E3.00943
G1 X65.893 Y56.852 E3.01438
G1 X66.095 Y56.099 E3.02030
G1 X66.195 Y55.858 E3.02228
G1 X66.585 Y55.183 E3.02820
G1 X66.698 Y55.035 E3.02962
G1 X66.939 Y55.125 F7800.000
G4 P31
G1 X67.445 Y54.620 E3.03505 F1800.000
G1 X67.652 Y54.461 E3.03703
G1 X68.271 Y54.103 E3.04246
G1 X68.512 Y54.004 E3.04445
G1 X69.203 Y53.818 E3.04988
G1 X69.819 Y53.761 E3.05458
G1 X100.132 Y53.761 E3.28488
G1 X100.489 Y53.784 E3.28760
G1 X100.748 Y53.818 E3.28958 F1800.000
G1 X101.439 Y54.004 E3.29502
G1 X101.660 Y54.095 E3.29683
G1 X102.299 Y54.461 E3.30243
G1 X102.507 Y54.620 E3.30441
G1 X103.012 Y55.125 E3.30985
G1 X103.171 Y55.333 E3.31183
G1 X103.529 Y55.952 E3.31726
G1 X103.628 Y56.193 E3.31924
G1 X103.814 Y56.884 E3.32468
G1 X103.848 Y57.142 E3.32666
G1 X103.871 Y57.500 E3.32938
G1 X103.871 Y82.500 E3.51931
G1 X103.814 Y83.116 E3.52402
G1 X103.628 Y83.807 E3.52945
G1 X103.529 Y84.048 E3.53143
G1 X103.171 Y84.667 E3.53686
G1 X103.012 Y84.875 E3.53885
G1 X102.507 Y85.380 E3.54428
G1 X102.299 Y85.539 E3.54626
G1 X101.680 Y85.897 E3.55170
G1 X101.439 Y85.996 E3.55368
G1 X100.748 Y86.182 E3.55911
G1 X100.132 Y86.239 E3.56381
G1 X69.819 Y86.239 E3.79411
G1 X69.203 Y86.182 E3.79881
G1 X68.512 Y85.996 E3.80424
G1 X68.271 Y85.897 E3.80623
G1 X67.652 Y85.539 E3.81166
G1 X67.445 Y85.380 E3.81364
G1 X66.939 Y84.875 E3.81907
G1 X66.780 Y84.667 E3.82106
G1 X66.423 Y84.048 E3.82649
G1 X66.323 Y83.807 E3.82847
G1 X66.138 Y83.116 E3.83391
G1 X66.080 Y82.500 E3.83861
G1 X66.080 Y57.500 E4.02854
G1 X66.138 Y56.884 E4.03324
G1 X66.323 Y56.193 E4.03868
G1 X66.423 Y55.952 E4.04066
G1 X66.780 Y55.333 E4.04609
G1 X66.893 Y55.185 E4.04751
G1 X67.134 Y55.275 F7800.000
G4 P31
G1 X67.594 Y54.815 E4.05245 F1800.000
G1 X67.802 Y54.656 E4.05443
G1 X68.365 Y54.331 E4.05938
G1 X68.606 Y54.231 E4.06136
G1 X69.235 Y54.063 E4.06630
G1 X69.819 Y54.007 E4.07076
G1 X100.132 Y54.007 E4.30106
G1 X100.457 Y54.029 E4.30353
G1 X100.716 Y54.063 E4.30552 F1800.000
G1 X101.345 Y54.231 E4.31046
G1 X101.566 Y54.323 E4.31228
G1 X102.149 Y54.656 E4.31738
G1 X102.357 Y54.815 E4.31937
G1 X102.817 Y55.275 E4.32431
G1 X102.976 Y55.483 E4.32630
G1 X103.301 Y56.046 E4.33124
G1 X103.401 Y56.287 E4.33322
G1 X103.569 Y56.916 E4.33817
G1 X103.603 Y57.175 E4.34015
G1 X103.625 Y57.500 E4.34263
G1 X103.625 Y82.500 E4.53256
G1 X103.569 Y83.084 E4.53702
G1 X103.401 Y83.713 E4.54196
G1 X103.301 Y83.954 E4.54394
G1 X102.976 Y84.517 E4.54889
G1 X102.817 Y84.725 E4.55087
G1 X102.357 Y85.185 E4.55581
G1 X102.149 Y85.344 E4.55780
G1 X101.586 Y85.669 E4.56274
G1 X101.345 Y85.769 E4.56472
G1 X100.716 Y85.937 E4.56967
G1 X100.132 Y85.993 E4.57413
G1 X69.819 Y85.993 E4.80442
G1 X69.235 Y85.937 E4.80888
G1 X68.606 Y85.769 E4.81382
G1 X68.365 Y85.669 E4.81581
G1 X67.802 Y85.344 E4.82075
G1 X67.595 Y85.185 E4.82273
G1 X67.134 Y84.725 E4.82768
G1 X66.975 Y84.517 E4.82966
G1 X66.650 Y83.954 E4.83460
G1 X66.550 Y83.713 E4.83659
G1 X66.382 Y83.084 E4.84153
G1 X66.326 Y82.500 E4.84599
G1 X66.326 Y57.500 E5.03592
G1 X66.382 Y56.916 E5.04038
G1 X66.550 Y56.287 E5.04532
G1 X66.650 Y56.046 E5.04731
G1 X66.975 Y55.483 E5.05225
G1 X67.089 Y55.335 E5.05366
G1 X67.330 Y55.425 F7800.000
G4 P31
G1 X67.744 Y55.011 E5.05812 F1800.000
G1 X67.952 Y54.852 E5.06010
G1 X68.459 Y54.559 E5.06456
G1 X68.701 Y54.459 E5.06654
G1 X69.267 Y54.307 E5.07099
G1 X69.819 Y54.254 E5.07521
G1 X100.132 Y54.254 E5.30550
G1 X100.425 Y54.273 E5.30774
G1 X100.684 Y54.307 E5.30972 F1800.000
G1 X101.250 Y54.459 E5.31417
G1 X101.492 Y54.559 E5.31616
G1 X101.999 Y54.852 E5.32061
G1 X102.207 Y55.011 E5.32260
G1 X102.621 Y55.425 E5.32705
G1 X102.780 Y55.633 E5.32903
G1 X103.073 Y56.140 E5.33349
G1 X103.173 Y56.382 E5.33547
G1 X103.325 Y56.948 E5.33993
G1 X103.359 Y57.207 E5.34191
G1 X103.378 Y57.500 E5.34414
G1 X103.378 Y82.500 E5.53407
G1 X103.325 Y83.052 E5.53829
G1 X103.173 Y83.618 E5.54274
G1 X103.073 Y83.860 E5.54473
G1 X102.780 Y84.367 E5.54918
G1 X102.621 Y84.575 E5.55117
G1 X102.207 Y84.989 E5.55562
G1 X101.999 Y85.148 E5.55760
G1 X101.492 Y85.441 E5.56206
G1 X101.250 Y85.541 E5.56404
G1 X100.684 Y85.693 E5.56850
G1 X100.132 Y85.746 E5.57271
G1 X69.819 Y85.746 E5.80301
G1 X69.267 Y85.693 E5.80722
G1 X68.701 Y85.541 E5.81167
G1 X68.459 Y85.441 E5.81366
G1 X67.952 Y85.148 E5.81811
G1 X67.744 Y84.989 E5.82010
G1 X67.330 Y84.575 E5.82455
G1 X67.171 Y84.367 E5.82653
G1 X66.878 Y83.860 E5.83099
G1 X66.778 Y83.618 E5.83297
G1 X66.626 Y83.052 E5.83743
G1 X66.573 Y82.500 E5.84164
G1 X66.573 Y57.500 E6.03157
G1 X66.626 Y56.948 E6.03579
G1 X66.778 Y56.382 E6.04024
G1 X66.878 Y56.140 E6.04222
G1 X67.171 Y55.633 E6.04668
G1 X67.284 Y55.485 E6.04809
G1 F6240
G1 X67.744 Y55.011 E5.86703
G1 F6240
G1 X67.952 Y54.852 E5.79547
G1 F6240
G1 X68.459 Y54.559 E5.63477
G1 F6240
G1 X68.701 Y54.459 E5.56323
G1 F6240
G1 X69.267 Y54.307 E5.40254
G1 F6240
G1 X69.819 Y54.254 E5.25055
G1 F6240
G1 X73.842 Y54.254 E4.14809
G1 E4.04809 F1800.00000
G92 E0
G1 X96.140 Y79.459 F7800.000
G1 E2.00000 F1800.00000
G1 X95.965 Y79.670 E2.00208 F1800.000
G1 X95.570 Y79.957 E2.00579
G1 X95.116 Y80.137 E2.00950
G1 X94.632 Y80.198 E2.01321
G1 X94.148 Y80.137 E2.01692
G1 X93.694 Y79.957 E2.02062
G1 X93.299 Y79.670 E2.02433
G1 X92.987 Y79.294 E2.02804
G1 X92.780 Y78.852 E2.03175
G1 X92.688 Y78.372 E2.03546
G1 X92.719 Y77.885 E2.03917
G1 X92.870 Y77.421 E2.04288
G1 X93.131 Y77.008 E2.04659
G1 X93.487 Y76.674 E2.05030
G1 X93.915 Y76.439 E2.05401
G1 X94.388 Y76.318 E2.05772
G1 X94.876 Y76.318 E2.06143 F1800.000
G1 X95.349 Y76.439 E2.06514
G1 X95.777 Y76.674 E2.06885
G1 X96.133 Y77.008 E2.07256
G1 X96.394 Y77.421 E2.07626
G1 X96.545 Y77.885 E2.07997
G1 X96.575 Y78.356 E2.08356
G1 X96.486 Y78.849 E2.08737
G1 X96.277 Y79.294 E2.09110
G1 X96.187 Y79.401 E2.09216
G1 X95.950 Y79.302 F7800.000
G4 P31
G1 X95.795 Y79.489 E2.09400 F1800.000
G1 X95.451 Y79.739 E2.09724
G1 X95.055 Y79.896 E2.10048
G1 X94.632 Y79.949 E2.10371
G1 X94.209 Y79.896 E2.10695
G1 X93.813 Y79.739 E2.11018
G1 X93.469 Y79.489 E2.11342
G1 X93.197 Y79.161 E2.11666
G1 X93.016 Y78.775 E2.11989
G1 X92.936 Y78.357 E2.12313
G1 X92.963 Y77.932 E2.12637
G1 X93.094 Y77.526 E2.12960
G1 X93.322 Y77.167 E2.13284
G1 X93.633 Y76.875 E2.13608
G1 X94.006 Y76.670 E2.13931
G1 X94.419 Y76.564 E2.14255
G1 X94.845 Y76.564 E2.14579 F1800.000
G1 X95.258 Y76.670 E2.14902
G1 X95.631 Y76.875 E2.15226
G1 X95.941 Y77.167 E2.15550
G1 X96.170 Y77.526 E2.15873
G1 X96.301 Y77.932 E2.16197
G1 X96.327 Y78.341 E2.16509
G1 X96.249 Y78.773 E2.16842
G1 X96.067 Y79.161 E2.17168
G1 X95.998 Y79.244 E2.17250
G1 X95.760 Y79.145 F7800.000
G4 P31
G1 X95.625 Y79.308 E2.17411 F1800.000
G1 X95.331 Y79.522 E2.17687
G1 X94.993 Y79.656 E2.17963
G1 X94.632 Y79.701 E2.18240
G1 X94.271 Y79.656 E2.18516
G1 X93.933 Y79.522 E2.18792
G1 X93.639 Y79.308 E2.19069
G1 X93.407 Y79.028 E2.19345
G1 X93.252 Y78.698 E2.19621
G1 X93.184 Y78.341 E2.19898
G1 X93.206 Y77.978 E2.20174
G1 X93.319 Y77.632 E2.20451
G1 X93.514 Y77.325 E2.20727
G1 X93.779 Y77.076 E2.21003
G1 X94.098 Y76.901 E2.21280
G1 X94.450 Y76.810 E2.21556
G1 X94.814 Y76.810 E2.21832 F1800.000
G1 X95.166 Y76.901 E2.22109
G1 X95.485 Y77.076 E2.22385
G1 X95.750 Y77.325 E2.22661
G1 X95.945 Y77.632 E2.22938
G1 X96.057 Y77.978 E2.23214
G1 X96.079 Y78.327 E2.23480
G1 X96.012 Y78.698 E2.23766
G1 X95.857 Y79.028 E2.24043
G1 X95.808 Y79.087 E2.24102
G4 P6
G1 X95.834 Y79.343 F7800.000
G1 F6240
G4 P31
G1 X95.625 Y79.308 E2.16258
G1 F6240
G4 P31
G1 X95.331 Y79.522 E2.06289
G1 F6240
G1 X94.993 Y79.656 E1.96321
G1 F6240
G1 X94.632 Y79.701 E1.86352
G1 F6240
G4 P22
G1 X94.271 Y79.656 E1.76384
G1 F6240
G1 X93.933 Y79.522 E1.66415
G1 F6240
G1 X93.639 Y79.308 E1.56447
G1 F6240
G1 X93.407 Y79.028 E1.46478
G1 F6240
G1 X93.252 Y78.698 E1.36509
G1 F6240
G1 X93.184 Y78.341 E1.26541
G1 F6240
G1 X93.206 Y77.978 E1.16572
G1 F6240
G1 X93.319 Y77.632 E1.06604
G1 F6240
G1 X93.514 Y77.325 E0.96635
G1 F6240
G1 X93.779 Y77.076 E0.86667
G1 F6240
G1 X94.098 Y76.901 E0.76698
G1 F6240
G1 X94.450 Y76.810 E0.66729
G1 E0.24102 F1800.00000
G92 E0
G1 X100.381 Y82.749 F7800.000
G1 E2.00000 F1800.00000
G1 X100.223 Y82.840 E2.00138 F1800.000
G1 X100.090 Y82.857 E2.00240
G1 X89.174 Y82.857 E2.08533
G1 X89.041 Y82.840 E2.08635
G1 X88.883 Y82.749 E2.08774
G1 X88.792 Y82.591 E2.08912
G1 X88.775 Y82.458 E2.09014
G1 X88.775 Y74.042 E2.15408
G1 X88.792 Y73.909 E2.15510
G1 X88.883 Y73.751 E2.15648
G1 X89.041 Y73.660 E2.15786
G1 X89.174 Y73.643 E2.15889
G1 X100.090 Y73.643 E2.24181
G1 X100.208 Y73.658 E2.24272
G1 X100.313 Y73.699 E2.24358
G1 X100.381 Y73.751 E2.24423
G1 X100.472 Y73.909 E2.24561
G1 X100.489 Y74.042 E2.24663
G1 X100.489 Y82.458 E2.31057
G1 X100.472 Y82.591 E2.31159
G1 X100.426 Y82.689 E2.31241
G4 P25
G1 X100.556 Y82.924 F7800.000
G4 P31
G1 X100.432 Y83.020 E2.31360 F1800.000
G1 X100.287 Y83.080 E2.31479
G1 X100.106 Y83.104 E2.31618
G1 X89.158 Y83.104 E2.39935
G1 X88.977 Y83.080 E2.40074
G1 X88.832 Y83.020 E2.40193
G1 X88.708 Y82.924 E2.40312
G1 X88.612 Y82.800 E2.40431
G1 X88.552 Y82.655 E2.40550
G1 X88.528 Y82.474 E2.40689
G1 X88.528 Y74.026 E2.47108
G1 X88.552 Y73.845 E2.47247
G1 X88.612 Y73.700 E2.47366
G1 X88.708 Y73.576 E2.47485
G1 X88.832 Y73.480 E2.47604
G1 X88.977 Y73.420 E2.47723
G1 X89.158 Y73.396 E2.47862
G1 X100.106 Y73.396 E2.56179
G1 X100.270 Y73.418 E2.56305
G1 X100.435 Y73.483 E2.56440
G1 X100.556 Y73.576 E2.56556
G1 X100.652 Y73.700 E2.56675
G1 X100.712 Y73.845 E2.56794
G1 X100.736 Y74.026 E2.56933
G1 X100.736 Y82.474 E2.63351
G1 X100.712 Y82.655 E2.63490
G1 X100.652 Y82.800 E2.63609
G1 X100.602 Y82.865 E2.63671
G4 P19
G1 X100.732 Y83.100 F7800.000
G4 P31
G1 X100.556 Y83.235 E2.63839 F1800.000
G1 X100.352 Y83.320 E2.64008
G1 X100.122 Y83.350 E2.64183
G1 X89.142 Y83.350 E2.72526
G1 X88.912 Y83.320 E2.72701
G1 X88.708 Y83.235 E2.72870
G1 X88.532 Y83.100 E2.73038
G1 X88.397 Y82.924 E2.73206
G1 X88.312 Y82.720 E2.73375
G1 X88.282 Y82.490 E2.73551
G1 X88.282 Y74.010 E2.79993
G1 X88.312 Y73.780 E2.80169
G1 X88.397 Y73.576 E2.80337
G1 X88.532 Y73.400 E2.80506
G1 X88.708 Y73.265 E2.80674
G1 X88.912 Y73.180 E2.80842
G1 X89.142 Y73.150 E2.81018
G1 X100.122 Y73.150 E2.89360
G1 X100.332 Y73.178 E2.89521
G1 X100.558 Y73.266 E2.89705
G1 X100.732 Y73.400 E2.89872
G1 X100.867 Y73.576 E2.90041
G1 X100.952 Y73.780 E2.90209
G1 X100.982 Y74.010 E2.90385
G1 X100.982 Y82.490 E2.96827
G1 X100.952 Y82.720 E2.97003
G1 X100.867 Y82.924 E2.97172
G1 X100.778 Y83.041 E2.97283
G1 X100.521 Y83.034 F7800.000
G1 X100.352 Y81.358 F7800.000
G1 X96.627 Y77.633 E3.01289 F1800.000
G1 X96.696 Y78.051 E3.01611
G1 X100.352 Y81.706 E3.05542
G1 X100.352 Y82.055 E3.05808
G1 X96.698 Y78.400 E3.09738
G1 X96.644 Y78.696 E3.09966
G1 X100.352 Y82.404 E3.13953
G1 X100.264 Y82.664 E3.14162
G1 X96.564 Y78.964 E3.18141
G1 X96.452 Y79.201 E3.18340
G1 X99.971 Y82.720 E3.22124
G1 X99.622 Y82.720 E3.22389
G1 X96.322 Y79.420 E3.25938
G1 X96.164 Y79.611 E3.26126
G1 X99.274 Y82.720 E3.29470
G1 X98.925 Y82.720 E3.29735
G1 X95.996 Y79.791 E3.32885
G1 X95.794 Y79.938 E3.33075
G1 X98.576 Y82.720 E3.36067
G1 X98.228 Y82.720 E3.36332
G1 X95.588 Y80.081 E3.39170
G1 X95.338 Y80.180 E3.39375
G1 X97.879 Y82.720 E3.42107
G1 X97.530 Y82.720 E3.42372
G1 X95.083 Y80.273 E3.45004
G1 X94.773 Y80.312 E3.45241
G1 X97.181 Y82.720 E3.47831
G1 X96.833 Y82.720 E3.48096
G1 X94.430 Y80.318 E3.50680
G1 X94.023 Y80.260 E3.50992
G1 X96.484 Y82.720 E3.53638
G1 X96.135 Y82.720 E3.53903
G1 X93.321 Y79.906 E3.56929
G1 X92.951 Y79.536 F7800.000
G1 X88.912 Y75.497 E3.61273 F1800.000
G1 X88.912 Y75.148 E3.61538
G1 X92.632 Y78.868 E3.65539
G1 X92.550 Y78.437 E3.65872
G1 X88.912 Y74.799 E3.69785
G1 X88.912 Y74.451 E3.70050
G1 X92.570 Y78.109 E3.73984
G1 X92.615 Y77.805 E3.74218
G1 X88.912 Y74.102 E3.78200
G1 X88.998 Y73.839 E3.78411
G1 X92.700 Y77.542 E3.82393
G1 X92.807 Y77.300 E3.82594
G1 X89.287 Y73.780 E3.86379
G1 X89.636 Y73.780 E3.86644
G1 X92.943 Y77.087 E3.90200
G1 X93.092 Y76.887 E3.90390
G1 X89.985 Y73.780 E3.93731
G1 X90.333 Y73.780 E3.93996
G1 X93.272 Y76.718 E3.97156
G1 X93.458 Y76.555 E3.97344
G1 X90.682 Y73.780 E4.00329
G1 X91.031 Y73.780 E4.00594
G1 X93.683 Y76.432 E4.03446
G1 X93.910 Y76.310 E4.03642
G1 X91.379 Y73.780 E4.06363
G1 X91.728 Y73.780 E4.06628
G1 X94.187 Y76.239 E4.09273
G1 X94.477 Y76.180 E4.09498
G1 X92.077 Y73.780 E4.12079
G1 X92.426 Y73.780 E4.12345
G1 X94.826 Y76.180 E4.14926
G1 X95.252 Y76.257 E4.15255
G1 X92.774 Y73.780 E4.17919
G1 X93.123 Y73.780 E4.18185
G1 X95.883 Y76.540 E4.21153
G1 X96.314 Y76.971 F7800.000
G1 X100.352 Y81.009 E4.25495 F1800.000
G1 X100.352 Y80.660 E4.25760
G1 X93.472 Y73.780 E4.33159
G1 X93.820 Y73.780 E4.33425
G1 X100.352 Y80.312 E4.40449
G1 X100.352 Y79.963 E4.40714
G1 X94.169 Y73.780 E4.47363
G1 X94.518 Y73.780 E4.47628
G1 X100.352 Y79.614 E4.53903
G1 X100.352 Y79.265 E4.54168
G1 X94.867 Y73.780 E4.60067
G1 X95.215 Y73.780 E4.60332
G1 X100.352 Y78.917 E4.65856
G1 X100.352 Y78.568 E4.66121
G1 X95.564 Y73.780 E4.71271
G1 X95.913 Y73.780 E4.71536
G1 X100.352 Y78.219 E4.76310
G1 X100.352 Y77.871 E4.76575
G1 X96.261 Y73.780 E4.80974
G1 X96.610 Y73.780 E4.81240
G1 X100.352 Y77.522 E4.85264
G1 X100.352 Y77.173 E4.85529
G1 X96.959 Y73.780 E4.89178
G1 X97.307 Y73.780 E4.89443
G1 X100.352 Y76.825 E4.92718
G1 X100.352 Y76.476 E4.92983
G1 X97.656 Y73.780 E4.95882
G1 X98.005 Y73.780 E4.96147
G1 X100.352 Y76.127 E4.98671
G1 X100.352 Y75.778 E4.98937
G1 X98.354 Y73.780 E5.01086
G1 X98.702 Y73.780 E5.01351
G1 X100.352 Y75.430 E5.03125
G1 X100.352 Y75.081 E5.03390
G1 X99.051 Y73.780 E5.04790
G1 X99.400 Y73.780 E5.05055
G1 X100.352 Y74.732 E5.06079
G1 X100.352 Y74.384 E5.06344
G1 X99.748 Y73.780 E5.06994
G4 P4
G1 X100.108 Y73.791 E5.07267
G1 X100.341 Y74.024 E5.07518
G1 F6240
G4 P10
G1 X100.108 Y73.791 E4.98478
G1 F6240
G1 X99.748 Y73.780 E4.88619
G1 F6240
G4 P26
G1 X100.352 Y74.384 E4.65220
G1 F6240
G1 X100.352 Y74.732 E4.55664
G1 F6240
G4 P21
G1 X99.400 Y73.780 E4.18752
G1 F6240
G1 X99.051 Y73.780 E4.09196
G1 F6240
G4 P17
G1 X100.352 Y75.081 E3.58769
G1 F6240
G1 X100.352 Y75.430 E3.49213
G1 F6240
G4 P12
G1 X99.534 Y74.612 E3.17518
G1 E3.07518 F1800.00000
G92 E0
G4 P22
G1 X95.787 Y82.720 F7800.000
G1 E2.00000 F1800.00000
G1 X88.912 Y75.845 E2.07393 F1800.000
G1 X88.912 Y76.194 E2.07658
G1 X95.438 Y82.720 E2.14676
