; generated by Slic3r 1.2.9 on 2017-07-15 at 18:17:47

; external perimeters extrusion width = 0.50mm
; perimeters extrusion width = 0.50mm
; infill extrusion width = 0.50mm
; solid infill extrusion width = 0.50mm
; top infill extrusion width = 0.50mm

M107
M190 S60 ; set bed temperature
M104 S210 ; set temperature
G28 ; home all axes
M109 S210 ; wait for temperature to be reached
G21 ; set units to millimeters
G90 ; use absolute coordinates
M82 ; use absolute distances for extrusion
G92 E0
G1 E-2.00000 F1800.00000
G92 E0
G1 Z0.250 F1800.000
G1 X71.708 Y48.692 F1800.000
G1 E2.00000 F1800.00000
M204 S3000
G1 X72.234 Y47.982 E2.00671 F900.000
G1 X72.685 Y47.434 E2.01210
G1 X73.129 Y46.943 E2.01713
G1 X73.779 Y46.278 E2.02420
G1 X74.434 Y45.685 E2.03091
G1 X74.982 Y45.234 E2.03630
G1 X75.692 Y44.708 E2.04301
G1 X76.282 Y44.314 E2.04841
G1 X77.040 Y43.860 E2.05512
G1 X77.665 Y43.525 E2.06051
G1 X78.464 Y43.148 E2.06722
G1 X79.120 Y42.876 E2.07261
G1 X79.951 Y42.579 E2.07932
G1 X80.630 Y42.373 E2.08471
G1 X81.487 Y42.158 E2.09142
G1 X82.183 Y42.019 E2.09681
G1 X83.057 Y41.890 E2.10352
G1 X83.763 Y41.820 E2.10891
G1 X84.645 Y41.777 E2.11562
G1 X85.575 Y41.788 E2.12269
G1 X86.237 Y41.820 E2.12772 F900.000
G1 X86.943 Y41.890 E2.13312
G1 X87.817 Y42.019 E2.13983
G1 X88.513 Y42.158 E2.14522
G1 X89.370 Y42.373 E2.15193
G1 X90.049 Y42.579 E2.15732
G1 X90.880 Y42.876 E2.16403
G1 X91.536 Y43.148 E2.16942
G1 X92.335 Y43.525 E2.17613
G1 X92.960 Y43.860 E2.18152
G1 X93.718 Y44.314 E2.18823
G1 X94.308 Y44.708 E2.19362
G1 X95.018 Y45.234 E2.20033
G1 X95.566 Y45.685 E2.20573
G1 X96.220 Y46.278 E2.21244
G1 X96.722 Y46.779 E2.21783
G1 X97.315 Y47.434 E2.22454
G1 X97.766 Y47.982 E2.22993
G1 X98.292 Y48.692 E2.23664
G1 X98.686 Y49.282 E2.24203
G1 X99.140 Y50.040 E2.24874
G1 X99.475 Y50.665 E2.25413
G1 X99.852 Y51.464 E2.26084
G1 X100.124 Y52.120 E2.26624
G1 X100.421 Y52.951 E2.27295
G1 X100.627 Y53.630 E2.27834
G1 X100.788 Y54.273 E2.28337
G1 X100.981 Y55.183 E2.29044
G1 X101.110 Y56.057 E2.29715
G1 X101.180 Y56.763 E2.30254
G1 X101.232 Y58.000 E2.31194
G1 X101.232 Y82.000 E2.49428
G1 X101.180 Y83.237 E2.50368
G1 X101.110 Y83.943 E2.50908
G1 X100.981 Y84.817 E2.51579
G1 X100.842 Y85.513 E2.52118
G1 X100.627 Y86.370 E2.52789
G1 X100.421 Y87.049 E2.53328
G1 X100.124 Y87.880 E2.53999
G1 X99.852 Y88.536 E2.54538
G1 X99.475 Y89.335 E2.55209
G1 X99.140 Y89.960 E2.55748
G1 X98.686 Y90.718 E2.56419
G1 X98.292 Y91.308 E2.56959
G1 X97.766 Y92.018 E2.57630
G1 X97.315 Y92.566 E2.58169
G1 X96.722 Y93.220 E2.58840
G1 X96.220 Y93.722 E2.59379
G1 X95.566 Y94.315 E2.60050
G1 X95.018 Y94.766 E2.60589
G1 X94.308 Y95.292 E2.61260
G1 X93.718 Y95.686 E2.61799
G1 X92.960 Y96.140 E2.62470
G1 X92.335 Y96.475 E2.63009
G1 X91.536 Y96.852 E2.63680
G1 X90.880 Y97.124 E2.64220
G1 X90.049 Y97.421 E2.64891
G1 X89.370 Y97.627 E2.65430
G1 X88.513 Y97.842 E2.66101
G1 X87.817 Y97.981 E2.66640
G1 X86.943 Y98.110 E2.67311
G1 X86.237 Y98.180 E2.67850
G1 X85.355 Y98.223 E2.68521
G1 X84.645 Y98.223 E2.69060
G1 X83.763 Y98.180 E2.69731
G1 X83.057 Y98.110 E2.70270
G1 X82.183 Y97.981 E2.70941
G1 X81.487 Y97.842 E2.71481
G1 X80.630 Y97.627 E2.72152
G1 X79.951 Y97.421 E2.72691
G1 X79.120 Y97.124 E2.73362
G1 X78.464 Y96.852 E2.73901
G1 X77.665 Y96.475 E2.74572
G1 X77.040 Y96.140 E2.75111
G1 X76.282 Y95.686 E2.75782
G1 X75.692 Y95.292 E2.76321
G1 X74.982 Y94.766 E2.76992
G1 X74.434 Y94.315 E2.77531
G1 X73.779 Y93.722 E2.78202
G1 X73.278 Y93.220 E2.78742
G1 X72.685 Y92.566 E2.79413
G1 X72.234 Y92.018 E2.79952
G1 X71.708 Y91.308 E2.80623
G1 X71.314 Y90.718 E2.81162
G1 X70.860 Y89.960 E2.81833
G1 X70.525 Y89.335 E2.82372
G1 X70.148 Y88.536 E2.83043
G1 X69.876 Y87.880 E2.83582
G1 X69.579 Y87.049 E2.84253
G1 X69.373 Y86.370 E2.84792
G1 X69.158 Y85.513 E2.85463
G1 X69.019 Y84.817 E2.86003
G1 X68.890 Y83.943 E2.86674
G1 X68.820 Y83.237 E2.87213
G1 X68.777 Y82.355 E2.87884
G1 X68.777 Y57.645 E3.06656
G1 X68.820 Y56.763 E3.07328
G1 X68.890 Y56.057 E3.07867
G1 X69.019 Y55.183 E3.08538
G1 X69.158 Y54.487 E3.09077
G1 X69.373 Y53.630 E3.09748
G1 X69.579 Y52.951 E3.10287
G1 X69.876 Y52.120 E3.10958
G1 X70.148 Y51.464 E3.11497
G1 X70.525 Y50.665 E3.12168
G1 X70.860 Y50.040 E3.12707
G1 X71.314 Y49.282 E3.13378
G1 X71.667 Y48.754 E3.13861
G1 X71.906 Y48.839 F1800.000
G4 P24
G1 X72.432 Y48.129 E3.14532 F900.000
G1 X72.867 Y47.599 E3.15052
G1 X73.312 Y47.109 E3.15556
G1 X73.945 Y46.460 E3.16244
G1 X74.599 Y45.867 E3.16915
G1 X75.129 Y45.432 E3.17436
G1 X75.839 Y44.906 E3.18107
G1 X76.409 Y44.525 E3.18628
G1 X77.166 Y44.071 E3.19299
G1 X77.771 Y43.748 E3.19819
G1 X78.569 Y43.370 E3.20490
G1 X79.203 Y43.108 E3.21011
G1 X80.034 Y42.810 E3.21682
G1 X80.690 Y42.611 E3.22203
G1 X81.547 Y42.397 E3.22874
G1 X82.219 Y42.263 E3.23395
G1 X83.093 Y42.134 E3.24066
G1 X83.775 Y42.066 E3.24587
G1 X84.657 Y42.023 E3.25258
G1 X85.563 Y42.034 E3.25946
G1 X86.225 Y42.066 E3.26449 F900.000
G1 X86.907 Y42.134 E3.26970
G1 X87.781 Y42.263 E3.27641
G1 X88.453 Y42.397 E3.28162
G1 X89.310 Y42.611 E3.28833
G1 X89.966 Y42.810 E3.29354
G1 X90.797 Y43.108 E3.30025
G1 X91.431 Y43.370 E3.30546
G1 X92.229 Y43.748 E3.31217
G1 X92.834 Y44.071 E3.31737
G1 X93.591 Y44.525 E3.32408
G1 X94.161 Y44.906 E3.32929
G1 X94.871 Y45.432 E3.33600
G1 X95.401 Y45.867 E3.34121
G1 X96.055 Y46.460 E3.34792
G1 X96.540 Y46.945 E3.35313
G1 X97.133 Y47.599 E3.35984
G1 X97.568 Y48.129 E3.36505
G1 X98.094 Y48.839 E3.37176
G1 X98.475 Y49.409 E3.37696
G1 X98.929 Y50.166 E3.38367
G1 X99.252 Y50.771 E3.38888
G1 X99.630 Y51.569 E3.39559
G1 X99.892 Y52.203 E3.40080
G1 X100.190 Y53.034 E3.40751
G1 X100.389 Y53.690 E3.41272
G1 X100.549 Y54.333 E3.41775
G1 X100.737 Y55.219 E3.42463
G1 X100.866 Y56.093 E3.43134
G1 X100.934 Y56.775 E3.43655
G1 X100.985 Y58.000 E3.44587
G1 X100.985 Y82.000 E3.62820
G1 X100.934 Y83.225 E3.63752
G1 X100.866 Y83.907 E3.64272
G1 X100.737 Y84.781 E3.64943
G1 X100.603 Y85.453 E3.65464
G1 X100.389 Y86.310 E3.66135
G1 X100.190 Y86.966 E3.66656
G1 X99.892 Y87.797 E3.67327
G1 X99.630 Y88.431 E3.67848
G1 X99.252 Y89.229 E3.68519
G1 X98.929 Y89.834 E3.69040
G1 X98.475 Y90.591 E3.69711
G1 X98.094 Y91.161 E3.70231
G1 X97.568 Y91.871 E3.70902
G1 X97.133 Y92.401 E3.71423
G1 X96.540 Y93.055 E3.72094
G1 X96.055 Y93.540 E3.72615
G1 X95.401 Y94.133 E3.73286
G1 X94.871 Y94.568 E3.73807
G1 X94.161 Y95.094 E3.74478
G1 X93.591 Y95.475 E3.74999
G1 X92.834 Y95.929 E3.75670
G1 X92.229 Y96.252 E3.76190
G1 X91.431 Y96.630 E3.76861
G1 X90.797 Y96.892 E3.77382
G1 X89.966 Y97.190 E3.78053
G1 X89.310 Y97.389 E3.78574
G1 X88.453 Y97.603 E3.79245
G1 X87.781 Y97.737 E3.79766
G1 X86.907 Y97.866 E3.80437
G1 X86.225 Y97.934 E3.80958
G1 X85.343 Y97.977 E3.81629
G1 X84.657 Y97.977 E3.82149
G1 X83.775 Y97.934 E3.82820
G1 X83.093 Y97.866 E3.83341
G1 X82.219 Y97.737 E3.84012
G1 X81.547 Y97.603 E3.84533
G1 X80.690 Y97.389 E3.85204
G1 X80.034 Y97.190 E3.85725
G1 X79.203 Y96.892 E3.86396
G1 X78.569 Y96.630 E3.86917
G1 X77.771 Y96.252 E3.87588
G1 X77.166 Y95.929 E3.88108
G1 X76.409 Y95.475 E3.88779
G1 X75.839 Y95.094 E3.89300
G1 X75.129 Y94.568 E3.89971
G1 X74.599 Y94.133 E3.90492
G1 X73.945 Y93.540 E3.91163
G1 X73.460 Y93.055 E3.91684
G1 X72.867 Y92.401 E3.92355
G1 X72.432 Y91.871 E3.92876
G1 X71.906 Y91.161 E3.93547
G1 X71.525 Y90.591 E3.94068
G1 X71.071 Y89.834 E3.94739
G1 X70.748 Y89.229 E3.95259
G1 X70.370 Y88.431 E3.95930
G1 X70.108 Y87.797 E3.96451
G1 X69.810 Y86.966 E3.97122
G1 X69.611 Y86.310 E3.97643
G1 X69.397 Y85.453 E3.98314
G1 X69.263 Y84.781 E3.98835
G1 X69.134 Y83.907 E3.99506
G1 X69.066 Y83.225 E4.00027
G1 X69.023 Y82.343 E4.00698
G1 X69.023 Y57.657 E4.19452
G1 X69.066 Y56.775 E4.20123
G1 X69.134 Y56.093 E4.20644
G1 X69.263 Y55.219 E4.21315
G1 X69.397 Y54.547 E4.21835
G1 X69.611 Y53.690 E4.22506
G1 X69.810 Y53.034 E4.23027
G1 X70.108 Y52.203 E4.23698
G1 X70.370 Y51.569 E4.24219
G1 X70.748 Y50.771 E4.24890
G1 X71.071 Y50.166 E4.25411
G1 X71.525 Y49.409 E4.26082
G1 X71.864 Y48.901 E4.26546
G1 X72.104 Y48.985 F1800.000
G4 P24
G1 X72.630 Y48.276 E4.27217 F900.000
G1 X73.050 Y47.765 E4.27719
G1 X73.494 Y47.274 E4.28222
G1 X74.110 Y46.643 E4.28892
G1 X74.765 Y46.050 E4.29563
G1 X75.276 Y45.630 E4.30066
G1 X75.985 Y45.104 E4.30737
G1 X76.535 Y44.736 E4.31239
G1 X77.293 Y44.282 E4.31910
G1 X77.876 Y43.971 E4.32413
G1 X78.675 Y43.593 E4.33084
G1 X79.286 Y43.340 E4.33586
G1 X80.117 Y43.042 E4.34257
G1 X80.750 Y42.850 E4.34760
G1 X81.607 Y42.636 E4.35431
G1 X82.255 Y42.507 E4.35933
G1 X83.129 Y42.377 E4.36604
G1 X83.787 Y42.312 E4.37106
G1 X84.669 Y42.269 E4.37777
G1 X85.551 Y42.280 E4.38447
G1 X86.213 Y42.312 E4.38951 F900.000
G1 X86.871 Y42.377 E4.39453
G1 X87.745 Y42.507 E4.40124
G1 X88.393 Y42.636 E4.40627
G1 X89.250 Y42.850 E4.41298
G1 X89.883 Y43.042 E4.41800
G1 X90.714 Y43.340 E4.42471
G1 X91.325 Y43.593 E4.42973
G1 X92.124 Y43.971 E4.43645
G1 X92.707 Y44.282 E4.44147
G1 X93.465 Y44.736 E4.44818
G1 X94.015 Y45.104 E4.45320
G1 X94.724 Y45.630 E4.45991
G1 X95.235 Y46.050 E4.46494
G1 X95.890 Y46.643 E4.47165
G1 X96.357 Y47.110 E4.47667
G1 X96.950 Y47.765 E4.48338
G1 X97.370 Y48.276 E4.48841
G1 X97.896 Y48.985 E4.49512
G1 X98.264 Y49.535 E4.50014
G1 X98.718 Y50.293 E4.50685
G1 X99.029 Y50.876 E4.51188
G1 X99.407 Y51.674 E4.51859
G1 X99.660 Y52.286 E4.52361
G1 X99.958 Y53.117 E4.53032
G1 X100.150 Y53.750 E4.53534
G1 X100.310 Y54.393 E4.54038
G1 X100.493 Y55.255 E4.54708
G1 X100.623 Y56.129 E4.55379
G1 X100.688 Y56.787 E4.55881
G1 X100.739 Y58.000 E4.56803
G1 X100.739 Y82.000 E4.75037
G1 X100.688 Y83.213 E4.75959
G1 X100.623 Y83.871 E4.76461
G1 X100.493 Y84.745 E4.77132
G1 X100.364 Y85.393 E4.77635
G1 X100.150 Y86.250 E4.78306
G1 X99.958 Y86.883 E4.78808
G1 X99.660 Y87.714 E4.79479
G1 X99.407 Y88.325 E4.79982
G1 X99.029 Y89.124 E4.80653
G1 X98.718 Y89.707 E4.81155
G1 X98.264 Y90.465 E4.81826
G1 X97.896 Y91.015 E4.82329
G1 X97.370 Y91.724 E4.83000
G1 X96.950 Y92.235 E4.83502
G1 X96.357 Y92.890 E4.84173
G1 X95.890 Y93.357 E4.84676
G1 X95.235 Y93.950 E4.85347
G1 X94.724 Y94.370 E4.85849
G1 X94.015 Y94.896 E4.86520
G1 X93.465 Y95.264 E4.87022
G1 X92.707 Y95.718 E4.87693
G1 X92.124 Y96.029 E4.88196
G1 X91.325 Y96.407 E4.88867
G1 X90.714 Y96.660 E4.89369
G1 X89.883 Y96.958 E4.90040
G1 X89.250 Y97.150 E4.90543
G1 X88.393 Y97.364 E4.91214
G1 X87.745 Y97.493 E4.91716
G1 X86.871 Y97.623 E4.92387
G1 X86.213 Y97.688 E4.92890
G1 X85.331 Y97.731 E4.93561
G1 X84.669 Y97.731 E4.94063
G1 X83.787 Y97.688 E4.94734
G1 X83.129 Y97.623 E4.95237
G1 X82.255 Y97.493 E4.95908
G1 X81.607 Y97.364 E4.96410
G1 X80.750 Y97.150 E4.97081
G1 X80.117 Y96.958 E4.97583
G1 X79.286 Y96.660 E4.98254
G1 X78.674 Y96.407 E4.98757
G1 X77.876 Y96.029 E4.99428
G1 X77.293 Y95.718 E4.99930
G1 X76.535 Y95.264 E5.00601
G1 X75.985 Y94.896 E5.01104
G1 X75.276 Y94.370 E5.01775
G1 X74.765 Y93.950 E5.02277
G1 X74.110 Y93.357 E5.02948
G1 X73.643 Y92.890 E5.03451
G1 X73.050 Y92.235 E5.04122
G1 X72.630 Y91.724 E5.04624
G1 X72.104 Y91.015 E5.05295
G1 X71.736 Y90.465 E5.05798
G1 X71.282 Y89.707 E5.06469
G1 X70.971 Y89.124 E5.06971
G1 X70.593 Y88.325 E5.07642
G1 X70.340 Y87.714 E5.08144
G1 X70.042 Y86.883 E5.08815
G1 X69.850 Y86.250 E5.09318
G1 X69.636 Y85.393 E5.09989
G1 X69.507 Y84.745 E5.10491
G1 X69.377 Y83.871 E5.11162
G1 X69.312 Y83.213 E5.11665
G1 X69.269 Y82.331 E5.12336
G1 X69.269 Y57.669 E5.31072
G1 X69.312 Y56.787 E5.31743
G1 X69.377 Y56.129 E5.32245
G1 X69.507 Y55.255 E5.32916
G1 X69.636 Y54.607 E5.33418
G1 X69.850 Y53.750 E5.34089
G1 X70.042 Y53.117 E5.34592
G1 X70.340 Y52.286 E5.35263
G1 X70.593 Y51.675 E5.35765
G1 X70.971 Y50.876 E5.36436
G1 X71.282 Y50.293 E5.36939
G1 X71.736 Y49.535 E5.37610
G1 X72.062 Y49.048 E5.38055
G1 X72.302 Y49.132 F1800.000
G4 P24
G1 X72.828 Y48.423 E5.38726 F900.000
G1 X73.232 Y47.930 E5.39210
G1 X73.677 Y47.439 E5.39714
G1 X74.276 Y46.825 E5.40365
G1 X74.930 Y46.232 E5.41036
G1 X75.423 Y45.828 E5.41520
G1 X76.132 Y45.302 E5.42191
G1 X76.662 Y44.948 E5.42675
G1 X77.420 Y44.494 E5.43346
G1 X77.981 Y44.193 E5.43830
G1 X78.780 Y43.816 E5.44501
G1 X79.369 Y43.572 E5.44986
G1 X80.200 Y43.274 E5.45657
G1 X80.810 Y43.089 E5.46141
G1 X81.667 Y42.875 E5.46812
G1 X82.292 Y42.750 E5.47296
G1 X83.165 Y42.621 E5.47967
G1 X83.799 Y42.558 E5.48451
G1 X84.681 Y42.515 E5.49122
G1 X85.539 Y42.526 E5.49773
G1 X86.201 Y42.558 E5.50277 F900.000
G1 X86.835 Y42.621 E5.50761
G1 X87.708 Y42.750 E5.51432
G1 X88.333 Y42.875 E5.51916
G1 X89.190 Y43.089 E5.52587
G1 X89.800 Y43.274 E5.53071
G1 X90.631 Y43.572 E5.53742
G1 X91.220 Y43.816 E5.54226
G1 X92.019 Y44.193 E5.54897
G1 X92.580 Y44.494 E5.55381
G1 X93.338 Y44.948 E5.56052
G1 X93.868 Y45.302 E5.56536
G1 X94.577 Y45.828 E5.57207
G1 X95.070 Y46.232 E5.57691
G1 X95.724 Y46.825 E5.58362
G1 X96.175 Y47.276 E5.58846
G1 X96.768 Y47.930 E5.59517
G1 X97.172 Y48.423 E5.60001
G1 X97.698 Y49.132 E5.60672
G1 X98.052 Y49.662 E5.61156
G1 X98.506 Y50.420 E5.61827
G1 X98.807 Y50.981 E5.62311
G1 X99.184 Y51.780 E5.62982
G1 X99.428 Y52.369 E5.63467
G1 X99.726 Y53.200 E5.64138
G1 X99.911 Y53.810 E5.64622
G1 X100.072 Y54.452 E5.65125
G1 X100.249 Y55.292 E5.65777
G1 X100.379 Y56.165 E5.66448
G1 X100.442 Y56.799 E5.66932
G1 X100.493 Y58.000 E5.67845
G1 X100.493 Y82.000 E5.86078
G1 X100.442 Y83.201 E5.86991
G1 X100.379 Y83.835 E5.87475
G1 X100.249 Y84.708 E5.88146
G1 X100.125 Y85.333 E5.88630
G1 X99.911 Y86.190 E5.89301
G1 X99.726 Y86.800 E5.89785
G1 X99.428 Y87.631 E5.90456
G1 X99.184 Y88.220 E5.90940
G1 X98.807 Y89.019 E5.91611
G1 X98.506 Y89.580 E5.92095
G1 X98.052 Y90.338 E5.92766
G1 X97.698 Y90.868 E5.93251
G1 X97.172 Y91.577 E5.93922
G1 X96.768 Y92.070 E5.94406
G1 X96.175 Y92.724 E5.95077
G1 X95.724 Y93.175 E5.95561
G1 X95.070 Y93.768 E5.96232
G1 X94.577 Y94.172 E5.96716
G1 X93.868 Y94.698 E5.97387
G1 X93.338 Y95.052 E5.97871
G1 X92.580 Y95.506 E5.98542
G1 X92.019 Y95.807 E5.99026
G1 X91.220 Y96.184 E5.99697
G1 X90.631 Y96.428 E6.00181
G1 X89.800 Y96.726 E6.00852
G1 X89.190 Y96.911 E6.01336
G1 X88.333 Y97.125 E6.02007
G1 X87.708 Y97.249 E6.02491
G1 X86.835 Y97.379 E6.03162
G1 X86.201 Y97.442 E6.03646
G1 X85.319 Y97.485 E6.04317
G1 X84.681 Y97.485 E6.04801
G1 X83.799 Y97.442 E6.05472
G1 X83.165 Y97.379 E6.05956
G1 X82.292 Y97.249 E6.06627
G1 X81.667 Y97.125 E6.07111
G1 X80.810 Y96.911 E6.07782
G1 X80.200 Y96.726 E6.08266
G1 X79.369 Y96.428 E6.08937
G1 X78.780 Y96.184 E6.09422
G1 X77.981 Y95.807 E6.10093
G1 X77.420 Y95.506 E6.10577
G1 X76.662 Y95.052 E6.11248
G1 X76.132 Y94.698 E6.11732
G1 X75.423 Y94.172 E6.12403
G1 X74.930 Y93.768 E6.12887
G1 X74.276 Y93.175 E6.13558
G1 X73.825 Y92.724 E6.14042
G1 X73.232 Y92.070 E6.14713
G1 X72.828 Y91.577 E6.15197
G1 X72.302 Y90.868 E6.15868
G1 X71.948 Y90.338 E6.16352
G1 X71.494 Y89.580 E6.17023
G1 X71.193 Y89.019 E6.17507
G1 X70.816 Y88.220 E6.18178
G1 X70.572 Y87.631 E6.18662
G1 X70.274 Y86.800 E6.19333
G1 X70.089 Y86.190 E6.19817
G1 X69.875 Y85.333 E6.20488
G1 X69.750 Y84.708 E6.20972
G1 X69.621 Y83.835 E6.21643
G1 X69.558 Y83.201 E6.22127
G1 X69.515 Y82.319 E6.22798
G1 X69.515 Y57.681 E6.41516
G1 X69.558 Y56.799 E6.42187
G1 X69.621 Y56.165 E6.42671
G1 X69.750 Y55.292 E6.43342
G1 X69.875 Y54.667 E6.43826
G1 X70.089 Y53.810 E6.44497
G1 X70.274 Y53.200 E6.44981
G1 X70.572 Y52.369 E6.45652
G1 X70.816 Y51.780 E6.46136
G1 X71.193 Y50.981 E6.46807
G1 X71.494 Y50.420 E6.47291
G1 X71.948 Y49.662 E6.47962
G1 X72.260 Y49.194 E6.48389
G1 X72.500 Y49.279 F1800.000
G4 P24
G1 X73.026 Y48.569 E6.49060 F900.000
G1 X73.415 Y48.096 E6.49526
G1 X73.860 Y47.605 E6.50029
G1 X74.441 Y47.008 E6.50663
G1 X75.096 Y46.415 E6.51334
G1 X75.569 Y46.026 E6.51799
G1 X76.279 Y45.500 E6.52470
G1 X76.789 Y45.159 E6.52936
G1 X77.546 Y44.705 E6.53607
G1 X78.087 Y44.416 E6.54073
G1 X78.885 Y44.038 E6.54744
G1 X79.452 Y43.804 E6.55209
G1 X80.283 Y43.506 E6.55880
G1 X80.870 Y43.328 E6.56346
G1 X81.726 Y43.114 E6.57017
G1 X82.328 Y42.994 E6.57483
G1 X83.201 Y42.865 E6.58154
G1 X83.811 Y42.805 E6.58620
G1 X84.694 Y42.761 E6.59291
G1 X85.527 Y42.772 E6.59924
G1 X86.189 Y42.805 E6.60427 F900.000
G1 X86.799 Y42.865 E6.60893
G1 X87.672 Y42.994 E6.61564
G1 X88.274 Y43.114 E6.62030
G1 X89.130 Y43.328 E6.62701
G1 X89.717 Y43.506 E6.63166
G1 X90.548 Y43.804 E6.63837
