; generated by Slic3r 1.2.9 on 2017-07-09 at 16:55:39

; external perimeters extrusion width = 0.40mm
; perimeters extrusion width = 0.40mm
; infill extrusion width = 0.40mm
; solid infill extrusion width = 0.40mm
; top infill extrusion width = 0.40mm

M107
M190 S70 ; set bed temperature
M104 S218 ; set temperature
G28 ; home all axes
M109 S218 ; wait for temperature to be reached
G21 ; set units to millimeters
G90 ; use absolute coordinates
M82 ; use absolute distances for extrusion
G92 E0
G1 E-2.00000 F1800.00000
G92 E0
G1 Z0.200 F6000.000
G1 X62.685 Y60.209 F6000.000
G1 E2.00000 F1800.00000
M204 S300
G1 X63.142 Y59.737 E2.00320 F1500.000
G1 X64.226 Y58.719 E2.01043
G1 X64.916 Y58.145 E2.01479
G1 X65.468 Y57.753 E2.01808
G1 X66.029 Y57.409 E2.02128
G1 X67.333 Y56.692 E2.02852
G1 X67.920 Y56.404 E2.03170
G1 X68.776 Y56.066 E2.03617
G1 X69.405 Y55.872 E2.03937
G1 X70.845 Y55.502 E2.04660
G1 X71.726 Y55.331 E2.05096
G1 X72.415 Y55.252 E2.05434
G1 X73.056 Y55.223 E2.05746
G1 X96.944 Y55.223 E2.17360
G1 X97.601 Y55.254 E2.17680
G1 X98.510 Y55.369 E2.18126 F1500.000
G1 X99.155 Y55.502 E2.18446
G1 X100.595 Y55.872 E2.19169
G1 X101.224 Y56.065 E2.19489
G1 X101.857 Y56.308 E2.19819
G1 X102.667 Y56.692 E2.20255
G1 X103.971 Y57.409 E2.20978
G1 X104.532 Y57.753 E2.21298
G1 X105.084 Y58.145 E2.21627
G1 X105.773 Y58.719 E2.22063
G1 X106.858 Y59.737 E2.22786
G1 X107.316 Y60.210 E2.23107
G1 X107.900 Y60.915 E2.23552
G1 X108.278 Y61.454 E2.23872
G1 X109.075 Y62.710 E2.24595
G1 X109.401 Y63.282 E2.24915
G1 X109.791 Y64.111 E2.25361
G1 X110.024 Y64.726 E2.25681
G1 X110.484 Y66.141 E2.26404
G1 X110.709 Y67.009 E2.26840
G1 X110.829 Y67.676 E2.27169
G1 X110.901 Y68.330 E2.27489
G1 X110.995 Y69.814 E2.28213
G1 X111.005 Y70.467 E2.28530
G1 X110.970 Y71.149 E2.28862
G1 X110.855 Y72.038 E2.29298
G1 X110.576 Y73.499 E2.30021
G1 X110.423 Y74.138 E2.30341
G1 X110.139 Y75.011 E2.30787
G1 X109.887 Y75.619 E2.31107
G1 X109.254 Y76.965 E2.31830
G1 X108.825 Y77.752 E2.32266
G1 X108.455 Y78.320 E2.32596
G1 X108.060 Y78.846 E2.32916
G1 X107.112 Y79.992 E2.33639
G1 X106.500 Y80.648 E2.34075
G1 X106.001 Y81.106 E2.34404
G1 X105.488 Y81.518 E2.34724
G1 X104.284 Y82.392 E2.35447
G1 X103.735 Y82.753 E2.35767
G1 X103.144 Y83.086 E2.36097
G1 X102.331 Y83.466 E2.36533
G1 X100.948 Y84.013 E2.37256
G1 X100.326 Y84.227 E2.37576
G1 X99.438 Y84.454 E2.38022
G1 X98.790 Y84.567 E2.38342
G1 X97.314 Y84.754 E2.39065
G1 X96.658 Y84.806 E2.39385
G1 X96.200 Y84.816 E2.39608
G1 X73.342 Y84.806 E2.50722
G1 X72.686 Y84.754 E2.51042
G1 X71.210 Y84.567 E2.51765
G1 X70.562 Y84.454 E2.52085
G1 X69.674 Y84.226 E2.52531
G1 X69.052 Y84.013 E2.52851
G1 X67.669 Y83.466 E2.53574
G1 X67.069 Y83.195 E2.53894
G1 X66.263 Y82.752 E2.54341
G1 X65.716 Y82.392 E2.54659
G1 X64.513 Y81.518 E2.55383
G1 X63.999 Y81.106 E2.55703
G1 X63.331 Y80.479 E2.56148
G1 X62.888 Y79.992 E2.56468
G1 X61.940 Y78.846 E2.57191
G1 X61.547 Y78.323 E2.57510
G1 X61.175 Y77.752 E2.57841
G1 X60.746 Y76.965 E2.58277
G1 X60.113 Y75.619 E2.59000
G1 X59.780 Y74.786 E2.59436
G1 X59.578 Y74.139 E2.59766
G1 X59.424 Y73.500 E2.60085
G1 X59.145 Y72.038 E2.60809
G1 X59.052 Y71.387 E2.61129
G1 X58.995 Y70.472 E2.61574
G1 X59.005 Y69.814 E2.61894
G1 X59.099 Y68.330 E2.62617
G1 X59.171 Y67.676 E2.62937
G1 X59.289 Y67.016 E2.63263
G1 X59.516 Y66.141 E2.63703
G1 X59.976 Y64.726 E2.64426
G1 X60.209 Y64.111 E2.64746
G1 X60.599 Y63.282 E2.65192
G1 X60.925 Y62.710 E2.65512
G1 X61.722 Y61.454 E2.66235
G1 X62.100 Y60.916 E2.66555
G1 X62.635 Y60.265 E2.66964
G1 X62.833 Y60.339 F6000.000
G4 P31
G1 X63.277 Y59.881 E2.67275 F1500.000
G1 X64.361 Y58.862 E2.67998
G1 X65.037 Y58.301 E2.68425
G1 X65.579 Y57.916 E2.68749
G1 X66.124 Y57.582 E2.69060
G1 X67.428 Y56.865 E2.69783
G1 X67.999 Y56.585 E2.70092
G1 X68.842 Y56.251 E2.70533
G1 X69.454 Y56.063 E2.70844
G1 X70.894 Y55.693 E2.71567
G1 X71.757 Y55.526 E2.71994
G1 X72.433 Y55.449 E2.72326
G1 X73.056 Y55.420 E2.72629
G1 X96.944 Y55.420 E2.84243
G1 X97.582 Y55.450 E2.84554
G1 X98.479 Y55.563 E2.84994 F1500.000
G1 X99.106 Y55.693 E2.85305
G1 X100.546 Y56.063 E2.86028
G1 X101.157 Y56.251 E2.86339
G1 X101.779 Y56.489 E2.86663
G1 X102.572 Y56.865 E2.87090
G1 X103.876 Y57.582 E2.87813
G1 X104.421 Y57.916 E2.88124
G1 X104.963 Y58.301 E2.88447
G1 X105.639 Y58.862 E2.88874
G1 X106.723 Y59.881 E2.89597
G1 X107.168 Y60.340 E2.89908
G1 X107.744 Y61.036 E2.90348
G1 X108.112 Y61.560 E2.90659
G1 X108.909 Y62.816 E2.91382
G1 X109.226 Y63.371 E2.91693
G1 X109.611 Y64.189 E2.92132
G1 X109.837 Y64.787 E2.92443
G1 X110.296 Y66.202 E2.93167
G1 X110.517 Y67.052 E2.93594
G1 X110.634 Y67.706 E2.93917
G1 X110.705 Y68.342 E2.94228
G1 X110.798 Y69.827 E2.94951
G1 X110.808 Y70.461 E2.95260
G1 X110.774 Y71.130 E2.95586
G1 X110.661 Y72.001 E2.96013
G1 X110.383 Y73.463 E2.96736
G1 X110.234 Y74.083 E2.97046
G1 X109.954 Y74.944 E2.97486
G1 X109.709 Y75.535 E2.97797
G1 X109.076 Y76.881 E2.98521
G1 X108.655 Y77.652 E2.98948
G1 X108.292 Y78.209 E2.99271
G1 X107.908 Y78.721 E2.99582
G1 X106.960 Y79.867 E3.00305
G1 X106.361 Y80.509 E3.00732
G1 X105.871 Y80.958 E3.01056
G1 X105.372 Y81.358 E3.01367
G1 X104.168 Y82.233 E3.02090
G1 X103.634 Y82.584 E3.02401
G1 X103.055 Y82.911 E3.02724
G1 X102.259 Y83.282 E3.03151
G1 X100.876 Y83.830 E3.03874
G1 X100.271 Y84.037 E3.04186
G1 X99.395 Y84.262 E3.04625
G1 X98.765 Y84.372 E3.04936
G1 X97.289 Y84.558 E3.05659
G1 X96.652 Y84.609 E3.05970
G1 X96.200 Y84.619 E3.06190
G1 X73.348 Y84.609 E3.17301
G1 X72.711 Y84.558 E3.17612
G1 X71.235 Y84.372 E3.18335
G1 X70.605 Y84.262 E3.18646
G1 X69.729 Y84.037 E3.19086
G1 X69.124 Y83.830 E3.19397
G1 X67.741 Y83.282 E3.20120
G1 X67.158 Y83.019 E3.20431
G1 X66.364 Y82.582 E3.20872
G1 X65.832 Y82.233 E3.21181
G1 X64.628 Y81.358 E3.21905
G1 X64.129 Y80.958 E3.22216
G1 X63.470 Y80.340 E3.22655
G1 X63.040 Y79.867 E3.22966
G1 X62.092 Y78.721 E3.23689
G1 X61.710 Y78.212 E3.23999
G1 X61.345 Y77.652 E3.24324
G1 X60.924 Y76.881 E3.24751
G1 X60.291 Y75.535 E3.25474
G1 X59.965 Y74.719 E3.25901
G1 X59.767 Y74.084 E3.26224
G1 X59.618 Y73.463 E3.26535
G1 X59.339 Y72.001 E3.27258
G1 X59.249 Y71.368 E3.27569
G1 X59.192 Y70.466 E3.28009
G1 X59.202 Y69.827 E3.28320
G1 X59.295 Y68.342 E3.29043
G1 X59.366 Y67.707 E3.29354
G1 X59.481 Y67.058 E3.29674
G1 X59.704 Y66.202 E3.30105
G1 X60.163 Y64.787 E3.30828
G1 X60.389 Y64.189 E3.31139
G1 X60.774 Y63.371 E3.31578
G1 X61.091 Y62.816 E3.31889
G1 X61.888 Y61.560 E3.32612
G1 X62.256 Y61.036 E3.32923
G1 X62.783 Y60.396 E3.33327
G1 X62.980 Y60.470 F6000.000
G4 P31
G1 X63.412 Y60.024 E3.33628 F1500.000
G1 X64.496 Y59.006 E3.34352
G1 X65.157 Y58.456 E3.34770
G1 X65.690 Y58.079 E3.35087
G1 X66.219 Y57.754 E3.35389
G1 X67.523 Y57.038 E3.36112
G1 X68.077 Y56.766 E3.36412
G1 X68.909 Y56.436 E3.36848
G1 X69.503 Y56.254 E3.37149
G1 X70.943 Y55.884 E3.37873
G1 X71.787 Y55.721 E3.38291
G1 X72.451 Y55.645 E3.38616
G1 X73.056 Y55.617 E3.38910
G1 X96.944 Y55.617 E3.50525
G1 X97.564 Y55.646 E3.50827
G1 X98.449 Y55.758 E3.51260 F1500.000
G1 X99.056 Y55.884 E3.51562
G1 X100.497 Y56.254 E3.52285
G1 X101.091 Y56.436 E3.52587
G1 X101.701 Y56.670 E3.52905
G1 X102.477 Y57.038 E3.53323
G1 X103.781 Y57.754 E3.54046
G1 X104.310 Y58.079 E3.54348
G1 X104.843 Y58.456 E3.54665
G1 X105.504 Y59.006 E3.55083
G1 X106.588 Y60.024 E3.55806
G1 X107.020 Y60.470 E3.56108
G1 X107.588 Y61.157 E3.56542
G1 X107.945 Y61.665 E3.56844
G1 X108.743 Y62.921 E3.57567
G1 X109.050 Y63.460 E3.57869
G1 X109.430 Y64.267 E3.58302
G1 X109.649 Y64.848 E3.58604
G1 X110.109 Y66.263 E3.59328
G1 X110.325 Y67.095 E3.59745
G1 X110.440 Y67.737 E3.60063
G1 X110.508 Y68.355 E3.60365
G1 X110.601 Y69.839 E3.61088
G1 X110.611 Y70.455 E3.61387
G1 X110.578 Y71.112 E3.61707
G1 X110.468 Y71.964 E3.62125
G1 X110.189 Y73.426 E3.62849
G1 X110.044 Y74.028 E3.63150
G1 X109.768 Y74.877 E3.63584
G1 X109.531 Y75.451 E3.63886
G1 X108.897 Y76.797 E3.64609
G1 X108.485 Y77.551 E3.65027
G1 X108.129 Y78.098 E3.65345
G1 X107.756 Y78.595 E3.65647
G1 X106.808 Y79.741 E3.66370
G1 X106.221 Y80.369 E3.66788
G1 X105.741 Y80.811 E3.67105
G1 X105.256 Y81.199 E3.67407
G1 X104.052 Y82.073 E3.68130
G1 X103.534 Y82.414 E3.68432
G1 X102.965 Y82.735 E3.68750
G1 X102.186 Y83.099 E3.69168
G1 X100.803 Y83.647 E3.69891
G1 X100.216 Y83.848 E3.70193
G1 X99.352 Y84.070 E3.70626
G1 X98.741 Y84.176 E3.70928
G1 X97.265 Y84.363 E3.71651
G1 X96.646 Y84.412 E3.71953
G1 X96.200 Y84.422 E3.72170
G1 X73.354 Y84.412 E3.83278
G1 X72.735 Y84.363 E3.83580
G1 X71.259 Y84.176 E3.84304
G1 X70.648 Y84.070 E3.84605
G1 X69.784 Y83.848 E3.85039
G1 X69.197 Y83.647 E3.85341
G1 X67.814 Y83.099 E3.86064
G1 X67.248 Y82.844 E3.86366
G1 X66.463 Y82.412 E3.86801
G1 X65.948 Y82.073 E3.87101
G1 X64.744 Y81.199 E3.87825
G1 X64.259 Y80.811 E3.88127
G1 X63.610 Y80.200 E3.88560
G1 X63.192 Y79.741 E3.88862
G1 X62.244 Y78.595 E3.89585
G1 X61.873 Y78.101 E3.89886
G1 X61.515 Y77.551 E3.90205
G1 X61.103 Y76.797 E3.90623
G1 X60.469 Y75.451 E3.91346
G1 X60.151 Y74.653 E3.91764
G1 X59.956 Y74.029 E3.92081
G1 X59.811 Y73.426 E3.92383
G1 X59.532 Y71.965 E3.93106
G1 X59.445 Y71.350 E3.93408
G1 X59.389 Y70.460 E3.93842
G1 X59.399 Y69.839 E3.94144
G1 X59.492 Y68.355 E3.94867
G1 X59.560 Y67.737 E3.95169
G1 X59.674 Y67.101 E3.95483
G1 X59.891 Y66.263 E3.95904
G1 X60.351 Y64.848 E3.96628
G1 X60.570 Y64.267 E3.96929
G1 X60.950 Y63.461 E3.97363
G1 X61.257 Y62.921 E3.97665
G1 X62.055 Y61.665 E3.98388
G1 X62.412 Y61.157 E3.98690
G1 X62.931 Y60.526 E3.99087
G1 X63.128 Y60.600 F6000.000
G4 P31
G1 X63.547 Y60.168 E3.99380 F1500.000
G1 X64.631 Y59.150 E4.00103
G1 X65.278 Y58.612 E4.00512
G1 X65.800 Y58.242 E4.00823
G1 X66.314 Y57.927 E4.01116
G1 X67.618 Y57.210 E4.01840
G1 X68.155 Y56.947 E4.02131
G1 X68.976 Y56.622 E4.02560
G1 X69.552 Y56.445 E4.02853
G1 X70.992 Y56.075 E4.03576
G1 X71.818 Y55.915 E4.03985
G1 X72.469 Y55.841 E4.04304
G1 X73.056 Y55.814 E4.04589
G1 X96.944 Y55.814 E4.16204
G1 X97.545 Y55.842 E4.16497
G1 X98.418 Y55.953 E4.16924 F1500.000
G1 X99.007 Y56.075 E4.17217
G1 X100.448 Y56.445 E4.17941
G1 X101.024 Y56.622 E4.18233
G1 X101.622 Y56.851 E4.18545
G1 X102.382 Y57.210 E4.18954
G1 X103.686 Y57.927 E4.19677
G1 X104.199 Y58.242 E4.19970
G1 X104.722 Y58.612 E4.20281
G1 X105.369 Y59.150 E4.20690
G1 X106.453 Y60.168 E4.21414
G1 X106.872 Y60.601 E4.21706
G1 X107.433 Y61.278 E4.22134
G1 X107.779 Y61.771 E4.22427
G1 X108.576 Y63.027 E4.23150
G1 X108.875 Y63.550 E4.23443
G1 X109.249 Y64.345 E4.23870
G1 X109.462 Y64.909 E4.24163
G1 X109.921 Y66.324 E4.24887
G1 X110.132 Y67.138 E4.25295
G1 X110.245 Y67.768 E4.25607
G1 X110.311 Y68.367 E4.25900
G1 X110.405 Y69.852 E4.26623
G1 X110.414 Y70.449 E4.26913
G1 X110.381 Y71.093 E4.27227
G1 X110.274 Y71.928 E4.27636
G1 X109.995 Y73.389 E4.28359
G1 X109.855 Y73.973 E4.28652
G1 X109.583 Y74.810 E4.29080
G1 X109.353 Y75.367 E4.29373
G1 X108.719 Y76.713 E4.30096
G1 X108.316 Y77.451 E4.30505
G1 X107.966 Y77.988 E4.30816
G1 X107.605 Y78.469 E4.31109
G1 X106.656 Y79.616 E4.31832
G1 X106.082 Y80.230 E4.32241
G1 X105.610 Y80.663 E4.32553
G1 X105.140 Y81.040 E4.32846
G1 X103.937 Y81.914 E4.33569
G1 X103.434 Y82.244 E4.33862
G1 X102.876 Y82.560 E4.34173
G1 X102.114 Y82.916 E4.34582
G1 X100.731 Y83.464 E4.35305
G1 X100.161 Y83.659 E4.35598
G1 X99.309 Y83.877 E4.36026
G1 X98.716 Y83.981 E4.36319
G1 X97.240 Y84.167 E4.37042
G1 X96.640 Y84.215 E4.37335
G1 X96.200 Y84.225 E4.37549
G1 X73.360 Y84.215 E4.48654
G1 X72.760 Y84.167 E4.48947
G1 X71.284 Y83.981 E4.49670
G1 X70.691 Y83.877 E4.49963
G1 X70.069 Y83.725 E4.50274
G1 X69.269 Y83.464 E4.50683
G1 X67.886 Y82.916 E4.51406
G1 X67.337 Y82.668 E4.51699
G1 X66.564 Y82.243 E4.52129
G1 X66.063 Y81.914 E4.52420
G1 X64.860 Y81.040 E4.53143
G1 X64.390 Y80.663 E4.53436
G1 X63.918 Y80.230 E4.53747
G1 X63.344 Y79.616 E4.54156
G1 X62.395 Y78.469 E4.54879
G1 X61.899 Y77.790 E4.55288
G1 X61.562 Y77.245 E4.55600
G1 X61.281 Y76.713 E4.55893
G1 X60.647 Y75.367 E4.56616
G1 X60.417 Y74.811 E4.56909
G1 X60.145 Y73.974 E4.57336
G1 X60.005 Y73.389 E4.57629
G1 X59.726 Y71.928 E4.58352
G1 X59.641 Y71.331 E4.58645
G1 X59.593 Y70.694 E4.58956
G1 X59.595 Y69.852 E4.59366
G1 X59.689 Y68.367 E4.60089
G1 X59.755 Y67.768 E4.60382
G1 X59.920 Y66.904 E4.60810
G1 X60.079 Y66.324 E4.61102
G1 X60.538 Y64.909 E4.61825
G1 X60.751 Y64.345 E4.62118
G1 X61.125 Y63.550 E4.62546
G1 X61.424 Y63.027 E4.62839
G1 X62.221 Y61.771 E4.63562
G1 X62.567 Y61.278 E4.63855
G1 X63.079 Y60.656 E4.64246
G1 X63.276 Y60.730 F6000.000
G4 P31
G1 X63.682 Y60.312 E4.64530 F1500.000
G1 X64.766 Y59.293 E4.65253
G1 X65.399 Y58.768 E4.65653
G1 X65.911 Y58.405 E4.65958
G1 X66.409 Y58.100 E4.66242
G1 X67.713 Y57.383 E4.66965
G1 X68.235 Y57.127 E4.67248
G1 X69.043 Y56.807 E4.67671
G1 X69.601 Y56.636 E4.67954
G1 X71.042 Y56.266 E4.68678
G1 X71.849 Y56.110 E4.69078
G1 X72.487 Y56.037 E4.69390
G1 X73.056 Y56.011 E4.69667
G1 X96.944 Y56.011 E4.81282
G1 X97.527 Y56.039 E4.81565
G1 X98.387 Y56.147 E4.81987 F1500.000
G1 X98.958 Y56.266 E4.82271
G1 X100.399 Y56.636 E4.82994
G1 X100.957 Y56.807 E4.83278
G1 X101.544 Y57.031 E4.83583
G1 X102.287 Y57.383 E4.83983
G1 X103.591 Y58.100 E4.84706
G1 X104.089 Y58.405 E4.84990
G1 X104.601 Y58.768 E4.85296
G1 X105.234 Y59.293 E4.85696
G1 X106.318 Y60.312 E4.86419
G1 X106.725 Y60.731 E4.86703
G1 X107.277 Y61.399 E4.87124
G1 X107.613 Y61.876 E4.87408
G1 X108.410 Y63.132 E4.88131
G1 X108.699 Y63.639 E4.88415
G1 X109.068 Y64.424 E4.88836
G1 X109.274 Y64.970 E4.89120
G1 X109.734 Y66.385 E4.89844
G1 X109.940 Y67.181 E4.90243
G1 X110.050 Y67.799 E4.90549
G1 X110.115 Y68.379 E4.90833
G1 X110.208 Y69.864 E4.91556
G1 X110.217 Y70.443 E4.91837
G1 X110.185 Y71.075 E4.92145
G1 X110.080 Y71.891 E4.92545
G1 X109.802 Y73.352 E4.93268
G1 X109.665 Y73.921 E4.93553
G1 X109.398 Y74.744 E4.93974
G1 X109.174 Y75.283 E4.94258
G1 X108.541 Y76.629 E4.94981
G1 X108.146 Y77.351 E4.95381
G1 X107.803 Y77.877 E4.95686
G1 X107.453 Y78.344 E4.95970
G1 X106.505 Y79.490 E4.96693
G1 X105.943 Y80.091 E4.97093
G1 X105.480 Y80.515 E4.97398
G1 X105.024 Y80.880 E4.97682
G1 X103.821 Y81.754 E4.98406
G1 X103.333 Y82.075 E4.98689
G1 X102.786 Y82.384 E4.98995
G1 X102.041 Y82.733 E4.99395
G1 X100.658 Y83.280 E5.00118
G1 X100.106 Y83.469 E5.00402
G1 X99.266 Y83.685 E5.00823
G1 X98.691 Y83.785 E5.01107
G1 X97.215 Y83.972 E5.01830
G1 X96.633 Y84.018 E5.02114
G1 X96.200 Y84.028 E5.02325
G1 X73.367 Y84.018 E5.13427
G1 X72.785 Y83.972 E5.13711
G1 X71.309 Y83.785 E5.14434
G1 X70.734 Y83.685 E5.14718
G1 X70.124 Y83.536 E5.15024
G1 X69.342 Y83.280 E5.15424
G1 X67.959 Y82.733 E5.16147
G1 X67.427 Y82.493 E5.16431
G1 X66.664 Y82.073 E5.16854
G1 X66.179 Y81.754 E5.17136
G1 X64.976 Y80.880 E5.17859
G1 X64.520 Y80.515 E5.18143
G1 X64.057 Y80.091 E5.18448
G1 X63.495 Y79.490 E5.18848
G1 X62.547 Y78.344 E5.19572
G1 X62.062 Y77.679 E5.19972
G1 X61.732 Y77.145 E5.20277
G1 X61.459 Y76.629 E5.20561
G1 X60.826 Y75.283 E5.21284
G1 X60.602 Y74.744 E5.21568
G1 X60.335 Y73.919 E5.21989
G1 X60.198 Y73.352 E5.22273
G1 X59.920 Y71.891 E5.22996
G1 X59.837 Y71.313 E5.23280
G1 X59.790 Y70.688 E5.23585
G1 X59.792 Y69.864 E5.23986
G1 X59.885 Y68.379 E5.24709
G1 X59.949 Y67.799 E5.24993
G1 X60.112 Y66.947 E5.25415
G1 X60.266 Y66.385 E5.25698
G1 X60.726 Y64.970 E5.26421
G1 X60.932 Y64.424 E5.26705
G1 X61.301 Y63.640 E5.27127
G1 X61.590 Y63.132 E5.27410
G1 X62.387 Y61.876 E5.28134
G1 X62.723 Y61.399 E5.28418
G1 X63.226 Y60.787 E5.28803
G1 F4800
G1 X63.682 Y60.312 E5.05365
G1 F4800
G1 X64.766 Y59.293 E4.52373
G1 F4800
G1 X65.399 Y58.768 E4.23063
G1 F4800
G1 X65.911 Y58.405 E4.00698
G1 F4800
G1 X66.409 Y58.100 E3.79897
G1 F4800
G1 X67.420 Y57.544 E3.38803
G1 E3.28803 F1800.00000
G92 E0
G1 X95.302 Y62.952 F6000.000
G1 E2.00000 F1800.00000
G1 X95.625 Y63.221 E2.00204 F1500.000
G1 X96.646 Y63.229 E2.00700
G1 X97.078 Y63.045 E2.00929
G4 P14
G1 X97.452 Y63.331 E2.01158
G1 X98.443 Y63.577 E2.01655
G1 X98.812 Y63.401 E2.01853
G4 P16
G1 X98.962 Y63.782 E2.02052
G1 X99.821 Y64.264 E2.02531
G1 X100.124 Y64.336 E2.02683
G1 X100.370 Y64.248 E2.02810
G4 P22
G1 X100.422 Y64.664 E2.03014
G1 X101.160 Y65.369 E2.03511
G1 X101.602 Y65.531 E2.03739
G1 X101.678 Y65.996 E2.03968
G1 X102.232 Y66.853 E2.04465
G1 X102.622 Y66.978 E2.04663
