; generated by Slic3r 1.2.9 on 2016-02-24 at 19:16:14

; external perimeters extrusion width = 0.50mm
; perimeters extrusion width = 0.50mm
; infill extrusion width = 0.50mm
; solid infill extrusion width = 0.50mm
; top infill extrusion width = 0.50mm

M107
M190 S60 ; set bed temperature
M104 S210 ; set temperature
G28 ; home all axes
M109 S210 ; wait for temperature to be reached
G21 ; set units to millimeters
G90 ; use absolute coordinates
M82 ; use absolute distances for extrusion
G92 E0
G1 Z0.350 F7800.000
G1 E-2.00000 F1920.00000
G92 E0
G1 X62.884 Y41.593 F7800.000
G1 E2.00000 F1920.00000
M204 S3000
G1 X63.209 Y41.106 E2.00445 F1500.000
G1 X64.328 Y39.742 E2.01785
G1 X64.742 Y39.328 E2.02230
G1 X66.106 Y38.209 E2.03570
G1 X66.593 Y37.884 E2.04015
G1 X68.149 Y37.052 E2.05355
G1 X68.689 Y36.828 E2.05800
G1 X70.378 Y36.316 E2.07140
G1 X70.952 Y36.202 E2.07585
G1 X73.000 Y36.015 E2.09147
G1 X97.000 Y36.015 E2.27381
G1 X97.293 Y36.029 E2.27603
G1 X99.048 Y36.202 E2.28944 F1500.000
G1 X99.622 Y36.316 E2.29388
G1 X101.311 Y36.828 E2.30729
G1 X101.851 Y37.052 E2.31173
G1 X103.407 Y37.884 E2.32514
G1 X103.894 Y38.209 E2.32958
G1 X105.258 Y39.328 E2.34299
G1 X105.672 Y39.742 E2.34743
G1 X106.791 Y41.106 E2.36084
G1 X107.116 Y41.593 E2.36528
G1 X107.948 Y43.149 E2.37869
G1 X108.172 Y43.689 E2.38314
G1 X108.684 Y45.378 E2.39654
G1 X108.798 Y45.952 E2.40099
G1 X108.971 Y47.707 E2.41439
G1 X108.971 Y48.293 E2.41884
G1 X108.798 Y50.048 E2.43224
G1 X108.684 Y50.622 E2.43669
G1 X108.172 Y52.311 E2.45009
G1 X107.948 Y52.851 E2.45454
G1 X107.116 Y54.407 E2.46794
G1 X106.791 Y54.894 E2.47239
G1 X105.475 Y56.475 E2.48801
G1 X81.475 Y80.475 E2.74587
G1 X79.894 Y81.791 E2.76150
G1 X79.407 Y82.116 E2.76595
G1 X77.851 Y82.948 E2.77935
G1 X77.311 Y83.172 E2.78380
G1 X75.622 Y83.684 E2.79720
G1 X75.048 Y83.798 E2.80165
G1 X73.293 Y83.971 E2.81505
G1 X72.707 Y83.971 E2.81950
G1 X70.952 Y83.798 E2.83290
G1 X70.378 Y83.684 E2.83735
G1 X68.689 Y83.172 E2.85075
G1 X68.149 Y82.948 E2.85520
G1 X66.593 Y82.116 E2.86860
G1 X66.106 Y81.791 E2.87305
G1 X64.742 Y80.672 E2.88645
G1 X64.328 Y80.258 E2.89090
G1 X63.209 Y78.894 E2.90430
G1 X62.884 Y78.407 E2.90875
G1 X62.052 Y76.851 E2.92215
G1 X61.828 Y76.311 E2.92660
G1 X61.316 Y74.622 E2.94000
G1 X61.202 Y74.048 E2.94445
G1 X61.015 Y72.000 E2.96008
G1 X61.015 Y48.000 E3.14241
G1 X61.202 Y45.952 E3.15804
G1 X61.316 Y45.378 E3.16248
G1 X61.828 Y43.689 E3.17589
G1 X62.052 Y43.149 E3.18033
G1 X62.849 Y41.659 E3.19317
G1 X63.101 Y41.709 F7800.000
G4 P31
G1 X63.399 Y41.262 E3.19725 F1500.000
G1 X64.519 Y39.898 E3.21065
G1 X64.898 Y39.519 E3.21473
G1 X66.262 Y38.399 E3.22813
G1 X66.709 Y38.101 E3.23221
G1 X68.265 Y37.269 E3.24562
G1 X68.761 Y37.064 E3.24970
G1 X70.449 Y36.552 E3.26310
G1 X70.976 Y36.447 E3.26718
G1 X73.000 Y36.261 E3.28262
G1 X97.000 Y36.261 E3.46496
G1 X97.268 Y36.274 E3.46700
G1 X99.024 Y36.447 E3.48040 F1500.000
G1 X99.551 Y36.552 E3.48448
G1 X101.239 Y37.064 E3.49789
G1 X101.735 Y37.269 E3.50197
G1 X103.291 Y38.101 E3.51537
G1 X103.738 Y38.399 E3.51945
G1 X105.102 Y39.519 E3.53285
G1 X105.481 Y39.898 E3.53693
G1 X106.601 Y41.262 E3.55034
G1 X106.899 Y41.709 E3.55442
G1 X107.731 Y43.265 E3.56782
G1 X107.936 Y43.761 E3.57190
G1 X108.448 Y45.449 E3.58530
G1 X108.553 Y45.976 E3.58938
G1 X108.726 Y47.732 E3.60279
G1 X108.726 Y48.268 E3.60687
G1 X108.553 Y50.024 E3.62027
G1 X108.448 Y50.551 E3.62435
G1 X107.936 Y52.239 E3.63775
G1 X107.731 Y52.735 E3.64183
G1 X106.899 Y54.291 E3.65524
G1 X106.601 Y54.738 E3.65932
G1 X105.301 Y56.301 E3.67476
G1 X81.301 Y80.301 E3.93262
G1 X79.738 Y81.601 E3.94806
G1 X79.291 Y81.899 E3.95214
G1 X77.735 Y82.731 E3.96555
G1 X77.239 Y82.936 E3.96963
G1 X75.551 Y83.448 E3.98303
G1 X75.024 Y83.553 E3.98711
G1 X73.268 Y83.726 E4.00051
G1 X72.732 Y83.726 E4.00459
G1 X70.976 Y83.553 E4.01800
G1 X70.449 Y83.448 E4.02207
G1 X68.761 Y82.936 E4.03548
G1 X68.265 Y82.731 E4.03956
G1 X66.709 Y81.899 E4.05296
G1 X66.262 Y81.601 E4.05704
G1 X64.898 Y80.481 E4.07045
G1 X64.519 Y80.102 E4.07452
G1 X63.399 Y78.738 E4.08793
G1 X63.101 Y78.291 E4.09201
G1 X62.269 Y76.735 E4.10541
G1 X62.064 Y76.239 E4.10949
G1 X61.552 Y74.551 E4.12290
G1 X61.447 Y74.024 E4.12697
G1 X61.261 Y72.000 E4.14242
G1 X61.261 Y48.000 E4.32475
G1 X61.447 Y45.976 E4.34020
G1 X61.552 Y45.449 E4.34428
G1 X62.064 Y43.761 E4.35768
G1 X62.269 Y43.265 E4.36176
G1 X63.066 Y41.775 E4.37459
G1 X63.318 Y41.825 F7800.000
G4 P31
G1 X63.590 Y41.419 E4.37831 F1500.000
G1 X64.709 Y40.055 E4.39171
G1 X65.055 Y39.709 E4.39542
G1 X66.419 Y38.590 E4.40883
G1 X66.825 Y38.318 E4.41254
G1 X68.381 Y37.487 E4.42594
G1 X68.832 Y37.300 E4.42965
G1 X70.521 Y36.788 E4.44306
G1 X71.000 Y36.692 E4.44677
G1 X73.000 Y36.507 E4.46203
G1 X97.244 Y36.519 E4.64622
G1 X99.000 Y36.692 E4.65963 F1500.000
G1 X99.479 Y36.788 E4.66334
G1 X101.168 Y37.300 E4.67674
G1 X101.619 Y37.487 E4.68045
G1 X103.175 Y38.318 E4.69386
G1 X103.581 Y38.590 E4.69757
G1 X104.945 Y39.709 E4.71097
G1 X105.291 Y40.055 E4.71469
G1 X106.410 Y41.419 E4.72809
G1 X106.682 Y41.825 E4.73180
G1 X107.513 Y43.381 E4.74521
G1 X107.700 Y43.832 E4.74892
G1 X108.212 Y45.521 E4.76232
G1 X108.308 Y46.000 E4.76604
G1 X108.481 Y47.756 E4.77944
G1 X108.481 Y48.244 E4.78315
G1 X108.308 Y50.000 E4.79656
G1 X108.212 Y50.479 E4.80027
G1 X107.700 Y52.168 E4.81367
G1 X107.513 Y52.619 E4.81739
G1 X106.682 Y54.175 E4.83079
G1 X106.410 Y54.581 E4.83450
G1 X105.127 Y56.127 E4.84976
G1 X81.127 Y80.127 E5.10762
G1 X79.581 Y81.410 E5.12288
G1 X79.175 Y81.682 E5.12659
G1 X77.619 Y82.513 E5.14000
G1 X77.168 Y82.700 E5.14371
G1 X75.479 Y83.212 E5.15711
G1 X75.000 Y83.308 E5.16083
G1 X73.244 Y83.481 E5.17423
G1 X72.756 Y83.481 E5.17794
G1 X71.000 Y83.308 E5.19135
G1 X70.521 Y83.212 E5.19506
G1 X68.832 Y82.700 E5.20846
G1 X68.381 Y82.513 E5.21218
G1 X66.825 Y81.682 E5.22558
G1 X66.419 Y81.410 E5.22929
G1 X65.055 Y80.291 E5.24270
G1 X64.709 Y79.945 E5.24641
G1 X63.590 Y78.581 E5.25981
G1 X63.318 Y78.175 E5.26353
G1 X62.487 Y76.619 E5.27693
G1 X62.300 Y76.168 E5.28064
G1 X61.788 Y74.479 E5.29405
G1 X61.692 Y74.000 E5.29776
G1 X61.507 Y72.000 E5.31302
G1 X61.507 Y48.000 E5.49535
G1 X61.692 Y46.000 E5.51061
G1 X61.788 Y45.521 E5.51433
G1 X62.300 Y43.832 E5.52773
G1 X62.487 Y43.381 E5.53144
G1 X63.283 Y41.891 E5.54428
G1 X63.536 Y41.941 F7800.000
G4 P31
G1 X63.780 Y41.575 E5.54762 F1500.000
G1 X64.900 Y40.211 E5.56103
G1 X65.211 Y39.900 E5.56437
G1 X66.575 Y38.780 E5.57777
G1 X66.941 Y38.536 E5.58112
G1 X68.497 Y37.704 E5.59452
G1 X68.904 Y37.535 E5.59787
G1 X70.592 Y37.023 E5.61127
G1 X71.024 Y36.937 E5.61462
G1 X73.000 Y36.754 E5.62970
G1 X97.220 Y36.764 E5.81370
G1 X98.976 Y36.937 E5.82711 F1500.000
G1 X99.408 Y37.023 E5.83045
G1 X101.096 Y37.535 E5.84386
G1 X101.503 Y37.704 E5.84720
G1 X103.059 Y38.536 E5.86061
G1 X103.425 Y38.780 E5.86395
G1 X104.789 Y39.900 E5.87736
G1 X105.100 Y40.211 E5.88070
G1 X106.220 Y41.575 E5.89410
G1 X106.464 Y41.941 E5.89745
G1 X107.296 Y43.497 E5.91085
G1 X107.465 Y43.904 E5.91420
G1 X107.977 Y45.592 E5.92760
G1 X108.063 Y46.024 E5.93095
G1 X108.236 Y47.780 E5.94435
G1 X108.236 Y48.220 E5.94770
G1 X108.063 Y49.976 E5.96110
G1 X107.977 Y50.408 E5.96445
G1 X107.465 Y52.096 E5.97785
G1 X107.296 Y52.503 E5.98120
G1 X106.464 Y54.059 E5.99460
G1 X106.220 Y54.425 E5.99795
G1 X104.952 Y55.952 E6.01302
G1 X80.952 Y79.952 E6.27088
G1 X79.425 Y81.220 E6.28596
G1 X79.059 Y81.464 E6.28931
G1 X77.503 Y82.296 E6.30271
G1 X77.096 Y82.465 E6.30606
G1 X75.408 Y82.977 E6.31946
G1 X74.976 Y83.063 E6.32280
G1 X73.220 Y83.236 E6.33621
G1 X72.780 Y83.236 E6.33955
G1 X71.024 Y83.063 E6.35296
G1 X70.592 Y82.977 E6.35630
G1 X68.904 Y82.465 E6.36971
G1 X68.497 Y82.296 E6.37305
G1 X66.941 Y81.464 E6.38646
G1 X66.575 Y81.220 E6.38980
G1 X65.211 Y80.100 E6.40321
G1 X64.900 Y79.789 E6.40655
G1 X63.780 Y78.425 E6.41996
G1 X63.536 Y78.059 E6.42330
G1 X62.704 Y76.503 E6.43671
G1 X62.535 Y76.096 E6.44005
G1 X62.023 Y74.408 E6.45345
G1 X61.937 Y73.976 E6.45680
G1 X61.754 Y72.000 E6.47188
G1 X61.754 Y48.000 E6.65421
G1 X61.937 Y46.024 E6.66929
G1 X62.023 Y45.592 E6.67263
G1 X62.535 Y43.904 E6.68604
G1 X62.704 Y43.497 E6.68938
G1 X63.500 Y42.007 E6.70222
G1 E4.70222 F1920.00000
G92 E0
G1 X75.782 Y49.859 F7800.000
G1 E2.00000 F1920.00000
G1 X75.366 Y50.366 E2.00498 F1500.000
G1 X74.859 Y50.782 E2.00997
G1 X74.280 Y51.091 E2.01495
G1 X73.653 Y51.282 E2.01993
G1 X73.000 Y51.346 E2.02491
G1 X72.347 Y51.282 E2.02990
G1 X71.720 Y51.091 E2.03488
G1 X71.141 Y50.782 E2.03986
G1 X70.634 Y50.366 E2.04485
G1 X70.218 Y49.859 E2.04983
G1 X69.909 Y49.280 E2.05481
G1 X69.718 Y48.653 E2.05980
G1 X69.654 Y48.000 E2.06478
G1 X69.718 Y47.347 E2.06976
G1 X69.909 Y46.720 E2.07474
G1 X70.218 Y46.141 E2.07973
G1 X70.634 Y45.634 E2.08471
G1 X71.141 Y45.218 E2.08969
G1 X71.720 Y44.909 E2.09468
G1 X72.347 Y44.718 E2.09966
G1 X73.000 Y44.654 E2.10464 F1500.000
G1 X73.653 Y44.718 E2.10963
G1 X74.280 Y44.909 E2.11461
G1 X74.859 Y45.218 E2.11959
G1 X75.366 Y45.634 E2.12457
G1 X75.782 Y46.141 E2.12956
G1 X76.091 Y46.720 E2.13454
G1 X76.282 Y47.347 E2.13952
G1 X76.346 Y48.000 E2.14451
G1 X76.282 Y48.653 E2.14949
G1 X76.091 Y49.280 E2.15447
G1 X75.817 Y49.793 E2.15889
G1 X75.576 Y49.721 F7800.000
G4 P31
G1 X75.191 Y50.191 E2.16350 F1500.000
G1 X74.721 Y50.576 E2.16811
G1 X74.186 Y50.862 E2.17273
G1 X73.604 Y51.039 E2.17734
G1 X73.000 Y51.098 E2.18196
G1 X72.396 Y51.039 E2.18657
G1 X71.814 Y50.862 E2.19119
G1 X71.279 Y50.576 E2.19580
G1 X70.809 Y50.191 E2.20041
G1 X70.424 Y49.721 E2.20503
G1 X70.138 Y49.186 E2.20964
G1 X69.961 Y48.604 E2.21426
G1 X69.902 Y48.000 E2.21887
G1 X69.961 Y47.396 E2.22349
G1 X70.138 Y46.814 E2.22810
G1 X70.424 Y46.279 E2.23271
G1 X70.809 Y45.809 E2.23733
G1 X71.279 Y45.424 E2.24194
G1 X71.814 Y45.138 E2.24656
G1 X72.396 Y44.961 E2.25117
G1 X73.000 Y44.902 E2.25579 F1500.000
G1 X73.604 Y44.961 E2.26040
G1 X74.186 Y45.138 E2.26501
G1 X74.721 Y45.424 E2.26963
G1 X75.191 Y45.809 E2.27424
G1 X75.576 Y46.279 E2.27886
G1 X75.862 Y46.814 E2.28347
G1 X76.039 Y47.396 E2.28809
G1 X76.098 Y48.000 E2.29270
G1 X76.039 Y48.604 E2.29731
G1 X75.862 Y49.186 E2.30193
G1 X75.611 Y49.655 E2.30597
G1 X75.370 Y49.584 F7800.000
G4 P31
G1 X75.016 Y50.016 E2.31022 F1500.000
G1 X74.584 Y50.370 E2.31446
G1 X74.091 Y50.634 E2.31871
G1 X73.556 Y50.796 E2.32296
G1 X73.000 Y50.851 E2.32720
G1 X72.444 Y50.796 E2.33145
G1 X71.909 Y50.634 E2.33569
G1 X71.416 Y50.370 E2.33994
G1 X70.984 Y50.016 E2.34418
G1 X70.630 Y49.584 E2.34843
G1 X70.366 Y49.091 E2.35268
G1 X70.204 Y48.556 E2.35692
G1 X70.149 Y48.000 E2.36117
G1 X70.204 Y47.444 E2.36541
G1 X70.366 Y46.909 E2.36966
G1 X70.630 Y46.416 E2.37390
G1 X70.984 Y45.984 E2.37815
G1 X71.416 Y45.630 E2.38239
G1 X71.909 Y45.366 E2.38664
G1 X72.444 Y45.204 E2.39089
G1 X73.000 Y45.149 E2.39513 F1500.000
G1 X73.556 Y45.204 E2.39938
G1 X74.091 Y45.366 E2.40362
G1 X74.584 Y45.630 E2.40787
G1 X75.016 Y45.984 E2.41211
G1 X75.370 Y46.416 E2.41636
G1 X75.634 Y46.909 E2.42061
G1 X75.796 Y47.444 E2.42485
G1 X75.851 Y48.000 E2.42910
G1 X75.796 Y48.556 E2.43334
G1 X75.634 Y49.091 E2.43759
G1 X75.406 Y49.518 E2.44126
G1 X75.577 Y50.039 F7800.000
G1 E0.44126 F1920.00000
G92 E0
G1 X79.604 Y53.058 F7800.000
G1 E2.00000 F1920.00000
G1 X78.907 Y53.907 E2.00834 F1500.000
G1 X77.641 Y54.946 E2.02079
G1 X76.197 Y55.718 E2.03323
G1 X74.630 Y56.194 E2.04567
G1 X73.000 Y56.354 E2.05811
G1 X71.370 Y56.194 E2.07055
G1 X69.803 Y55.718 E2.08300
G1 X68.359 Y54.946 E2.09544
G1 X67.093 Y53.907 E2.10788
G1 X66.054 Y52.641 E2.12032
G1 X65.282 Y51.197 E2.13276
G1 X64.806 Y49.630 E2.14521
G1 X64.646 Y48.000 E2.15765
G1 X64.806 Y46.370 E2.17009
G1 X65.282 Y44.803 E2.18253
G1 X66.054 Y43.359 E2.19498
G1 X67.093 Y42.093 E2.20742
G1 X68.359 Y41.054 E2.21986
G1 X69.803 Y40.282 E2.23230
G1 X71.370 Y39.806 E2.24474
G1 X73.010 Y39.647 E2.25726
G1 X74.630 Y39.806 E2.26963 F1500.000
G1 X76.197 Y40.282 E2.28207
G1 X77.641 Y41.054 E2.29451
G1 X78.907 Y42.093 E2.30695
G1 X79.946 Y43.359 E2.31940
G1 X80.718 Y44.803 E2.33184
G1 X81.194 Y46.370 E2.34428
G1 X81.354 Y48.000 E2.35672
G1 X81.194 Y49.630 E2.36916
G1 X80.718 Y51.197 E2.38161
G1 X79.946 Y52.641 E2.39405
G1 X79.652 Y53.000 E2.39758
G1 X79.794 Y53.215 F7800.000
G4 P31
G1 X79.082 Y54.082 E2.40610 F1500.000
G1 X77.779 Y55.152 E2.41892
G1 X76.292 Y55.947 E2.43173
G1 X74.678 Y56.436 E2.44454
G1 X73.000 Y56.602 E2.45735
G1 X71.322 Y56.436 E2.47016
G1 X69.708 Y55.947 E2.48297
G1 X68.221 Y55.152 E2.49578
G1 X66.918 Y54.082 E2.50859
G1 X65.848 Y52.779 E2.52140
G1 X65.053 Y51.292 E2.53421
G1 X64.564 Y49.678 E2.54702
G1 X64.398 Y48.000 E2.55983
G1 X64.564 Y46.322 E2.57264
G1 X65.053 Y44.708 E2.58546
G1 X65.848 Y43.221 E2.59827
G1 X66.918 Y41.918 E2.61108
G1 X68.221 Y40.848 E2.62389
G1 X69.708 Y40.053 E2.63670
G1 X71.322 Y39.564 E2.64951
G1 X73.034 Y39.402 E2.66258
G1 X74.678 Y39.564 E2.67513 F1500.000
G1 X76.292 Y40.053 E2.68794
G1 X77.779 Y40.848 E2.70075
G1 X79.082 Y41.918 E2.71356
G1 X80.152 Y43.221 E2.72637
G1 X80.947 Y44.708 E2.73918
G1 X81.436 Y46.322 E2.75199
G1 X81.602 Y48.000 E2.76480
G1 X81.436 Y49.678 E2.77761
G1 X80.947 Y51.292 E2.79042
G1 X80.152 Y52.779 E2.80323
G1 X79.842 Y53.157 E2.80695
G1 X79.985 Y53.371 F7800.000
G4 P31
G1 X79.257 Y54.257 E2.81566 F1500.000
G1 X77.916 Y55.358 E2.82884
G1 X76.386 Y56.176 E2.84202
G1 X74.726 Y56.679 E2.85520
G1 X73.000 Y56.849 E2.86838
G1 X71.274 Y56.679 E2.88156
G1 X69.614 Y56.176 E2.89474
G1 X68.084 Y55.358 E2.90791
G1 X66.743 Y54.257 E2.92109
G1 X65.642 Y52.916 E2.93427
G1 X64.824 Y51.386 E2.94745
G1 X64.321 Y49.726 E2.96063
G1 X64.151 Y48.000 E2.97381
G1 X64.321 Y46.274 E2.98699
G1 X64.824 Y44.614 E3.00017
G1 X65.642 Y43.084 E3.01335
G1 X66.743 Y41.743 E3.02653
G1 X68.084 Y40.642 E3.03971
G1 X69.614 Y39.824 E3.05289
G1 X71.274 Y39.321 E3.06607
G1 X73.058 Y39.156 E3.07969
G1 X74.726 Y39.321 E3.09242 F1500.000
G1 X76.386 Y39.824 E3.10560
G1 X77.916 Y40.642 E3.11878
G1 X79.257 Y41.743 E3.13196
G1 X80.358 Y43.084 E3.14514
G1 X81.176 Y44.614 E3.15832
G1 X81.679 Y46.274 E3.17150
G1 X81.849 Y48.000 E3.18468
G1 X81.679 Y49.726 E3.19785
G1 X81.176 Y51.386 E3.21103
G1 X80.358 Y52.916 E3.22421
G1 X80.032 Y53.313 E3.22811
G1 X79.492 Y53.289 F7800.000
G1 E1.22811 F1920.00000
G92 E0
G1 X80.704 Y50.818 F7800.000
G1 E2.00000 F1920.00000
G4 P12
G1 X75.909 Y46.023 E2.05160 F1500.000
G1 X76.251 Y46.714 F7800.000
G1 X80.622 Y51.085 E2.09865 F1500.000
G1 X80.515 Y51.327 E2.10066
G1 X76.403 Y47.215 E2.14492
G1 X76.451 Y47.612 E2.14796
G1 X80.393 Y51.554 E2.19039
G1 X80.271 Y51.781 E2.19235
G1 X76.480 Y47.990 E2.23316
G1 X76.448 Y48.307 E2.23559
G1 X80.150 Y52.009 E2.27543
G1 X80.028 Y52.236 E2.27739
G1 X76.417 Y48.625 E2.31626
G1 X76.338 Y48.895 E2.31840
G1 X79.907 Y52.464 E2.35681
G1 X79.769 Y52.675 E2.35873
G1 X76.257 Y49.163 E2.39653
G1 X76.156 Y49.411 E2.39857
G1 X79.612 Y52.867 E2.43577
G1 X79.454 Y53.058 E2.43765
G1 X76.034 Y49.638 E2.47446
G1 X75.913 Y49.866 E2.47642
G1 X79.297 Y53.250 E2.51285
G1 X79.140 Y53.442 E2.51474
G1 X75.763 Y50.065 E2.55108
G1 X75.605 Y50.256 E2.55297
G1 X78.982 Y53.633 E2.58931
G1 X78.811 Y53.811 E2.59119
G1 X75.448 Y50.448 E2.62739
G1 X75.256 Y50.605 E2.62927
G1 X78.633 Y53.982 E2.66562
G1 X78.442 Y54.140 E2.66751
G1 X75.065 Y50.763 E2.70385
G1 X74.866 Y50.913 E2.70575
G1 X78.250 Y54.297 E2.74217
G1 X78.058 Y54.454 E2.74406
G1 X74.638 Y51.034 E2.78087
G1 X74.411 Y51.156 E2.78283
G1 X77.867 Y54.612 E2.82002
G1 X77.675 Y54.769 E2.82191
G1 X74.163 Y51.257 E2.85971
G1 X73.895 Y51.338 E2.86184
G1 X77.464 Y54.907 E2.90026
G1 X77.236 Y55.028 E2.90222
G1 X73.625 Y51.417 E2.94108
G1 X73.307 Y51.448 E2.94351
G1 X77.009 Y55.150 E2.98335
G1 X76.781 Y55.271 E2.98532
G1 X72.990 Y51.480 E3.02613
G1 X72.612 Y51.451 E3.02901
G1 X76.554 Y55.393 E3.07144
G1 X76.326 Y55.515 E3.07340
G1 X72.215 Y51.403 E3.11766
G1 X71.714 Y51.251 E3.12164
G1 X76.085 Y55.622 E3.16869
G1 X75.818 Y55.704 E3.17082
G1 X71.023 Y50.909 E3.22243
G1 X70.091 Y49.977 F7800.000
G1 X65.296 Y45.182 E3.27403 F1500.000
G1 X65.378 Y44.915 E3.27616
G1 X69.749 Y49.286 E3.32321
G1 X69.597 Y48.785 E3.32719
G1 X65.485 Y44.674 E3.37145
G1 X65.607 Y44.446 E3.37341
