; generated by Slic3r 1.2.9 on 2017-06-05 at 17:04:50

; external perimeters extrusion width = 0.50mm
; perimeters extrusion width = 0.50mm
; infill extrusion width = 0.50mm
; solid infill extrusion width = 0.50mm
; top infill extrusion width = 0.50mm

M107
M190 S60 ; set bed temperature
M104 S210 ; set temperature
G28 ; home all axes
M109 S210 ; wait for temperature to be reached
G21 ; set units to millimeters
G90 ; use absolute coordinates
M82 ; use absolute distances for extrusion
G92 E0
G1 E-2.00000 F1800.00000
G92 E0
G1 Z0.250 F7800.000
G1 X75.887 Y62.279 F7800.000
G1 E2.00000 F1800.00000
M204 S3000
G1 X76.328 Y61.742 E2.00528 F1800.000
G1 X76.742 Y61.328 E2.00973
G1 X78.106 Y60.209 E2.02313
G1 X78.593 Y59.884 E2.02758
G1 X80.149 Y59.052 E2.04098
G1 X80.689 Y58.828 E2.04543
G1 X82.378 Y58.316 E2.05883
G1 X82.952 Y58.202 E2.06328
G1 X84.707 Y58.029 E2.07668
G1 X85.366 Y58.036 E2.08168
G1 X87.048 Y58.202 E2.09453 F1800.000
G1 X87.622 Y58.316 E2.09898
G1 X89.311 Y58.828 E2.11238
G1 X89.851 Y59.052 E2.11683
G1 X91.407 Y59.884 E2.13023
G1 X91.894 Y60.209 E2.13468
G1 X93.258 Y61.328 E2.14808
G1 X93.672 Y61.742 E2.15253
G1 X94.791 Y63.106 E2.16593
G1 X95.116 Y63.593 E2.17038
G1 X95.948 Y65.149 E2.18378
G1 X96.172 Y65.689 E2.18823
G1 X96.684 Y67.378 E2.20163
G1 X96.798 Y67.952 E2.20608
G1 X96.971 Y69.707 E2.21948
G1 X96.971 Y70.293 E2.22393
G1 X96.798 Y72.048 E2.23733
G1 X96.684 Y72.622 E2.24178
G1 X96.172 Y74.311 E2.25518
G1 X95.948 Y74.851 E2.25963
G1 X95.116 Y76.407 E2.27303
G1 X94.791 Y76.894 E2.27748
G1 X93.672 Y78.258 E2.29088
G1 X93.258 Y78.672 E2.29533
G1 X91.894 Y79.791 E2.30873
G1 X91.407 Y80.116 E2.31318
G1 X89.851 Y80.948 E2.32658
G1 X89.311 Y81.172 E2.33103
G1 X87.622 Y81.684 E2.34443
G1 X87.048 Y81.798 E2.34888
G1 X85.293 Y81.971 E2.36228
G1 X84.707 Y81.971 E2.36673
G1 X82.952 Y81.798 E2.38013
G1 X82.378 Y81.684 E2.38458
G1 X80.689 Y81.172 E2.39798
G1 X80.149 Y80.948 E2.40243
G1 X78.593 Y80.116 E2.41583
G1 X78.106 Y79.791 E2.42028
G1 X76.742 Y78.672 E2.43368
G1 X76.328 Y78.258 E2.43813
G1 X75.209 Y76.894 E2.45153
G1 X74.884 Y76.407 E2.45598
G1 X74.052 Y74.851 E2.46938
G1 X73.828 Y74.311 E2.47383
G1 X73.316 Y72.622 E2.48723
G1 X73.202 Y72.048 E2.49168
G1 X73.029 Y70.293 E2.50508
G1 X73.029 Y69.707 E2.50953
G1 X73.202 Y67.952 E2.52293
G1 X73.316 Y67.378 E2.52738
G1 X73.828 Y65.689 E2.54078
G1 X74.052 Y65.149 E2.54523
G1 X74.884 Y63.593 E2.55863
G1 X75.209 Y63.106 E2.56308
G1 X75.840 Y62.337 E2.57063
G1 X76.078 Y62.436 F7800.000
G4 P31
G1 X76.519 Y61.898 E2.57591 F1800.000
G1 X76.898 Y61.519 E2.57999
G1 X78.262 Y60.399 E2.59340
G1 X78.709 Y60.101 E2.59748
G1 X80.265 Y59.269 E2.61088
G1 X80.761 Y59.064 E2.61496
G1 X82.449 Y58.552 E2.62836
G1 X82.976 Y58.447 E2.63244
G1 X84.732 Y58.274 E2.64585
G1 X85.342 Y58.281 E2.65048
G1 X87.024 Y58.447 E2.66333 F1800.000
G1 X87.551 Y58.552 E2.66741
G1 X89.239 Y59.064 E2.68081
G1 X89.735 Y59.269 E2.68489
G1 X91.291 Y60.101 E2.69829
G1 X91.738 Y60.399 E2.70237
G1 X93.102 Y61.519 E2.71578
G1 X93.481 Y61.898 E2.71986
G1 X94.601 Y63.262 E2.73326
G1 X94.899 Y63.709 E2.73734
G1 X95.731 Y65.265 E2.75074
G1 X95.936 Y65.761 E2.75482
G1 X96.448 Y67.449 E2.76823
G1 X96.553 Y67.976 E2.77231
G1 X96.726 Y69.732 E2.78571
G1 X96.726 Y70.268 E2.78979
G1 X96.553 Y72.024 E2.80319
G1 X96.448 Y72.551 E2.80727
G1 X95.936 Y74.239 E2.82068
G1 X95.731 Y74.735 E2.82476
G1 X94.933 Y76.227 E2.83760
G1 X94.601 Y76.738 E2.84224
G1 X93.481 Y78.102 E2.85564
G1 X93.102 Y78.481 E2.85972
G1 X91.738 Y79.601 E2.87312
G1 X91.291 Y79.899 E2.87720
G1 X89.735 Y80.731 E2.89061
G1 X89.239 Y80.936 E2.89469
G1 X87.551 Y81.448 E2.90809
G1 X86.951 Y81.560 E2.91273
G1 X85.268 Y81.726 E2.92557
G1 X84.732 Y81.726 E2.92965
G1 X82.976 Y81.553 E2.94305
G1 X82.449 Y81.448 E2.94713
G1 X80.761 Y80.936 E2.96054
G1 X80.265 Y80.731 E2.96462
G1 X78.709 Y79.899 E2.97802
G1 X78.262 Y79.601 E2.98210
G1 X76.898 Y78.481 E2.99550
G1 X76.519 Y78.102 E2.99958
G1 X75.399 Y76.738 E3.01299
G1 X75.101 Y76.291 E3.01707
G1 X74.269 Y74.735 E3.03047
G1 X74.064 Y74.239 E3.03455
G1 X73.552 Y72.551 E3.04795
G1 X73.447 Y72.024 E3.05203
G1 X73.274 Y70.268 E3.06544
G1 X73.274 Y69.732 E3.06952
G1 X73.447 Y67.976 E3.08292
G1 X73.552 Y67.449 E3.08700
G1 X74.064 Y65.761 E3.10040
G1 X74.269 Y65.265 E3.10448
G1 X75.101 Y63.709 E3.11789
G1 X75.399 Y63.262 E3.12197
G1 X76.030 Y62.494 E3.12952
G1 X76.268 Y62.592 F7800.000
G4 P31
G1 X76.709 Y62.055 E3.13480 F1800.000
G1 X77.055 Y61.709 E3.13851
G1 X78.419 Y60.590 E3.15192
G1 X78.825 Y60.318 E3.15563
G1 X80.381 Y59.487 E3.16903
G1 X80.832 Y59.300 E3.17275
G1 X82.521 Y58.788 E3.18615
G1 X83.000 Y58.692 E3.18986
G1 X84.756 Y58.519 E3.20327
G1 X85.317 Y58.527 E3.20753
G1 X87.000 Y58.692 E3.22038 F1800.000
G1 X87.479 Y58.788 E3.22409
G1 X89.168 Y59.300 E3.23750
G1 X89.619 Y59.487 E3.24121
G1 X91.175 Y60.318 E3.25461
G1 X91.581 Y60.590 E3.25832
G1 X92.945 Y61.709 E3.27173
G1 X93.291 Y62.055 E3.27544
G1 X94.410 Y63.419 E3.28884
G1 X94.682 Y63.825 E3.29256
G1 X95.513 Y65.381 E3.30596
G1 X95.700 Y65.832 E3.30967
G1 X96.212 Y67.521 E3.32308
G1 X96.308 Y68.000 E3.32679
G1 X96.481 Y69.756 E3.34019
G1 X96.481 Y70.244 E3.34391
G1 X96.308 Y72.000 E3.35731
G1 X96.212 Y72.479 E3.36102
G1 X95.700 Y74.168 E3.37443
G1 X95.513 Y74.619 E3.37814
G1 X94.682 Y76.175 E3.39154
G1 X94.410 Y76.581 E3.39526
G1 X93.291 Y77.945 E3.40866
G1 X92.945 Y78.291 E3.41237
G1 X91.581 Y79.410 E3.42578
G1 X91.175 Y79.682 E3.42949
G1 X89.619 Y80.513 E3.44289
G1 X89.168 Y80.700 E3.44660
G1 X87.479 Y81.212 E3.46001
G1 X87.000 Y81.308 E3.46372
G1 X85.244 Y81.481 E3.47712
G1 X84.756 Y81.481 E3.48084
G1 X83.000 Y81.308 E3.49424
G1 X82.521 Y81.212 E3.49795
G1 X80.832 Y80.700 E3.51136
G1 X80.381 Y80.513 E3.51507
G1 X78.825 Y79.682 E3.52847
G1 X78.419 Y79.410 E3.53219
G1 X77.055 Y78.291 E3.54559
G1 X76.709 Y77.945 E3.54930
G1 X75.590 Y76.581 E3.56271
G1 X75.318 Y76.175 E3.56642
G1 X74.487 Y74.619 E3.57982
G1 X74.300 Y74.168 E3.58353
G1 X73.788 Y72.479 E3.59694
G1 X73.692 Y72.000 E3.60065
G1 X73.519 Y70.244 E3.61406
G1 X73.519 Y69.756 E3.61777
G1 X73.692 Y68.000 E3.63117
G1 X73.788 Y67.521 E3.63488
G1 X74.300 Y65.832 E3.64829
G1 X74.487 Y65.381 E3.65200
G1 X75.318 Y63.825 E3.66540
G1 X75.590 Y63.419 E3.66912
G1 X76.221 Y62.650 E3.67667
G1 X76.459 Y62.748 F7800.000
G4 P31
G1 X76.900 Y62.211 E3.68195 F1800.000
G1 X77.211 Y61.900 E3.68530
G1 X78.575 Y60.780 E3.69870
G1 X78.941 Y60.536 E3.70205
G1 X80.497 Y59.704 E3.71545
G1 X80.904 Y59.535 E3.71880
G1 X82.592 Y59.023 E3.73220
G1 X83.024 Y58.937 E3.73554
G1 X84.780 Y58.764 E3.74895
G1 X85.293 Y58.772 E3.75285
G1 X86.976 Y58.937 E3.76570 F1800.000
G1 X87.408 Y59.023 E3.76904
G1 X89.096 Y59.535 E3.78245
G1 X89.503 Y59.704 E3.78579
G1 X91.059 Y60.536 E3.79919
G1 X91.425 Y60.780 E3.80254
G1 X92.789 Y61.900 E3.81594
G1 X93.100 Y62.211 E3.81929
G1 X94.220 Y63.575 E3.83269
G1 X94.464 Y63.941 E3.83604
G1 X95.296 Y65.497 E3.84944
G1 X95.465 Y65.904 E3.85279
G1 X95.977 Y67.592 E3.86619
G1 X96.063 Y68.024 E3.86954
G1 X96.236 Y69.780 E3.88294
G1 X96.236 Y70.220 E3.88629
G1 X96.063 Y71.976 E3.89969
G1 X95.977 Y72.408 E3.90304
G1 X95.465 Y74.096 E3.91644
G1 X95.296 Y74.503 E3.91979
G1 X94.499 Y75.994 E3.93263
G1 X94.220 Y76.425 E3.93653
G1 X93.100 Y77.789 E3.94994
G1 X92.789 Y78.100 E3.95328
G1 X91.425 Y79.220 E3.96669
G1 X91.059 Y79.464 E3.97003
G1 X89.503 Y80.296 E3.98344
G1 X89.096 Y80.465 E3.98678
G1 X87.408 Y80.977 E4.00019
G1 X86.903 Y81.070 E4.00409
G1 X85.220 Y81.236 E4.01693
G1 X84.780 Y81.236 E4.02028
G1 X83.024 Y81.063 E4.03368
G1 X82.592 Y80.977 E4.03703
G1 X80.904 Y80.465 E4.05043
G1 X80.497 Y80.296 E4.05378
G1 X78.941 Y79.464 E4.06718
G1 X78.575 Y79.220 E4.07053
G1 X77.211 Y78.100 E4.08393
G1 X76.900 Y77.789 E4.08728
G1 X75.780 Y76.425 E4.10068
G1 X75.536 Y76.059 E4.10403
G1 X74.704 Y74.503 E4.11743
G1 X74.535 Y74.096 E4.12078
G1 X74.023 Y72.408 E4.13418
G1 X73.937 Y71.976 E4.13752
G1 X73.764 Y70.220 E4.15093
G1 X73.764 Y69.780 E4.15427
G1 X73.937 Y68.024 E4.16768
G1 X74.023 Y67.592 E4.17102
G1 X74.535 Y65.904 E4.18443
G1 X74.704 Y65.497 E4.18777
G1 X75.536 Y63.941 E4.20118
G1 X75.780 Y63.575 E4.20452
G1 X76.411 Y62.806 E4.21208
G1 F6240
G1 X76.900 Y62.211 E4.00103
G1 F6240
G1 X77.211 Y61.900 E3.88037
G1 F6240
G1 X78.575 Y60.780 E3.39687
G1 F6240
G1 X78.941 Y60.536 E3.27620
G1 F6240
G1 X80.497 Y59.704 E2.79271
G1 F6240
G1 X80.904 Y59.535 E2.67203
G1 F6240
G1 X82.161 Y59.154 E2.31208
G1 E2.21208 F1800.00000
G92 E0
G1 X87.343 Y71.610 F7800.000
G1 E2.00000 F1800.00000
G1 X87.012 Y72.012 E2.00396 F1800.000
G1 X86.581 Y72.366 E2.00820
G1 X86.089 Y72.629 E2.01243
G1 X85.555 Y72.791 E2.01667
G1 X85.000 Y72.846 E2.02091
G1 X84.445 Y72.791 E2.02515
G1 X83.911 Y72.629 E2.02939
G1 X83.419 Y72.366 E2.03363
G1 X82.988 Y72.012 E2.03786
G1 X82.634 Y71.581 E2.04210
G1 X82.371 Y71.089 E2.04634
G1 X82.209 Y70.555 E2.05058
G1 X82.154 Y70.000 E2.05482
G1 X82.209 Y69.445 E2.05906
G1 X82.371 Y68.911 E2.06329
G1 X82.634 Y68.419 E2.06753
G1 X82.988 Y67.988 E2.07177
G1 X83.419 Y67.634 E2.07601
G1 X83.911 Y67.371 E2.08025
G1 X84.445 Y67.209 E2.08448
G1 X84.994 Y67.155 E2.08868 F1800.000
G1 X85.554 Y67.209 E2.09295
G1 X86.089 Y67.371 E2.09720
G1 X86.581 Y67.634 E2.10144
G1 X87.012 Y67.988 E2.10568
G1 X87.343 Y68.390 E2.10963
G1 X87.343 Y71.535 E2.13352
G1 X87.096 Y71.522 F7800.000
G4 P31
G1 X86.837 Y71.837 E2.13662 F1800.000
G1 X86.444 Y72.160 E2.14049
G1 X85.994 Y72.400 E2.14436
G1 X85.507 Y72.548 E2.14823
G1 X85.000 Y72.598 E2.15210
G1 X84.493 Y72.548 E2.15597
G1 X84.006 Y72.400 E2.15984
G1 X83.556 Y72.160 E2.16371
G1 X83.163 Y71.837 E2.16758
G1 X82.840 Y71.444 E2.17145
G1 X82.600 Y70.994 E2.17532
G1 X82.452 Y70.507 E2.17919
G1 X82.402 Y70.000 E2.18306
G1 X82.452 Y69.493 E2.18693
G1 X82.600 Y69.006 E2.19080
G1 X82.840 Y68.556 E2.19467
G1 X83.163 Y68.163 E2.19854
G1 X83.556 Y67.840 E2.20241
G1 X84.006 Y67.600 E2.20628
G1 X84.493 Y67.452 E2.21015
G1 X84.994 Y67.402 E2.21397 F1800.000
G1 X85.506 Y67.452 E2.21788
G1 X85.994 Y67.600 E2.22176
G1 X86.444 Y67.840 E2.22563
G1 X86.837 Y68.163 E2.22950
G1 X87.096 Y68.478 E2.23260
G1 X87.096 Y71.447 E2.25515
G1 X86.850 Y71.433 F7800.000
G4 P31
G1 X86.662 Y71.662 E2.25740 F1800.000
G1 X86.306 Y71.955 E2.26090
G1 X85.900 Y72.172 E2.26440
G1 X85.459 Y72.306 E2.26790
G1 X85.000 Y72.351 E2.27140
G1 X84.541 Y72.306 E2.27490
G1 X84.100 Y72.172 E2.27840
G1 X83.694 Y71.955 E2.28190
G1 X83.338 Y71.662 E2.28540
G1 X83.045 Y71.306 E2.28891
G1 X82.828 Y70.900 E2.29241
G1 X82.694 Y70.459 E2.29591
G1 X82.649 Y70.000 E2.29941
G1 X82.694 Y69.541 E2.30291
G1 X82.828 Y69.100 E2.30641
G1 X83.045 Y68.694 E2.30991
G1 X83.338 Y68.338 E2.31341
G1 X83.694 Y68.045 E2.31691
G1 X84.100 Y67.828 E2.32041
G1 X84.541 Y67.694 E2.32391
G1 X84.994 Y67.650 E2.32737 F1800.000
G1 X85.458 Y67.694 E2.33091
G1 X85.900 Y67.828 E2.33442
G1 X86.306 Y68.045 E2.33792
G1 X86.662 Y68.338 E2.34142
G1 X86.850 Y68.567 E2.34367
G1 X86.850 Y71.358 E2.36488
G1 X87.014 Y71.680 F7800.000
G1 F6240
G1 X86.662 Y71.662 E2.26700
G1 F6240
G4 P29
G1 X86.306 Y71.955 E2.14072
G1 F6240
G1 X85.900 Y72.172 E2.01443
G1 F6240
G1 X85.459 Y72.306 E1.88815
G1 F6240
G1 X85.000 Y72.351 E1.76187
G1 F6240
G4 P15
G1 X84.541 Y72.306 E1.63558
G1 F6240
G1 X84.100 Y72.172 E1.50930
G1 F6240
G1 X83.694 Y71.955 E1.38302
G1 F6240
G1 X83.338 Y71.662 E1.25674
G1 F6240
G1 X83.045 Y71.306 E1.13045
G1 F6240
G1 X82.828 Y70.900 E1.00417
G1 F6240
G1 X82.694 Y70.459 E0.87789
G1 F6240
G1 X82.649 Y70.000 E0.75160
G1 F6240
G1 X82.694 Y69.541 E0.62532
G1 F6240
G1 X82.828 Y69.100 E0.49904
G1 F6240
G1 X82.887 Y68.990 E0.46488
G1 E0.36488 F1800.00000
G92 E0
G1 X91.468 Y75.224 F7800.000
G1 E2.00000 F1800.00000
G1 X90.907 Y75.907 E2.00672 F1800.000
G1 X89.641 Y76.946 E2.01916
G1 X88.197 Y77.718 E2.03160
G1 X86.630 Y78.194 E2.04405
G1 X85.000 Y78.354 E2.05649
G1 X83.370 Y78.194 E2.06893
G1 X81.803 Y77.718 E2.08137
G1 X80.359 Y76.946 E2.09381
G1 X79.093 Y75.907 E2.10626
G1 X78.054 Y74.641 E2.11870
G1 X77.282 Y73.197 E2.13114
G1 X76.806 Y71.630 E2.14358
G1 X76.646 Y70.000 E2.15602
G1 X76.806 Y68.370 E2.16847
G1 X77.282 Y66.803 E2.18091
G1 X78.054 Y65.359 E2.19335
G1 X79.093 Y64.093 E2.20579
G1 X80.359 Y63.054 E2.21823
G1 X81.803 Y62.282 E2.23068
G1 X83.370 Y61.806 E2.24312
G1 X85.010 Y61.647 E2.25564
G1 X86.630 Y61.806 E2.26800 F1800.000
G1 X88.197 Y62.282 E2.28044
G1 X89.641 Y63.054 E2.29289
G1 X90.907 Y64.093 E2.30533
G1 X91.946 Y65.359 E2.31777
G1 X92.718 Y66.803 E2.33021
G1 X93.194 Y68.370 E2.34265
G1 X93.354 Y70.000 E2.35510
G1 X93.194 Y71.630 E2.36754
G1 X92.718 Y73.197 E2.37998
G1 X91.946 Y74.641 E2.39242
G1 X91.516 Y75.166 E2.39758
G1 X91.659 Y75.380 F7800.000
G4 P31
G1 X91.082 Y76.082 E2.40448 F1800.000
G1 X89.779 Y77.152 E2.41729
G1 X88.292 Y77.947 E2.43010
G1 X86.678 Y78.436 E2.44291
G1 X85.000 Y78.602 E2.45572
G1 X83.322 Y78.436 E2.46853
G1 X81.708 Y77.947 E2.48134
G1 X80.221 Y77.152 E2.49415
G1 X78.918 Y76.082 E2.50697
G1 X77.848 Y74.779 E2.51978
G1 X77.053 Y73.292 E2.53259
G1 X76.564 Y71.678 E2.54540
G1 X76.398 Y70.000 E2.55821
G1 X76.564 Y68.322 E2.57102
G1 X77.053 Y66.708 E2.58383
G1 X77.848 Y65.221 E2.59664
G1 X78.918 Y63.918 E2.60945
G1 X80.221 Y62.848 E2.62226
G1 X81.708 Y62.053 E2.63507
G1 X83.322 Y61.564 E2.64788
G1 X85.034 Y61.402 E2.66095
G1 X86.678 Y61.564 E2.67350 F1800.000
G1 X88.292 Y62.053 E2.68631
G1 X89.779 Y62.848 E2.69912
G1 X91.082 Y63.918 E2.71193
G1 X92.152 Y65.221 E2.72474
G1 X92.947 Y66.708 E2.73755
G1 X93.436 Y68.322 E2.75037
G1 X93.602 Y70.000 E2.76318
G1 X93.436 Y71.678 E2.77599
G1 X92.947 Y73.292 E2.78880
G1 X92.152 Y74.779 E2.80161
G1 X91.706 Y75.322 E2.80695
G1 X91.849 Y75.536 F7800.000
G4 P31
G1 X91.257 Y76.257 E2.81403 F1800.000
G1 X89.916 Y77.358 E2.82721
G1 X88.386 Y78.176 E2.84039
G1 X86.726 Y78.679 E2.85357
G1 X85.000 Y78.849 E2.86675
G1 X83.274 Y78.679 E2.87993
G1 X81.614 Y78.176 E2.89311
G1 X80.084 Y77.358 E2.90629
G1 X78.743 Y76.257 E2.91947
G1 X77.642 Y74.916 E2.93265
G1 X76.824 Y73.386 E2.94583
G1 X76.321 Y71.726 E2.95901
G1 X76.151 Y70.000 E2.97219
G1 X76.321 Y68.274 E2.98537
G1 X76.824 Y66.614 E2.99855
G1 X77.642 Y65.084 E3.01172
G1 X78.743 Y63.743 E3.02490
G1 X80.084 Y62.642 E3.03808
G1 X81.614 Y61.824 E3.05126
G1 X83.274 Y61.321 E3.06444
G1 X85.058 Y61.156 E3.07806
G1 X86.726 Y61.321 E3.09079 F1800.000
G1 X88.386 Y61.824 E3.10397
G1 X89.916 Y62.642 E3.11715
G1 X91.257 Y63.743 E3.13033
G1 X92.358 Y65.084 E3.14351
G1 X93.176 Y66.614 E3.15669
G1 X93.679 Y68.274 E3.16987
G1 X93.849 Y70.000 E3.18305
G1 X93.679 Y71.726 E3.19623
G1 X93.176 Y73.386 E3.20941
G1 X92.358 Y74.916 E3.22259
G1 X91.897 Y75.478 E3.22811
G1 X91.356 Y75.455 F7800.000
G1 F6240
G4 P29
G1 X91.257 Y76.257 E2.95189
G1 F6240
G1 X89.916 Y77.358 E2.47650
G1 F6240
G1 X88.386 Y78.176 E2.00110
G1 F6240
G1 X86.726 Y78.679 E1.52571
G1 F6240
G1 X86.009 Y78.750 E1.32811
G1 E1.22811 F1800.00000
G92 E0
G1 X92.515 Y73.327 F7800.000
G1 E2.00000 F1800.00000
G1 X87.480 Y68.292 E2.05419 F1800.000
G1 X87.480 Y68.641 E2.05684
G1 X92.393 Y73.554 E2.10972
G1 X92.271 Y73.781 E2.11169
G1 X87.480 Y68.990 E2.16326
G1 X87.480 Y69.339 E2.16592
G1 X92.150 Y74.009 E2.21618
G1 X92.028 Y74.236 E2.21814
G1 X87.480 Y69.688 E2.26710
G1 X87.480 Y70.037 E2.26975
G1 X91.907 Y74.464 E2.31740
G1 X91.769 Y74.675 E2.31932
G1 X87.480 Y70.386 E2.36548
G1 X87.480 Y70.735 E2.36814
G1 X91.612 Y74.867 E2.41261
G1 X91.454 Y75.058 E2.41449
G1 X87.480 Y71.084 E2.45727
G1 X87.480 Y71.433 E2.45993
G1 X91.297 Y75.250 E2.50101
G1 X91.140 Y75.442 E2.50290
G1 X87.409 Y71.711 E2.54305
G1 X87.252 Y71.903 E2.54494
G1 X90.982 Y75.633 E2.58509
G1 X90.811 Y75.811 E2.58697
G1 X87.095 Y72.095 E2.62696
G1 X86.903 Y72.252 E2.62885
G1 X90.633 Y75.982 E2.66900
G1 X90.442 Y76.140 E2.67089
G1 X86.711 Y72.409 E2.71104
G1 X86.498 Y72.545 E2.71296
G1 X90.250 Y76.297 E2.75334
G1 X90.058 Y76.454 E2.75523
G1 X86.271 Y72.667 E2.79600
G1 X86.031 Y72.776 E2.79800
G1 X89.867 Y76.612 E2.83928
G1 X89.675 Y76.769 E2.84117
G1 X85.764 Y72.858 E2.88326
G1 X85.488 Y72.931 E2.88544
G1 X89.464 Y76.907 E2.92823
G1 X89.236 Y77.028 E2.93019
G1 X85.170 Y72.962 E2.97396
G1 X84.831 Y72.972 E2.97654
G1 X89.009 Y77.150 E3.02150
G1 X88.781 Y77.271 E3.02346
