; generated by Slic3r 1.2.9 on 2016-02-17 at 22:32:13

; external perimeters extrusion width = 0.50mm
; perimeters extrusion width = 0.50mm
; infill extrusion width = 0.50mm
; solid infill extrusion width = 0.50mm
; top infill extrusion width = 0.50mm

M107
M190 S60 ; set bed temperature
M104 S210 ; set temperature
G28 ; home all axes
M109 S210 ; wait for temperature to be reached
G21 ; set units to millimeters
G90 ; use absolute coordinates
M82 ; use absolute distances for extrusion
G92 E0
G1 Z0.350 F7800.000
G1 E-2.00000 F1920.00000
G92 E0
G1 X75.209 Y53.106 F7800.000
G1 E2.00000 F1920.00000
M204 S3000
G1 X76.328 Y51.742 E2.01340 F1500.000
G1 X76.742 Y51.328 E2.01785
G1 X78.106 Y50.209 E2.03125
G1 X78.593 Y49.884 E2.03570
G1 X80.149 Y49.052 E2.04910
G1 X80.689 Y48.828 E2.05355
G1 X82.378 Y48.316 E2.06695
G1 X82.952 Y48.202 E2.07140
G1 X84.707 Y48.029 E2.08480
G1 X85.366 Y48.036 E2.08981
G1 X87.048 Y48.202 E2.10265 F1500.000
G1 X87.622 Y48.316 E2.10710
G1 X89.311 Y48.828 E2.12050
G1 X89.851 Y49.052 E2.12495
G1 X91.407 Y49.884 E2.13835
G1 X91.894 Y50.209 E2.14280
G1 X93.258 Y51.328 E2.15620
G1 X93.672 Y51.742 E2.16065
G1 X94.791 Y53.106 E2.17405
G1 X95.116 Y53.593 E2.17850
G1 X95.948 Y55.149 E2.19190
G1 X96.172 Y55.689 E2.19635
G1 X96.684 Y57.378 E2.20975
G1 X96.798 Y57.952 E2.21420
G1 X96.971 Y59.707 E2.22760
G1 X96.971 Y60.293 E2.23205
G1 X96.798 Y62.048 E2.24545
G1 X96.684 Y62.622 E2.24990
G1 X96.172 Y64.311 E2.26330
G1 X95.948 Y64.851 E2.26775
G1 X95.116 Y66.407 E2.28115
G1 X94.791 Y66.894 E2.28560
G1 X93.672 Y68.258 E2.29900
G1 X93.258 Y68.672 E2.30345
G1 X91.894 Y69.791 E2.31685
G1 X91.407 Y70.116 E2.32130
G1 X89.851 Y70.948 E2.33470
G1 X89.311 Y71.172 E2.33915
G1 X87.622 Y71.684 E2.35255
G1 X87.048 Y71.798 E2.35700
G1 X85.293 Y71.971 E2.37040
G1 X84.707 Y71.971 E2.37485
G1 X82.952 Y71.798 E2.38825
G1 X82.378 Y71.684 E2.39270
G1 X80.689 Y71.172 E2.40610
G1 X80.149 Y70.948 E2.41055
G1 X78.593 Y70.116 E2.42395
G1 X78.106 Y69.791 E2.42840
G1 X76.742 Y68.672 E2.44180
G1 X76.328 Y68.258 E2.44625
G1 X75.209 Y66.894 E2.45965
G1 X74.884 Y66.407 E2.46410
G1 X74.052 Y64.851 E2.47751
G1 X73.828 Y64.311 E2.48195
G1 X73.316 Y62.622 E2.49536
G1 X73.202 Y62.048 E2.49980
G1 X73.029 Y60.293 E2.51321
G1 X73.029 Y59.707 E2.51765
G1 X73.202 Y57.952 E2.53106
G1 X73.316 Y57.378 E2.53550
G1 X73.828 Y55.689 E2.54891
G1 X74.052 Y55.149 E2.55335
G1 X74.884 Y53.593 E2.56676
G1 X75.167 Y53.168 E2.57063
G1 X75.399 Y53.262 F7800.000
G4 P31
G1 X76.519 Y51.898 E2.58404 F1500.000
G1 X76.898 Y51.519 E2.58812
G1 X78.262 Y50.399 E2.60152
G1 X78.709 Y50.101 E2.60560
G1 X80.265 Y49.269 E2.61900
G1 X80.761 Y49.064 E2.62308
G1 X82.449 Y48.552 E2.63649
G1 X82.976 Y48.447 E2.64056
G1 X84.732 Y48.274 E2.65397
G1 X85.342 Y48.281 E2.65860
G1 X87.024 Y48.447 E2.67145 F1500.000
G1 X87.551 Y48.552 E2.67553
G1 X89.239 Y49.064 E2.68893
G1 X89.735 Y49.269 E2.69301
G1 X91.291 Y50.101 E2.70642
G1 X91.738 Y50.399 E2.71050
G1 X93.102 Y51.519 E2.72390
G1 X93.481 Y51.898 E2.72798
G1 X94.601 Y53.262 E2.74138
G1 X94.899 Y53.709 E2.74546
G1 X95.731 Y55.265 E2.75887
G1 X95.936 Y55.761 E2.76295
G1 X96.448 Y57.449 E2.77635
G1 X96.553 Y57.976 E2.78043
G1 X96.726 Y59.732 E2.79383
G1 X96.726 Y60.268 E2.79791
G1 X96.553 Y62.024 E2.81132
G1 X96.448 Y62.551 E2.81540
G1 X95.936 Y64.239 E2.82880
G1 X95.731 Y64.735 E2.83288
G1 X94.933 Y66.227 E2.84572
G1 X94.601 Y66.738 E2.85036
G1 X93.481 Y68.102 E2.86376
G1 X93.102 Y68.481 E2.86784
G1 X91.738 Y69.601 E2.88125
G1 X91.291 Y69.899 E2.88533
G1 X89.735 Y70.731 E2.89873
G1 X89.239 Y70.936 E2.90281
G1 X87.551 Y71.448 E2.91621
G1 X86.951 Y71.560 E2.92085
G1 X85.268 Y71.726 E2.93369
G1 X84.732 Y71.726 E2.93777
G1 X82.976 Y71.553 E2.95118
G1 X82.449 Y71.448 E2.95526
G1 X80.761 Y70.936 E2.96866
G1 X80.265 Y70.731 E2.97274
G1 X78.709 Y69.899 E2.98614
G1 X78.262 Y69.601 E2.99022
G1 X76.898 Y68.481 E3.00363
G1 X76.519 Y68.102 E3.00771
G1 X75.399 Y66.738 E3.02111
G1 X75.101 Y66.291 E3.02519
G1 X74.269 Y64.735 E3.03859
G1 X74.064 Y64.239 E3.04267
G1 X73.552 Y62.551 E3.05608
G1 X73.447 Y62.024 E3.06016
G1 X73.274 Y60.268 E3.07356
G1 X73.274 Y59.732 E3.07764
G1 X73.447 Y57.976 E3.09104
G1 X73.552 Y57.449 E3.09512
G1 X74.064 Y55.761 E3.10853
G1 X74.269 Y55.265 E3.11261
G1 X75.101 Y53.709 E3.12601
G1 X75.358 Y53.325 E3.12952
G1 X75.590 Y53.419 F7800.000
G4 P31
G1 X76.709 Y52.055 E3.14292 F1500.000
G1 X77.055 Y51.709 E3.14664
G1 X78.419 Y50.590 E3.16004
G1 X78.825 Y50.318 E3.16375
G1 X80.381 Y49.487 E3.17716
G1 X80.832 Y49.300 E3.18087
G1 X82.521 Y48.788 E3.19427
G1 X83.000 Y48.692 E3.19798
G1 X84.756 Y48.519 E3.21139
G1 X85.317 Y48.527 E3.21566
G1 X87.000 Y48.692 E3.22850 F1500.000
G1 X87.479 Y48.788 E3.23221
G1 X89.168 Y49.300 E3.24562
G1 X89.619 Y49.487 E3.24933
G1 X91.175 Y50.318 E3.26273
G1 X91.581 Y50.590 E3.26645
G1 X92.945 Y51.709 E3.27985
G1 X93.291 Y52.055 E3.28356
G1 X94.410 Y53.419 E3.29697
G1 X94.682 Y53.825 E3.30068
G1 X95.513 Y55.381 E3.31408
G1 X95.700 Y55.832 E3.31780
G1 X96.212 Y57.521 E3.33120
G1 X96.308 Y58.000 E3.33491
G1 X96.481 Y59.756 E3.34832
G1 X96.481 Y60.244 E3.35203
G1 X96.308 Y62.000 E3.36543
G1 X96.212 Y62.479 E3.36915
G1 X95.700 Y64.168 E3.38255
G1 X95.513 Y64.619 E3.38626
G1 X94.682 Y66.175 E3.39967
G1 X94.410 Y66.581 E3.40338
G1 X93.291 Y67.945 E3.41678
G1 X92.945 Y68.291 E3.42049
G1 X91.581 Y69.410 E3.43390
G1 X91.175 Y69.682 E3.43761
G1 X89.619 Y70.513 E3.45101
G1 X89.168 Y70.700 E3.45473
G1 X87.479 Y71.212 E3.46813
G1 X87.000 Y71.308 E3.47184
G1 X85.244 Y71.481 E3.48525
G1 X84.756 Y71.481 E3.48896
G1 X83.000 Y71.308 E3.50236
G1 X82.521 Y71.212 E3.50608
G1 X80.832 Y70.700 E3.51948
G1 X80.381 Y70.513 E3.52319
G1 X78.825 Y69.682 E3.53660
G1 X78.419 Y69.410 E3.54031
G1 X77.055 Y68.291 E3.55371
G1 X76.709 Y67.945 E3.55743
G1 X75.590 Y66.581 E3.57083
G1 X75.318 Y66.175 E3.57454
G1 X74.487 Y64.619 E3.58795
G1 X74.300 Y64.168 E3.59166
G1 X73.788 Y62.479 E3.60506
G1 X73.692 Y62.000 E3.60877
G1 X73.519 Y60.244 E3.62218
G1 X73.519 Y59.756 E3.62589
G1 X73.692 Y58.000 E3.63929
G1 X73.788 Y57.521 E3.64301
G1 X74.300 Y55.832 E3.65641
G1 X74.487 Y55.381 E3.66012
G1 X75.318 Y53.825 E3.67353
G1 X75.548 Y53.481 E3.67667
G1 X75.780 Y53.575 F7800.000
G4 P31
G1 X76.900 Y52.211 E3.69007 F1500.000
G1 X77.211 Y51.900 E3.69342
G1 X78.575 Y50.780 E3.70682
G1 X78.941 Y50.536 E3.71017
G1 X80.497 Y49.704 E3.72357
G1 X80.904 Y49.535 E3.72692
G1 X82.592 Y49.023 E3.74032
G1 X83.024 Y48.937 E3.74367
G1 X84.780 Y48.764 E3.75707
G1 X85.293 Y48.772 E3.76097
G1 X86.976 Y48.937 E3.77382 F1500.000
G1 X87.408 Y49.023 E3.77716
G1 X89.096 Y49.535 E3.79057
G1 X89.503 Y49.704 E3.79391
G1 X91.059 Y50.536 E3.80732
G1 X91.425 Y50.780 E3.81066
G1 X92.789 Y51.900 E3.82407
G1 X93.100 Y52.211 E3.82741
G1 X94.220 Y53.575 E3.84082
G1 X94.464 Y53.941 E3.84416
G1 X95.296 Y55.497 E3.85757
G1 X95.465 Y55.904 E3.86091
G1 X95.977 Y57.592 E3.87432
G1 X96.063 Y58.024 E3.87766
G1 X96.236 Y59.780 E3.89106
G1 X96.236 Y60.220 E3.89441
G1 X96.063 Y61.976 E3.90781
G1 X95.977 Y62.408 E3.91116
G1 X95.465 Y64.096 E3.92456
G1 X95.296 Y64.503 E3.92791
G1 X94.499 Y65.994 E3.94075
G1 X94.220 Y66.425 E3.94466
G1 X93.100 Y67.789 E3.95806
G1 X92.789 Y68.100 E3.96141
G1 X91.425 Y69.220 E3.97481
G1 X91.059 Y69.464 E3.97816
G1 X89.503 Y70.296 E3.99156
G1 X89.096 Y70.465 E3.99490
G1 X87.408 Y70.977 E4.00831
G1 X86.976 Y71.063 E4.01165
G1 X85.220 Y71.236 E4.02506
G1 X84.780 Y71.236 E4.02840
G1 X83.024 Y71.063 E4.04181
G1 X82.592 Y70.977 E4.04515
G1 X80.904 Y70.465 E4.05856
G1 X80.497 Y70.296 E4.06190
G1 X78.941 Y69.464 E4.07531
G1 X78.575 Y69.220 E4.07865
G1 X77.211 Y68.100 E4.09206
G1 X76.900 Y67.789 E4.09540
G1 X75.780 Y66.425 E4.10881
G1 X75.536 Y66.059 E4.11215
G1 X74.704 Y64.503 E4.12555
G1 X74.535 Y64.096 E4.12890
G1 X74.023 Y62.408 E4.14230
G1 X73.937 Y61.976 E4.14565
G1 X73.764 Y60.220 E4.15905
G1 X73.764 Y59.780 E4.16240
G1 X73.937 Y58.024 E4.17580
G1 X74.023 Y57.592 E4.17915
G1 X74.535 Y55.904 E4.19255
G1 X74.704 Y55.497 E4.19590
G1 X75.536 Y53.941 E4.20930
G1 X75.739 Y53.637 E4.21208
G1 E2.21208 F1920.00000
G92 E0
G1 X87.782 Y61.859 F7800.000
G1 E2.00000 F1920.00000
G1 X87.366 Y62.366 E2.00498 F1500.000
G1 X86.859 Y62.782 E2.00997
G1 X86.280 Y63.091 E2.01495
G1 X85.653 Y63.282 E2.01993
G1 X85.000 Y63.346 E2.02491
G1 X84.347 Y63.282 E2.02990
G1 X83.720 Y63.091 E2.03488
G1 X83.141 Y62.782 E2.03986
G1 X82.634 Y62.366 E2.04485
G1 X82.218 Y61.859 E2.04983
G1 X81.909 Y61.280 E2.05481
G1 X81.718 Y60.653 E2.05980
G1 X81.654 Y60.000 E2.06478
G1 X81.718 Y59.347 E2.06976
G1 X81.909 Y58.720 E2.07474
G1 X82.218 Y58.141 E2.07973
G1 X82.634 Y57.634 E2.08471
G1 X83.141 Y57.218 E2.08969
G1 X83.720 Y56.909 E2.09468
G1 X84.347 Y56.718 E2.09966
G1 X85.000 Y56.654 E2.10464 F1500.000
G1 X85.653 Y56.718 E2.10963
G1 X86.280 Y56.909 E2.11461
G1 X86.859 Y57.218 E2.11959
G1 X87.366 Y57.634 E2.12457
G1 X87.782 Y58.141 E2.12956
G1 X88.091 Y58.720 E2.13454
G1 X88.282 Y59.347 E2.13952
G1 X88.346 Y60.000 E2.14451
G1 X88.282 Y60.653 E2.14949
G1 X88.091 Y61.280 E2.15447
G1 X87.817 Y61.793 E2.15889
G1 X87.576 Y61.721 F7800.000
G4 P31
G1 X87.191 Y62.191 E2.16350 F1500.000
G1 X86.721 Y62.576 E2.16811
G1 X86.186 Y62.862 E2.17273
G1 X85.604 Y63.039 E2.17734
G1 X85.000 Y63.098 E2.18196
G1 X84.396 Y63.039 E2.18657
G1 X83.814 Y62.862 E2.19119
G1 X83.279 Y62.576 E2.19580
G1 X82.809 Y62.191 E2.20041
G1 X82.424 Y61.721 E2.20503
G1 X82.138 Y61.186 E2.20964
G1 X81.961 Y60.604 E2.21426
G1 X81.902 Y60.000 E2.21887
G1 X81.961 Y59.396 E2.22349
G1 X82.138 Y58.814 E2.22810
G1 X82.424 Y58.279 E2.23271
G1 X82.809 Y57.809 E2.23733
G1 X83.279 Y57.424 E2.24194
G1 X83.814 Y57.138 E2.24656
G1 X84.396 Y56.961 E2.25117
G1 X85.000 Y56.902 E2.25579 F1500.000
G1 X85.604 Y56.961 E2.26040
G1 X86.186 Y57.138 E2.26501
G1 X86.721 Y57.424 E2.26963
G1 X87.191 Y57.809 E2.27424
G1 X87.576 Y58.279 E2.27886
G1 X87.862 Y58.814 E2.28347
G1 X88.039 Y59.396 E2.28809
G1 X88.098 Y60.000 E2.29270
G1 X88.039 Y60.604 E2.29731
G1 X87.862 Y61.186 E2.30193
G1 X87.611 Y61.655 E2.30597
G1 X87.370 Y61.584 F7800.000
G4 P31
G1 X87.016 Y62.016 E2.31022 F1500.000
G1 X86.584 Y62.370 E2.31446
G1 X86.091 Y62.634 E2.31871
G1 X85.556 Y62.796 E2.32296
G1 X85.000 Y62.851 E2.32720
G1 X84.444 Y62.796 E2.33145
G1 X83.909 Y62.634 E2.33569
G1 X83.416 Y62.370 E2.33994
G1 X82.984 Y62.016 E2.34418
G1 X82.630 Y61.584 E2.34843
G1 X82.366 Y61.091 E2.35268
G1 X82.204 Y60.556 E2.35692
G1 X82.149 Y60.000 E2.36117
G1 X82.204 Y59.444 E2.36541
G1 X82.366 Y58.909 E2.36966
G1 X82.630 Y58.416 E2.37390
G1 X82.984 Y57.984 E2.37815
G1 X83.416 Y57.630 E2.38239
G1 X83.909 Y57.366 E2.38664
G1 X84.444 Y57.204 E2.39089
G1 X85.000 Y57.149 E2.39513 F1500.000
G1 X85.556 Y57.204 E2.39938
G1 X86.091 Y57.366 E2.40362
G1 X86.584 Y57.630 E2.40787
G1 X87.016 Y57.984 E2.41211
G1 X87.370 Y58.416 E2.41636
G1 X87.634 Y58.909 E2.42061
G1 X87.796 Y59.444 E2.42485
G1 X87.851 Y60.000 E2.42910
G1 X87.796 Y60.556 E2.43334
G1 X87.634 Y61.091 E2.43759
G1 X87.406 Y61.518 E2.44126
G1 X87.577 Y62.039 F7800.000
G1 E0.44126 F1920.00000
G92 E0
G1 X91.604 Y65.058 F7800.000
G1 E2.00000 F1920.00000
G1 X90.907 Y65.907 E2.00834 F1500.000
G1 X89.641 Y66.946 E2.02079
G1 X88.197 Y67.718 E2.03323
G1 X86.630 Y68.194 E2.04567
G1 X85.000 Y68.354 E2.05811
G1 X83.370 Y68.194 E2.07055
G1 X81.803 Y67.718 E2.08300
G1 X80.359 Y66.946 E2.09544
G1 X79.093 Y65.907 E2.10788
G1 X78.054 Y64.641 E2.12032
G1 X77.282 Y63.197 E2.13276
G1 X76.806 Y61.630 E2.14521
G1 X76.646 Y60.000 E2.15765
G1 X76.806 Y58.370 E2.17009
G1 X77.282 Y56.803 E2.18253
G1 X78.054 Y55.359 E2.19498
G1 X79.093 Y54.093 E2.20742
G1 X80.359 Y53.054 E2.21986
G1 X81.803 Y52.282 E2.23230
G1 X83.370 Y51.806 E2.24474
G1 X85.010 Y51.647 E2.25726
G1 X86.630 Y51.806 E2.26963 F1500.000
G1 X88.197 Y52.282 E2.28207
G1 X89.641 Y53.054 E2.29451
G1 X90.907 Y54.093 E2.30695
G1 X91.946 Y55.359 E2.31940
G1 X92.718 Y56.803 E2.33184
G1 X93.194 Y58.370 E2.34428
G1 X93.354 Y60.000 E2.35672
G1 X93.194 Y61.630 E2.36916
G1 X92.718 Y63.197 E2.38161
G1 X91.946 Y64.641 E2.39405
G1 X91.652 Y65.000 E2.39758
G1 X91.794 Y65.215 F7800.000
G4 P31
G1 X91.082 Y66.082 E2.40610 F1500.000
G1 X89.779 Y67.152 E2.41892
G1 X88.292 Y67.947 E2.43173
G1 X86.678 Y68.436 E2.44454
G1 X85.000 Y68.602 E2.45735
G1 X83.322 Y68.436 E2.47016
G1 X81.708 Y67.947 E2.48297
G1 X80.221 Y67.152 E2.49578
G1 X78.918 Y66.082 E2.50859
G1 X77.848 Y64.779 E2.52140
G1 X77.053 Y63.292 E2.53421
G1 X76.564 Y61.678 E2.54702
G1 X76.398 Y60.000 E2.55983
G1 X76.564 Y58.322 E2.57264
G1 X77.053 Y56.708 E2.58546
G1 X77.848 Y55.221 E2.59827
G1 X78.918 Y53.918 E2.61108
G1 X80.221 Y52.848 E2.62389
G1 X81.708 Y52.053 E2.63670
G1 X83.322 Y51.564 E2.64951
G1 X85.034 Y51.402 E2.66258
G1 X86.678 Y51.564 E2.67513 F1500.000
G1 X88.292 Y52.053 E2.68794
G1 X89.779 Y52.848 E2.70075
G1 X91.082 Y53.918 E2.71356
G1 X92.152 Y55.221 E2.72637
G1 X92.947 Y56.708 E2.73918
G1 X93.436 Y58.322 E2.75199
G1 X93.602 Y60.000 E2.76480
G1 X93.436 Y61.678 E2.77761
G1 X92.947 Y63.292 E2.79042
G1 X92.152 Y64.779 E2.80323
G1 X91.842 Y65.157 E2.80695
G1 X91.985 Y65.371 F7800.000
G4 P31
G1 X91.257 Y66.257 E2.81566 F1500.000
G1 X89.916 Y67.358 E2.82884
G1 X88.386 Y68.176 E2.84202
G1 X86.726 Y68.679 E2.85520
G1 X85.000 Y68.849 E2.86838
G1 X83.274 Y68.679 E2.88156
G1 X81.614 Y68.176 E2.89474
G1 X80.084 Y67.358 E2.90791
G1 X78.743 Y66.257 E2.92109
G1 X77.642 Y64.916 E2.93427
G1 X76.824 Y63.386 E2.94745
G1 X76.321 Y61.726 E2.96063
G1 X76.151 Y60.000 E2.97381
G1 X76.321 Y58.274 E2.98699
G1 X76.824 Y56.614 E3.00017
G1 X77.642 Y55.084 E3.01335
G1 X78.743 Y53.743 E3.02653
G1 X80.084 Y52.642 E3.03971
G1 X81.614 Y51.824 E3.05289
G1 X83.274 Y51.321 E3.06607
G1 X85.058 Y51.156 E3.07969
G1 X86.726 Y51.321 E3.09242 F1500.000
G1 X88.386 Y51.824 E3.10560
G1 X89.916 Y52.642 E3.11878
G1 X91.257 Y53.743 E3.13196
G1 X92.358 Y55.084 E3.14514
G1 X93.176 Y56.614 E3.15832
G1 X93.679 Y58.274 E3.17150
G1 X93.849 Y60.000 E3.18468
G1 X93.679 Y61.726 E3.19785
G1 X93.176 Y63.386 E3.21103
G1 X92.358 Y64.916 E3.22421
G1 X92.032 Y65.313 E3.22811
G1 X91.492 Y65.289 F7800.000
G1 E1.22811 F1920.00000
G92 E0
G1 X92.704 Y62.818 F7800.000
G1 E2.00000 F1920.00000
G4 P12
G1 X87.909 Y58.023 E2.05160 F1500.000
G1 X88.251 Y58.714 F7800.000
G1 X92.622 Y63.085 E2.09865 F1500.000
G1 X92.515 Y63.327 E2.10066
G1 X88.403 Y59.215 E2.14492
G1 X88.451 Y59.612 E2.14796
G1 X92.393 Y63.554 E2.19039
G1 X92.271 Y63.781 E2.19235
G1 X88.480 Y59.990 E2.23316
G1 X88.448 Y60.307 E2.23559
G1 X92.150 Y64.009 E2.27543
G1 X92.028 Y64.236 E2.27739
G1 X88.417 Y60.625 E2.31626
G1 X88.338 Y60.895 E2.31840
G1 X91.907 Y64.464 E2.35681
G1 X91.769 Y64.675 E2.35873
G1 X88.257 Y61.163 E2.39653
G1 X88.156 Y61.411 E2.39857
G1 X91.612 Y64.867 E2.43577
G1 X91.454 Y65.058 E2.43765
G1 X88.034 Y61.638 E2.47446
G1 X87.913 Y61.866 E2.47642
G1 X91.297 Y65.250 E2.51285
G1 X91.140 Y65.442 E2.51474
G1 X87.763 Y62.065 E2.55108
G1 X87.605 Y62.256 E2.55297
G1 X90.982 Y65.633 E2.58931
G1 X90.811 Y65.811 E2.59119
G1 X87.448 Y62.448 E2.62739
G1 X87.256 Y62.605 E2.62927
G1 X90.633 Y65.982 E2.66562
G1 X90.442 Y66.140 E2.66751
G1 X87.065 Y62.763 E2.70385
G1 X86.866 Y62.913 E2.70575
G1 X90.250 Y66.297 E2.74217
G1 X90.058 Y66.454 E2.74406
G1 X86.638 Y63.034 E2.78087
G1 X86.411 Y63.156 E2.78283
G1 X89.867 Y66.612 E2.82002
G1 X89.675 Y66.769 E2.82191
G1 X86.163 Y63.257 E2.85971
G1 X85.895 Y63.338 E2.86184
G1 X89.464 Y66.907 E2.90026
G1 X89.236 Y67.028 E2.90222
G1 X85.625 Y63.417 E2.94108
G1 X85.307 Y63.448 E2.94351
G1 X89.009 Y67.150 E2.98335
G1 X88.781 Y67.271 E2.98532
G1 X84.990 Y63.480 E3.02613
G1 X84.612 Y63.451 E3.02901
G1 X88.554 Y67.393 E3.07144
G1 X88.326 Y67.515 E3.07340
G1 X84.215 Y63.403 E3.11766
G1 X83.714 Y63.251 E3.12164
G1 X88.085 Y67.622 E3.16869
G1 X87.818 Y67.704 E3.17082
G1 X83.023 Y62.909 E3.22243
G1 X82.091 Y61.977 F7800.000
G1 X77.296 Y57.182 E3.27403 F1500.000
G1 X77.378 Y56.915 E3.27616
G1 X81.749 Y61.286 E3.32321
G1 X81.597 Y60.785 E3.32719
G1 X77.485 Y56.674 E3.37145
G1 X77.607 Y56.446 E3.37341
G1 X81.549 Y60.388 E3.41584
G1 X81.520 Y60.010 E3.41873
G1 X77.729 Y56.219 E3.45954
G1 X77.850 Y55.991 E3.46150
G1 X81.552 Y59.693 E3.50134
