; generated by Slic3r 1.2.9 on 2016-02-16 at 21:52:42

; external perimeters extrusion width = 0.50mm
; perimeters extrusion width = 0.50mm
; infill extrusion width = 0.50mm
; solid infill extrusion width = 0.50mm
; top infill extrusion width = 0.50mm

M107
M190 S70 ; set bed temperature
M104 S220 ; set temperature
G28 ; home all axes
M109 S220 ; wait for temperature to be reached
G21 ; set units to millimeters
G90 ; use absolute coordinates
M82 ; use absolute distances for extrusion
G92 E0
G1 Z0.350 F7800.000
G1 E-2.00000 F1920.00000
G92 E0
G1 X53.359 Y38.550 F7800.000
G1 E2.00000 F1920.00000
M204 S3000
G1 X55.289 Y35.948 E2.04432 F1800.000
G1 X55.614 Y35.552 E2.05134
G1 X57.789 Y33.152 E2.09566
G1 X58.152 Y32.789 E2.10268
G1 X60.552 Y30.614 E2.14700
G1 X60.948 Y30.289 E2.15402
G1 X63.550 Y28.359 E2.19834
G1 X63.977 Y28.074 E2.20536
G1 X66.754 Y26.409 E2.24968
G1 X67.207 Y26.167 E2.25670
G1 X70.135 Y24.783 E2.30102
G1 X70.609 Y24.586 E2.30805
G1 X73.658 Y23.495 E2.35236
G1 X74.149 Y23.346 E2.35939
G1 X77.291 Y22.559 E2.40370
G1 X77.794 Y22.459 E2.41073
G1 X80.998 Y21.984 E2.45504
G1 X81.509 Y21.933 E2.46207
G1 X84.743 Y21.775 E2.50638
G1 X85.391 Y21.781 E2.51525
G1 X88.491 Y21.933 E2.55772 F1800.000
G1 X89.002 Y21.984 E2.56475
G1 X92.206 Y22.459 E2.60906
G1 X92.709 Y22.559 E2.61609
G1 X95.851 Y23.346 E2.66040
G1 X96.342 Y23.495 E2.66743
G1 X99.391 Y24.586 E2.71175
G1 X99.987 Y24.840 E2.72062
G1 X102.793 Y26.167 E2.76308
G1 X103.246 Y26.409 E2.77011
G1 X106.023 Y28.074 E2.81443
G1 X106.450 Y28.359 E2.82145
G1 X109.052 Y30.289 E2.86577
G1 X109.448 Y30.614 E2.87279
G1 X111.848 Y32.789 E2.91711
G1 X112.211 Y33.152 E2.92413
G1 X114.386 Y35.552 E2.96845
G1 X114.711 Y35.948 E2.97547
G1 X116.641 Y38.550 E3.01979
G1 X116.926 Y38.977 E3.02681
G1 X118.591 Y41.754 E3.07113
G1 X118.833 Y42.207 E3.07816
G1 X120.217 Y45.135 E3.12247
G1 X120.414 Y45.609 E3.12950
G1 X121.505 Y48.658 E3.17381
G1 X121.654 Y49.149 E3.18084
G1 X122.441 Y52.291 E3.22515
G1 X122.541 Y52.794 E3.23218
G1 X123.016 Y55.998 E3.27649
G1 X123.067 Y56.509 E3.28352
G1 X123.225 Y59.743 E3.32783
G1 X123.225 Y60.257 E3.33486
G1 X123.067 Y63.491 E3.37918
G1 X123.016 Y64.002 E3.38620
G1 X122.541 Y67.206 E3.43052
G1 X122.441 Y67.709 E3.43754
G1 X121.654 Y70.851 E3.48186
G1 X121.505 Y71.342 E3.48888
G1 X120.414 Y74.391 E3.53320
G1 X120.217 Y74.865 E3.54022
G1 X118.833 Y77.793 E3.58454
G1 X118.591 Y78.246 E3.59157
G1 X116.995 Y80.908 E3.63403
G1 X116.641 Y81.450 E3.64290
G1 X114.711 Y84.052 E3.68722
G1 X114.386 Y84.448 E3.69425
G1 X112.211 Y86.848 E3.73856
G1 X111.848 Y87.211 E3.74559
G1 X109.448 Y89.386 E3.78990
G1 X109.052 Y89.711 E3.79693
G1 X106.450 Y91.641 E3.84124
G1 X105.908 Y91.995 E3.85011
G1 X103.246 Y93.591 E3.89258
G1 X102.793 Y93.833 E3.89961
G1 X99.865 Y95.217 E3.94392
G1 X99.391 Y95.414 E3.95095
G1 X96.342 Y96.505 E3.99526
G1 X95.851 Y96.654 E4.00229
G1 X92.709 Y97.441 E4.04660
G1 X92.206 Y97.541 E4.05363
G1 X89.002 Y98.016 E4.09795
G1 X88.491 Y98.067 E4.10497
G1 X85.257 Y98.225 E4.14929
G1 X84.743 Y98.225 E4.15631
G1 X81.509 Y98.067 E4.20063
G1 X80.998 Y98.016 E4.20765
G1 X77.794 Y97.541 E4.25197
G1 X77.291 Y97.441 E4.25899
G1 X74.149 Y96.654 E4.30331
G1 X73.658 Y96.505 E4.31033
G1 X70.609 Y95.414 E4.35465
G1 X70.135 Y95.217 E4.36168
G1 X67.207 Y93.833 E4.40599
G1 X66.754 Y93.591 E4.41302
G1 X63.977 Y91.926 E4.45733
G1 X63.550 Y91.641 E4.46436
G1 X60.948 Y89.711 E4.50867
G1 X60.552 Y89.386 E4.51570
G1 X58.152 Y87.211 E4.56001
G1 X57.789 Y86.848 E4.56704
G1 X55.614 Y84.448 E4.61135
G1 X55.289 Y84.052 E4.61838
G1 X53.405 Y81.512 E4.66164
G1 X53.074 Y81.023 E4.66972
G1 X51.409 Y78.246 E4.71404
G1 X51.167 Y77.793 E4.72106
G1 X49.783 Y74.865 E4.76538
G1 X49.586 Y74.391 E4.77240
G1 X48.495 Y71.342 E4.81672
G1 X48.346 Y70.851 E4.82374
G1 X47.559 Y67.709 E4.86806
G1 X47.459 Y67.206 E4.87508
G1 X47.004 Y64.136 E4.91755
G1 X46.933 Y63.491 E4.92642
G1 X46.775 Y60.257 E4.97074
G1 X46.775 Y59.743 E4.97776
G1 X46.933 Y56.509 E5.02208
G1 X46.984 Y55.998 E5.02911
G1 X47.459 Y52.794 E5.07342
G1 X47.559 Y52.291 E5.08045
G1 X48.346 Y49.149 E5.12476
G1 X48.495 Y48.658 E5.13179
G1 X49.586 Y45.609 E5.17610
G1 X49.783 Y45.135 E5.18313
G1 X51.167 Y42.207 E5.22744
G1 X51.409 Y41.754 E5.23447
G1 X53.074 Y38.977 E5.27878
G1 X53.318 Y38.612 E5.28478
G1 X53.718 Y38.816 F7800.000
G4 P29
G1 X55.647 Y36.214 E5.32910 F1800.000
G1 X55.945 Y35.851 E5.33553
G1 X58.120 Y33.452 E5.37984
G1 X58.452 Y33.120 E5.38627
G1 X60.851 Y30.945 E5.43058
G1 X61.323 Y30.567 E5.43885
G1 X63.816 Y28.718 E5.48132
G1 X64.206 Y28.457 E5.48775
G1 X66.984 Y26.792 E5.53206
G1 X67.398 Y26.571 E5.53849
G1 X70.325 Y25.186 E5.58280
G1 X70.759 Y25.006 E5.58923
G1 X73.808 Y23.915 E5.63355
G1 X74.258 Y23.779 E5.63997
G1 X77.399 Y22.992 E5.68429
G1 X77.860 Y22.901 E5.69071
G1 X81.063 Y22.425 E5.73503
G1 X81.531 Y22.379 E5.74146
G1 X84.765 Y22.220 E5.78577
G1 X85.370 Y22.227 E5.79404
G1 X88.469 Y22.379 E5.83651 F1800.000
G1 X88.937 Y22.425 E5.84294
G1 X92.140 Y22.900 E5.88725
G1 X92.601 Y22.992 E5.89368
G1 X95.742 Y23.779 E5.93799
G1 X96.192 Y23.915 E5.94442
G1 X99.241 Y25.006 E5.98874
G1 X99.797 Y25.244 E5.99701
G1 X102.602 Y26.571 E6.03947
G1 X103.016 Y26.792 E6.04590
G1 X105.794 Y28.457 E6.09022
G1 X106.184 Y28.718 E6.09664
G1 X108.786 Y30.647 E6.14096
G1 X109.149 Y30.945 E6.14738
G1 X111.548 Y33.120 E6.19170
G1 X111.880 Y33.452 E6.19813
G1 X114.055 Y35.851 E6.24244
G1 X114.353 Y36.214 E6.24887
G1 X116.282 Y38.816 E6.29318
G1 X116.543 Y39.206 E6.29961
G1 X118.208 Y41.984 E6.34392
G1 X118.429 Y42.398 E6.35035
G1 X119.814 Y45.325 E6.39466
G1 X119.994 Y45.759 E6.40109
G1 X121.085 Y48.808 E6.44541
G1 X121.221 Y49.258 E6.45183
G1 X122.008 Y52.399 E6.49615
G1 X122.099 Y52.860 E6.50257
G1 X122.575 Y56.063 E6.54689
G1 X122.621 Y56.531 E6.55332
G1 X122.780 Y59.765 E6.59763
G1 X122.780 Y60.235 E6.60406
G1 X122.621 Y63.469 E6.64837
G1 X122.575 Y63.937 E6.65480
G1 X122.099 Y67.140 E6.69912
G1 X122.008 Y67.601 E6.70554
G1 X121.221 Y70.742 E6.74986
G1 X121.085 Y71.192 E6.75628
G1 X119.994 Y74.241 E6.80060
G1 X119.814 Y74.675 E6.80702
G1 X118.429 Y77.602 E6.85134
G1 X118.208 Y78.016 E6.85777
G1 X116.543 Y80.794 E6.90208
G1 X116.282 Y81.184 E6.90851
G1 X114.353 Y83.786 E6.95282
G1 X114.055 Y84.149 E6.95925
G1 X111.880 Y86.548 E7.00356
G1 X111.548 Y86.880 E7.00999
G1 X109.149 Y89.055 E7.05430
G1 X108.786 Y89.353 E7.06073
G1 X106.184 Y91.282 E7.10505
G1 X105.678 Y91.612 E7.11332
G1 X103.016 Y93.208 E7.15579
G1 X102.602 Y93.429 E7.16221
G1 X99.675 Y94.814 E7.20653
G1 X99.241 Y94.994 E7.21295
G1 X96.192 Y96.085 E7.25727
G1 X95.742 Y96.221 E7.26370
G1 X92.601 Y97.008 E7.30801
G1 X92.140 Y97.099 E7.31444
G1 X88.937 Y97.575 E7.35875
G1 X88.469 Y97.621 E7.36518
G1 X85.235 Y97.780 E7.40949
G1 X84.765 Y97.780 E7.41592
G1 X81.531 Y97.621 E7.46024
G1 X81.063 Y97.575 E7.46666
G1 X77.860 Y97.099 E7.51098
G1 X77.399 Y97.008 E7.51740
G1 X74.258 Y96.221 E7.56172
G1 X73.808 Y96.085 E7.56814
G1 X70.759 Y94.994 E7.61246
G1 X70.325 Y94.814 E7.61889
G1 X67.398 Y93.429 E7.66320
G1 X66.984 Y93.208 E7.66963
G1 X64.206 Y91.543 E7.71394
G1 X63.816 Y91.282 E7.72037
G1 X61.214 Y89.353 E7.76469
G1 X60.851 Y89.055 E7.77111
G1 X58.452 Y86.880 E7.81543
G1 X58.120 Y86.548 E7.82185
G1 X55.945 Y84.149 E7.86617
G1 X55.647 Y83.786 E7.87259
G1 X53.764 Y81.246 E7.91585
G1 X53.457 Y80.794 E7.92333
G1 X51.792 Y78.016 E7.96765
G1 X51.571 Y77.602 E7.97408
G1 X50.186 Y74.675 E8.01839
G1 X50.006 Y74.241 E8.02482
G1 X48.915 Y71.192 E8.06913
G1 X48.779 Y70.742 E8.07556
G1 X47.992 Y67.601 E8.11987
G1 X47.901 Y67.140 E8.12630
G1 X47.445 Y64.070 E8.16877
G1 X47.379 Y63.469 E8.17704
G1 X47.220 Y60.235 E8.22136
G1 X47.220 Y59.765 E8.22778
G1 X47.379 Y56.531 E8.27210
G1 X47.425 Y56.063 E8.27852
G1 X47.901 Y52.860 E8.32284
G1 X47.992 Y52.399 E8.32927
G1 X48.779 Y49.258 E8.37358
G1 X48.915 Y48.808 E8.38001
G1 X50.006 Y45.759 E8.42432
G1 X50.186 Y45.325 E8.43075
G1 X51.571 Y42.398 E8.47506
G1 X51.792 Y41.984 E8.48149
G1 X53.457 Y39.206 E8.52581
G1 X53.676 Y38.878 E8.53121
G1 X54.076 Y39.081 F7800.000
G4 P29
G1 X56.006 Y36.480 E8.57552 F1800.000
G1 X56.276 Y36.151 E8.58135
G1 X58.451 Y33.752 E8.62566
G1 X58.752 Y33.451 E8.63149
G1 X61.151 Y31.276 E8.67580
G1 X61.480 Y31.006 E8.68163
G1 X64.081 Y29.076 E8.72595
G1 X64.435 Y28.840 E8.73177
G1 X67.213 Y27.175 E8.77609
G1 X67.589 Y26.974 E8.78192
G1 X70.516 Y25.590 E8.82623
G1 X70.910 Y25.427 E8.83206
G1 X73.959 Y24.336 E8.87637
G1 X74.366 Y24.212 E8.88220
G1 X77.508 Y23.425 E8.92652
G1 X77.925 Y23.342 E8.93234
G1 X81.129 Y22.867 E8.97666
G1 X81.553 Y22.825 E8.98248
G1 X84.787 Y22.666 E9.02680
G1 X85.348 Y22.673 E9.03447
G1 X88.447 Y22.825 E9.07694 F1800.000
G1 X88.871 Y22.867 E9.08277
G1 X92.075 Y23.342 E9.12708
G1 X92.492 Y23.425 E9.13291
G1 X95.634 Y24.212 E9.17722
G1 X96.041 Y24.336 E9.18305
G1 X99.090 Y25.427 E9.22737
G1 X99.606 Y25.647 E9.23504
G1 X102.411 Y26.974 E9.27751
G1 X102.787 Y27.175 E9.28333
G1 X105.565 Y28.840 E9.32765
G1 X105.919 Y29.076 E9.33348
G1 X108.520 Y31.006 E9.37779
G1 X108.849 Y31.276 E9.38362
G1 X111.248 Y33.450 E9.42793
G1 X111.550 Y33.752 E9.43376
G1 X113.724 Y36.151 E9.47807
G1 X113.994 Y36.480 E9.48390
G1 X115.924 Y39.081 E9.52822
G1 X116.160 Y39.435 E9.53404
G1 X117.825 Y42.213 E9.57836
G1 X118.026 Y42.589 E9.58419
G1 X119.410 Y45.516 E9.62850
G1 X119.573 Y45.910 E9.63433
G1 X120.664 Y48.959 E9.67864
G1 X120.788 Y49.366 E9.68447
G1 X121.575 Y52.508 E9.72879
G1 X121.658 Y52.925 E9.73461
G1 X122.133 Y56.129 E9.77893
G1 X122.175 Y56.553 E9.78476
G1 X122.334 Y59.787 E9.82907
G1 X122.334 Y60.213 E9.83490
G1 X122.175 Y63.447 E9.87921
G1 X122.133 Y63.871 E9.88504
G1 X121.658 Y67.075 E9.92936
G1 X121.575 Y67.492 E9.93518
G1 X120.788 Y70.634 E9.97950
G1 X120.664 Y71.041 E9.98532
G1 X119.573 Y74.090 E10.02964
G1 X119.410 Y74.484 E10.03547
G1 X118.026 Y77.411 E10.07978
G1 X117.825 Y77.787 E10.08561
G1 X116.230 Y80.449 E10.12808
G1 X115.924 Y80.919 E10.13575
G1 X113.994 Y83.520 E10.18006
G1 X113.724 Y83.849 E10.18589
G1 X111.550 Y86.248 E10.23021
G1 X111.248 Y86.550 E10.23603
G1 X108.849 Y88.724 E10.28035
G1 X108.520 Y88.994 E10.28617
G1 X105.919 Y90.924 E10.33049
G1 X105.449 Y91.230 E10.33816
G1 X102.787 Y92.825 E10.38063
G1 X102.411 Y93.026 E10.38646
G1 X99.484 Y94.410 E10.43077
G1 X99.090 Y94.573 E10.43660
G1 X96.041 Y95.664 E10.48092
G1 X95.634 Y95.788 E10.48674
G1 X92.492 Y96.575 E10.53106
G1 X92.075 Y96.658 E10.53688
G1 X88.871 Y97.133 E10.58120
G1 X88.447 Y97.175 E10.58703
G1 X85.213 Y97.334 E10.63134
G1 X84.787 Y97.334 E10.63717
G1 X81.553 Y97.175 E10.68148
G1 X81.129 Y97.133 E10.68731
G1 X77.925 Y96.658 E10.73163
G1 X77.508 Y96.575 E10.73745
G1 X74.366 Y95.788 E10.78177
G1 X73.959 Y95.664 E10.78759
G1 X70.910 Y94.573 E10.83191
G1 X70.516 Y94.410 E10.83774
G1 X67.589 Y93.026 E10.88205
G1 X67.213 Y92.825 E10.88788
G1 X64.435 Y91.160 E10.93219
G1 X64.081 Y90.924 E10.93802
G1 X61.480 Y88.994 E10.98234
G1 X61.151 Y88.724 E10.98816
G1 X58.752 Y86.550 E11.03248
G1 X58.450 Y86.248 E11.03831
G1 X56.276 Y83.849 E11.08262
G1 X56.006 Y83.520 E11.08845
G1 X54.122 Y80.980 E11.13171
G1 X53.840 Y80.565 E11.13859
G1 X52.175 Y77.787 E11.18290
G1 X51.974 Y77.411 E11.18873
G1 X50.590 Y74.484 E11.23305
G1 X50.427 Y74.090 E11.23887
G1 X49.336 Y71.041 E11.28319
G1 X49.212 Y70.634 E11.28901
G1 X48.425 Y67.492 E11.33333
G1 X48.342 Y67.075 E11.33916
G1 X47.887 Y64.005 E11.38163
G1 X47.825 Y63.447 E11.38930
G1 X47.666 Y60.213 E11.43361
G1 X47.666 Y59.787 E11.43944
G1 X47.825 Y56.553 E11.48375
G1 X47.867 Y56.129 E11.48958
G1 X48.342 Y52.925 E11.53390
G1 X48.425 Y52.508 E11.53972
G1 X49.212 Y49.366 E11.58404
G1 X49.336 Y48.959 E11.58987
G1 X50.427 Y45.910 E11.63418
G1 X50.590 Y45.516 E11.64001
G1 X51.974 Y42.589 E11.68432
G1 X52.175 Y42.213 E11.69015
G1 X53.840 Y39.435 E11.73447
G1 X54.035 Y39.144 E11.73927
G1 X54.435 Y39.347 F7800.000
G4 P29
G1 X56.364 Y36.746 E11.78358 F1800.000
G1 X56.606 Y36.451 E11.78881
G1 X58.781 Y34.051 E11.83312
G1 X59.051 Y33.781 E11.83835
G1 X61.451 Y31.606 E11.88267
G1 X61.746 Y31.364 E11.88789
G1 X64.347 Y29.435 E11.93221
G1 X64.665 Y29.223 E11.93744
G1 X67.443 Y27.558 E11.98175
G1 X67.780 Y27.378 E11.98698
G1 X70.707 Y25.993 E12.03129
G1 X71.060 Y25.847 E12.03652
G1 X74.109 Y24.756 E12.08084
G1 X74.475 Y24.645 E12.08607
G1 X77.616 Y23.858 E12.13038
G1 X77.991 Y23.784 E12.13561
G1 X81.194 Y23.308 E12.17992
G1 X81.574 Y23.271 E12.18515
G1 X84.809 Y23.112 E12.22947
G1 X85.326 Y23.119 E12.23654
G1 X88.426 Y23.271 E12.27901 F1800.000
G1 X88.806 Y23.308 E12.28423
G1 X92.009 Y23.784 E12.32855
G1 X92.384 Y23.858 E12.33378
G1 X95.525 Y24.645 E12.37809
G1 X95.891 Y24.756 E12.38332
G1 X98.940 Y25.847 E12.42764
G1 X99.415 Y26.051 E12.43471
G1 X102.220 Y27.378 E12.47718
G1 X102.557 Y27.558 E12.48240
G1 X105.335 Y29.223 E12.52672
G1 X105.653 Y29.435 E12.53195
G1 X108.254 Y31.364 E12.57626
G1 X108.549 Y31.606 E12.58149
G1 X110.949 Y33.781 E12.62580
G1 X111.219 Y34.051 E12.63103
G1 X113.394 Y36.451 E12.67535
G1 X113.636 Y36.746 E12.68057
G1 X115.565 Y39.347 E12.72489
G1 X115.777 Y39.665 E12.73012
G1 X117.442 Y42.443 E12.77443
G1 X117.622 Y42.780 E12.77966
G1 X119.007 Y45.707 E12.82398
G1 X119.153 Y46.060 E12.82920
G1 X120.244 Y49.109 E12.87352
G1 X120.355 Y49.475 E12.87875
G1 X121.142 Y52.616 E12.92306
G1 X121.216 Y52.991 E12.92829
G1 X121.692 Y56.194 E12.97260
G1 X121.729 Y56.574 E12.97783
G1 X121.888 Y59.809 E13.02215
G1 X121.888 Y60.191 E13.02737
G1 X121.729 Y63.426 E13.07169
G1 X121.692 Y63.806 E13.07692
G1 X121.216 Y67.009 E13.12123
G1 X121.142 Y67.384 E13.12646
G1 X120.355 Y70.525 E13.17078
G1 X120.244 Y70.891 E13.17600
G1 X119.153 Y73.940 E13.22032
G1 X119.007 Y74.293 E13.22555
G1 X117.622 Y77.220 E13.26986
G1 X117.442 Y77.557 E13.27509
G1 X115.777 Y80.335 E13.31940
G1 X115.565 Y80.653 E13.32463
G1 X113.636 Y83.254 E13.36895
G1 X113.394 Y83.549 E13.37417
G1 X111.219 Y85.949 E13.41849
G1 X110.949 Y86.219 E13.42372
G1 X108.549 Y88.394 E13.46803
G1 X108.254 Y88.636 E13.47326
G1 X105.653 Y90.565 E13.51757
G1 X105.219 Y90.847 E13.52465
G1 X102.557 Y92.442 E13.56711
G1 X102.220 Y92.622 E13.57234
G1 X99.293 Y94.007 E13.61666
G1 X98.940 Y94.153 E13.62188
G1 X95.891 Y95.244 E13.66620
G1 X95.525 Y95.355 E13.67143
G1 X92.384 Y96.142 E13.71574
G1 X92.009 Y96.216 E13.72097
G1 X88.806 Y96.692 E13.76529
G1 X88.426 Y96.729 E13.77051
G1 X85.191 Y96.888 E13.81483
G1 X84.809 Y96.888 E13.82006
G1 X81.574 Y96.729 E13.86437
G1 X81.194 Y96.692 E13.86960
G1 X77.991 Y96.216 E13.91391
G1 X77.616 Y96.142 E13.91914
G1 X74.475 Y95.355 E13.96346
G1 X74.109 Y95.244 E13.96868
G1 X71.060 Y94.153 E14.01300
G1 X70.707 Y94.007 E14.01823
G1 X67.780 Y92.622 E14.06254
G1 X67.443 Y92.442 E14.06777
G1 X64.665 Y90.777 E14.11209
G1 X64.347 Y90.565 E14.11731
G1 X61.746 Y88.636 E14.16163
G1 X61.451 Y88.394 E14.16686
G1 X59.051 Y86.219 E14.21117
G1 X58.781 Y85.949 E14.21640
G1 X56.606 Y83.549 E14.26071
G1 X56.364 Y83.254 E14.26594
G1 X54.481 Y80.715 E14.30920
G1 X54.223 Y80.335 E14.31548
G1 X52.558 Y77.557 E14.35980
G1 X52.378 Y77.220 E14.36503
G1 X50.993 Y74.293 E14.40934
G1 X50.847 Y73.940 E14.41457
G1 X49.756 Y70.891 E14.45888
G1 X49.645 Y70.525 E14.46411
G1 X48.858 Y67.384 E14.50843
G1 X48.784 Y67.009 E14.51365
G1 X48.328 Y63.939 E14.55612
G1 X48.271 Y63.426 E14.56319
G1 X48.112 Y60.191 E14.60751
G1 X48.112 Y59.809 E14.61274
G1 X48.271 Y56.574 E14.65705
G1 X48.308 Y56.194 E14.66228
G1 X48.784 Y52.991 E14.70660
G1 X48.858 Y52.616 E14.71182
G1 X49.645 Y49.475 E14.75614
G1 X49.756 Y49.109 E14.76137
G1 X50.847 Y46.060 E14.80568
G1 X50.993 Y45.707 E14.81091
G1 X52.378 Y42.780 E14.85522
G1 X52.558 Y42.443 E14.86045
G1 X54.223 Y39.665 E14.90477
G1 X54.393 Y39.410 E14.90897
G1 X54.793 Y39.613 F7800.000
G4 P29
G1 X56.723 Y37.012 E14.95328 F1800.000
G1 X56.937 Y36.751 E14.95791
G1 X59.112 Y34.351 E15.00223
G1 X59.351 Y34.112 E15.00685
G1 X61.751 Y31.937 E15.05117
G1 X62.012 Y31.723 E15.05580
G1 X64.613 Y29.793 E15.10011
G1 X64.894 Y29.605 E15.10474
G1 X67.672 Y27.941 E15.14906
G1 X67.970 Y27.781 E15.15368
G1 X70.898 Y26.397 E15.19800
G1 X71.210 Y26.267 E15.20263
G1 X74.260 Y25.176 E15.24694
G1 X74.583 Y25.078 E15.25157
G1 X77.725 Y24.291 E15.29589
