; generated by Slic3r 1.2.9 on 2017-02-05 at 19:46:16

; external perimeters extrusion width = 0.50mm
; perimeters extrusion width = 0.50mm
; infill extrusion width = 0.50mm
; solid infill extrusion width = 0.50mm
; top infill extrusion width = 0.50mm

M107
M190 S70 ; set bed temperature
M104 S228 ; set temperature
G28 ; home all axes
M109 S228 ; wait for temperature to be reached
G21 ; set units to millimeters
G90 ; use absolute coordinates
M82 ; use absolute distances for extrusion
G92 E0
G1 E-0.50000 F2400.00000
G92 E0
G1 Z0.250 F9600.000
G1 X53.359 Y38.550 F9600.000
G1 E0.50000 F2400.00000
M204 S600
G1 X55.289 Y35.948 E0.54486 F1800.000
G1 X55.614 Y35.552 E0.55198
G1 X57.789 Y33.152 E0.59684
G1 X58.152 Y32.789 E0.60395
G1 X60.552 Y30.614 E0.64881
G1 X60.948 Y30.289 E0.65592
G1 X63.550 Y28.359 E0.70079
G1 X63.977 Y28.074 E0.70790
G1 X66.754 Y26.409 E0.75276
G1 X67.207 Y26.167 E0.75987
G1 X70.135 Y24.783 E0.80474
G1 X70.609 Y24.586 E0.81185
G1 X73.658 Y23.495 E0.85671
G1 X74.149 Y23.346 E0.86382
G1 X77.291 Y22.559 E0.90869
G1 X77.794 Y22.459 E0.91580
G1 X80.998 Y21.984 E0.96066
G1 X81.509 Y21.933 E0.96777
G1 X84.743 Y21.775 E1.01264
G1 X85.391 Y21.781 E1.02161
G1 X88.491 Y21.933 E1.06461 F1800.000
G1 X89.002 Y21.984 E1.07172
G1 X92.206 Y22.459 E1.11658
G1 X92.709 Y22.559 E1.12370
G1 X95.851 Y23.346 E1.16856
G1 X96.342 Y23.495 E1.17567
G1 X99.391 Y24.586 E1.22053
G1 X99.987 Y24.840 E1.22951
G1 X102.793 Y26.167 E1.27251
G1 X103.246 Y26.409 E1.27962
G1 X106.023 Y28.074 E1.32448
G1 X106.450 Y28.359 E1.33159
G1 X109.052 Y30.289 E1.37646
G1 X109.448 Y30.614 E1.38357
G1 X111.848 Y32.789 E1.42843
G1 X112.211 Y33.152 E1.43554
G1 X114.386 Y35.552 E1.48040
G1 X114.711 Y35.948 E1.48752
G1 X116.641 Y38.550 E1.53238
G1 X116.926 Y38.977 E1.53949
G1 X118.591 Y41.754 E1.58435
G1 X118.833 Y42.207 E1.59147
G1 X120.217 Y45.135 E1.63633
G1 X120.414 Y45.609 E1.64344
G1 X121.505 Y48.658 E1.68830
G1 X121.654 Y49.149 E1.69542
G1 X122.441 Y52.291 E1.74028
G1 X122.541 Y52.794 E1.74739
G1 X123.016 Y55.998 E1.79225
G1 X123.067 Y56.509 E1.79937
G1 X123.225 Y59.743 E1.84423
G1 X123.225 Y60.257 E1.85134
G1 X123.067 Y63.491 E1.89620
G1 X123.016 Y64.002 E1.90332
G1 X122.541 Y67.206 E1.94818
G1 X122.441 Y67.709 E1.95529
G1 X121.654 Y70.851 E2.00015
G1 X121.505 Y71.342 E2.00726
G1 X120.414 Y74.391 E2.05213
G1 X120.217 Y74.865 E2.05924
G1 X118.833 Y77.793 E2.10410
G1 X118.591 Y78.246 E2.11121
G1 X116.995 Y80.908 E2.15421
G1 X116.641 Y81.450 E2.16319
G1 X114.711 Y84.052 E2.20805
G1 X114.386 Y84.448 E2.21516
G1 X112.211 Y86.848 E2.26002
G1 X111.848 Y87.211 E2.26714
G1 X109.448 Y89.386 E2.31200
G1 X109.052 Y89.711 E2.31911
G1 X106.450 Y91.641 E2.36397
G1 X105.908 Y91.995 E2.37295
G1 X103.246 Y93.591 E2.41595
G1 X102.793 Y93.833 E2.42306
G1 X99.865 Y95.217 E2.46792
G1 X99.391 Y95.414 E2.47503
G1 X96.342 Y96.505 E2.51990
G1 X95.851 Y96.654 E2.52701
G1 X92.709 Y97.441 E2.57187
G1 X92.206 Y97.541 E2.57898
G1 X89.002 Y98.016 E2.62385
G1 X88.491 Y98.067 E2.63096
G1 X85.257 Y98.225 E2.67582
G1 X84.743 Y98.225 E2.68293
G1 X81.509 Y98.067 E2.72780
G1 X80.998 Y98.016 E2.73491
G1 X77.794 Y97.541 E2.77977
G1 X77.291 Y97.441 E2.78688
G1 X74.149 Y96.654 E2.83175
G1 X73.658 Y96.505 E2.83886
G1 X70.609 Y95.414 E2.88372
G1 X70.135 Y95.217 E2.89083
G1 X67.207 Y93.833 E2.93569
G1 X66.754 Y93.591 E2.94281
G1 X63.977 Y91.926 E2.98767
G1 X63.550 Y91.641 E2.99478
G1 X60.948 Y89.711 E3.03965
G1 X60.552 Y89.386 E3.04676
G1 X58.152 Y87.211 E3.09162
G1 X57.789 Y86.848 E3.09873
G1 X55.614 Y84.448 E3.14359
G1 X55.289 Y84.052 E3.15070
G1 X53.405 Y81.512 E3.19450
G1 X53.074 Y81.023 E3.20268
G1 X51.409 Y78.246 E3.24754
G1 X51.167 Y77.793 E3.25465
G1 X49.783 Y74.865 E3.29952
G1 X49.586 Y74.391 E3.30663
G1 X48.495 Y71.342 E3.35149
G1 X48.346 Y70.851 E3.35860
G1 X47.559 Y67.709 E3.40347
G1 X47.459 Y67.206 E3.41058
G1 X47.004 Y64.136 E3.45357
G1 X46.933 Y63.491 E3.46255
G1 X46.775 Y60.257 E3.50741
G1 X46.775 Y59.743 E3.51453
G1 X46.933 Y56.509 E3.55939
G1 X46.984 Y55.998 E3.56650
G1 X47.459 Y52.794 E3.61136
G1 X47.559 Y52.291 E3.61848
G1 X48.346 Y49.149 E3.66334
G1 X48.495 Y48.658 E3.67045
G1 X49.586 Y45.609 E3.71531
G1 X49.783 Y45.135 E3.72243
G1 X51.167 Y42.207 E3.76729
G1 X51.409 Y41.754 E3.77440
G1 X53.074 Y38.977 E3.81926
G1 X53.318 Y38.612 E3.82534
G1 X53.718 Y38.816 F9600.000
G4 P30
G1 X55.647 Y36.214 E3.87020 F1800.000
G1 X55.945 Y35.851 E3.87671
G1 X58.120 Y33.452 E3.92157
G1 X58.452 Y33.120 E3.92807
G1 X60.851 Y30.945 E3.97293
G1 X61.323 Y30.567 E3.98131
G1 X63.816 Y28.718 E4.02430
G1 X64.206 Y28.457 E4.03081
G1 X66.984 Y26.792 E4.07567
G1 X67.398 Y26.571 E4.08217
G1 X70.325 Y25.186 E4.12704
G1 X70.759 Y25.006 E4.13354
G1 X73.808 Y23.915 E4.17841
G1 X74.258 Y23.779 E4.18491
G1 X77.399 Y22.992 E4.22977
G1 X77.860 Y22.901 E4.23628
G1 X81.063 Y22.425 E4.28114
G1 X81.531 Y22.379 E4.28765
G1 X84.765 Y22.220 E4.33251
G1 X85.370 Y22.227 E4.34088
G1 X88.469 Y22.379 E4.38387 F1800.000
G1 X88.937 Y22.425 E4.39038
G1 X92.140 Y22.900 E4.43524
G1 X92.601 Y22.992 E4.44175
G1 X95.742 Y23.779 E4.48661
G1 X96.192 Y23.915 E4.49312
G1 X99.241 Y25.006 E4.53798
G1 X99.797 Y25.244 E4.54635
G1 X102.602 Y26.571 E4.58934
G1 X103.016 Y26.792 E4.59585
G1 X105.794 Y28.457 E4.64071
G1 X106.184 Y28.718 E4.64722
G1 X108.786 Y30.647 E4.69208
G1 X109.149 Y30.945 E4.69859
G1 X111.548 Y33.120 E4.74345
G1 X111.880 Y33.452 E4.74995
G1 X114.055 Y35.851 E4.79482
G1 X114.353 Y36.214 E4.80132
G1 X116.282 Y38.816 E4.84618
G1 X116.543 Y39.206 E4.85269
G1 X118.208 Y41.984 E4.89755
G1 X118.429 Y42.398 E4.90406
G1 X119.814 Y45.325 E4.94892
G1 X119.994 Y45.759 E4.95543
G1 X121.085 Y48.808 E5.00029
G1 X121.221 Y49.258 E5.00679
G1 X122.008 Y52.399 E5.05166
G1 X122.099 Y52.860 E5.05816
G1 X122.575 Y56.063 E5.10302
G1 X122.621 Y56.531 E5.10953
G1 X122.780 Y59.765 E5.15439
G1 X122.780 Y60.235 E5.16090
G1 X122.621 Y63.469 E5.20576
G1 X122.575 Y63.937 E5.21227
G1 X122.099 Y67.140 E5.25713
G1 X122.008 Y67.601 E5.26363
G1 X121.221 Y70.742 E5.30850
G1 X121.085 Y71.192 E5.31500
G1 X119.994 Y74.241 E5.35987
G1 X119.814 Y74.675 E5.36637
G1 X118.429 Y77.602 E5.41123
G1 X118.208 Y78.016 E5.41774
G1 X116.543 Y80.794 E5.46260
G1 X116.282 Y81.184 E5.46911
G1 X114.353 Y83.786 E5.51397
G1 X114.055 Y84.149 E5.52047
G1 X111.880 Y86.548 E5.56534
G1 X111.548 Y86.880 E5.57184
G1 X109.149 Y89.055 E5.61670
G1 X108.786 Y89.353 E5.62321
G1 X106.184 Y91.282 E5.66807
G1 X105.678 Y91.612 E5.67644
G1 X103.016 Y93.208 E5.71944
G1 X102.602 Y93.429 E5.72594
G1 X99.675 Y94.814 E5.77081
G1 X99.241 Y94.994 E5.77731
G1 X96.192 Y96.085 E5.82217
G1 X95.742 Y96.221 E5.82868
G1 X92.601 Y97.008 E5.87354
G1 X92.140 Y97.099 E5.88005
G1 X88.937 Y97.575 E5.92491
G1 X88.469 Y97.621 E5.93142
G1 X85.235 Y97.780 E5.97628
G1 X84.765 Y97.780 E5.98278
G1 X81.531 Y97.621 E6.02765
G1 X81.063 Y97.575 E6.03415
G1 X77.860 Y97.099 E6.07901
G1 X77.399 Y97.008 E6.08552
G1 X74.258 Y96.221 E6.13038
G1 X73.808 Y96.085 E6.13689
G1 X70.759 Y94.994 E6.18175
G1 X70.325 Y94.814 E6.18826
G1 X67.398 Y93.429 E6.23312
G1 X66.984 Y93.208 E6.23962
G1 X64.206 Y91.543 E6.28449
G1 X63.816 Y91.282 E6.29099
G1 X61.214 Y89.353 E6.33586
G1 X60.851 Y89.055 E6.34236
G1 X58.452 Y86.880 E6.38722
G1 X58.120 Y86.548 E6.39373
G1 X55.945 Y84.149 E6.43859
G1 X55.647 Y83.786 E6.44509
G1 X53.764 Y81.246 E6.48889
G1 X53.457 Y80.794 E6.49646
G1 X51.792 Y78.016 E6.54132
G1 X51.571 Y77.602 E6.54783
G1 X50.186 Y74.675 E6.59269
G1 X50.006 Y74.241 E6.59920
G1 X48.915 Y71.192 E6.64406
G1 X48.779 Y70.742 E6.65057
G1 X47.992 Y67.601 E6.69543
G1 X47.901 Y67.140 E6.70193
G1 X47.445 Y64.070 E6.74493
G1 X47.379 Y63.469 E6.75330
G1 X47.220 Y60.235 E6.79816
G1 X47.220 Y59.765 E6.80467
G1 X47.379 Y56.531 E6.84953
G1 X47.425 Y56.063 E6.85604
G1 X47.901 Y52.860 E6.90090
G1 X47.992 Y52.399 E6.90740
G1 X48.779 Y49.258 E6.95227
G1 X48.915 Y48.808 E6.95877
G1 X50.006 Y45.759 E7.00364
G1 X50.186 Y45.325 E7.01014
G1 X51.571 Y42.398 E7.05500
G1 X51.792 Y41.984 E7.06151
G1 X53.457 Y39.206 E7.10637
G1 X53.676 Y38.878 E7.11184
G1 X54.076 Y39.081 F9600.000
G4 P30
G1 X56.006 Y36.480 E7.15670 F1800.000
G1 X56.276 Y36.151 E7.16260
G1 X58.451 Y33.752 E7.20746
G1 X58.752 Y33.451 E7.21336
G1 X61.151 Y31.276 E7.25822
G1 X61.480 Y31.006 E7.26412
G1 X64.081 Y29.076 E7.30898
G1 X64.435 Y28.840 E7.31488
G1 X67.213 Y27.175 E7.35974
G1 X67.589 Y26.974 E7.36564
G1 X70.516 Y25.590 E7.41051
G1 X70.910 Y25.427 E7.41640
G1 X73.959 Y24.336 E7.46127
G1 X74.366 Y24.212 E7.46717
G1 X77.508 Y23.425 E7.51203
G1 X77.925 Y23.342 E7.51793
G1 X81.129 Y22.867 E7.56279
G1 X81.553 Y22.825 E7.56869
G1 X84.787 Y22.666 E7.61355
G1 X85.348 Y22.673 E7.62132
G1 X88.447 Y22.825 E7.66431 F1800.000
G1 X88.871 Y22.867 E7.67021
G1 X92.075 Y23.342 E7.71507
G1 X92.492 Y23.425 E7.72097
G1 X95.634 Y24.212 E7.76583
G1 X96.041 Y24.336 E7.77173
G1 X99.090 Y25.427 E7.81659
G1 X99.606 Y25.647 E7.82436
G1 X102.411 Y26.974 E7.86735
G1 X102.787 Y27.175 E7.87325
G1 X105.565 Y28.840 E7.91811
G1 X105.919 Y29.076 E7.92401
G1 X108.520 Y31.006 E7.96888
G1 X108.849 Y31.276 E7.97477
G1 X111.248 Y33.450 E8.01964
G1 X111.550 Y33.752 E8.02553
G1 X113.724 Y36.151 E8.07040
G1 X113.994 Y36.480 E8.07630
G1 X115.924 Y39.081 E8.12116
G1 X116.160 Y39.435 E8.12706
G1 X117.825 Y42.213 E8.17192
G1 X118.026 Y42.589 E8.17782
G1 X119.410 Y45.516 E8.22268
G1 X119.573 Y45.910 E8.22858
G1 X120.664 Y48.959 E8.27344
G1 X120.788 Y49.366 E8.27934
G1 X121.575 Y52.508 E8.32420
G1 X121.658 Y52.925 E8.33010
G1 X122.133 Y56.129 E8.37496
G1 X122.175 Y56.553 E8.38086
G1 X122.334 Y59.787 E8.42573
G1 X122.334 Y60.213 E8.43162
G1 X122.175 Y63.447 E8.47649
G1 X122.133 Y63.871 E8.48239
G1 X121.658 Y67.075 E8.52725
G1 X121.575 Y67.492 E8.53315
G1 X120.788 Y70.634 E8.57801
G1 X120.664 Y71.041 E8.58391
G1 X119.573 Y74.090 E8.62877
G1 X119.410 Y74.484 E8.63467
G1 X118.026 Y77.411 E8.67953
G1 X117.825 Y77.787 E8.68543
G1 X116.230 Y80.449 E8.72842
G1 X115.924 Y80.919 E8.73619
G1 X113.994 Y83.520 E8.78105
G1 X113.724 Y83.849 E8.78695
G1 X111.550 Y86.248 E8.83181
G1 X111.248 Y86.550 E8.83771
G1 X108.849 Y88.724 E8.88257
G1 X108.520 Y88.994 E8.88847
G1 X105.919 Y90.924 E8.93334
G1 X105.449 Y91.230 E8.94110
G1 X102.787 Y92.825 E8.98410
G1 X102.411 Y93.026 E8.98999
G1 X99.484 Y94.410 E9.03486
G1 X99.090 Y94.573 E9.04075
G1 X96.041 Y95.664 E9.08562
G1 X95.634 Y95.788 E9.09152
G1 X92.492 Y96.575 E9.13638
G1 X92.075 Y96.658 E9.14228
G1 X88.871 Y97.133 E9.18714
G1 X88.447 Y97.175 E9.19304
G1 X85.213 Y97.334 E9.23790
G1 X84.787 Y97.334 E9.24380
G1 X81.553 Y97.175 E9.28866
G1 X81.129 Y97.133 E9.29456
G1 X77.925 Y96.658 E9.33942
G1 X77.508 Y96.575 E9.34532
G1 X74.366 Y95.788 E9.39019
G1 X73.959 Y95.664 E9.39608
G1 X70.910 Y94.573 E9.44095
G1 X70.516 Y94.410 E9.44685
G1 X67.589 Y93.026 E9.49171
G1 X67.213 Y92.825 E9.49761
G1 X64.435 Y91.160 E9.54247
G1 X64.081 Y90.924 E9.54837
G1 X61.480 Y88.994 E9.59323
G1 X61.151 Y88.724 E9.59913
G1 X58.752 Y86.550 E9.64399
G1 X58.450 Y86.248 E9.64989
G1 X56.276 Y83.849 E9.69475
G1 X56.006 Y83.520 E9.70065
G1 X54.122 Y80.980 E9.74445
G1 X53.840 Y80.565 E9.75141
G1 X52.175 Y77.787 E9.79627
G1 X51.974 Y77.411 E9.80217
G1 X50.590 Y74.484 E9.84703
G1 X50.427 Y74.090 E9.85293
G1 X49.336 Y71.041 E9.89780
G1 X49.212 Y70.634 E9.90369
G1 X48.425 Y67.492 E9.94856
G1 X48.342 Y67.075 E9.95445
G1 X47.887 Y64.005 E9.99745
G1 X47.825 Y63.447 E10.00521
G1 X47.666 Y60.213 E10.05008
G1 X47.666 Y59.787 E10.05598
G1 X47.825 Y56.553 E10.10084
G1 X47.867 Y56.129 E10.10674
G1 X48.342 Y52.925 E10.15160
G1 X48.425 Y52.508 E10.15750
G1 X49.212 Y49.366 E10.20236
G1 X49.336 Y48.959 E10.20826
G1 X50.427 Y45.910 E10.25312
G1 X50.590 Y45.516 E10.25902
G1 X51.974 Y42.589 E10.30388
G1 X52.175 Y42.213 E10.30978
G1 X53.840 Y39.435 E10.35464
G1 X54.035 Y39.144 E10.35950
G1 X54.435 Y39.347 F9600.000
G4 P30
G1 X56.364 Y36.746 E10.40437 F1800.000
G1 X56.606 Y36.451 E10.40966
G1 X58.781 Y34.051 E10.45452
G1 X59.051 Y33.781 E10.45981
G1 X61.451 Y31.606 E10.50467
G1 X61.746 Y31.364 E10.50997
G1 X64.347 Y29.435 E10.55483
G1 X64.665 Y29.223 E10.56012
G1 X67.443 Y27.558 E10.60498
G1 X67.780 Y27.378 E10.61028
G1 X70.707 Y25.993 E10.65514
G1 X71.060 Y25.847 E10.66043
G1 X74.109 Y24.756 E10.70529
G1 X74.475 Y24.645 E10.71058
G1 X77.616 Y23.858 E10.75545
G1 X77.991 Y23.784 E10.76074
G1 X81.194 Y23.308 E10.80560
G1 X81.574 Y23.271 E10.81089
G1 X84.809 Y23.112 E10.85576
G1 X85.326 Y23.119 E10.86292
G1 X88.426 Y23.271 E10.90591 F1800.000
G1 X88.806 Y23.308 E10.91120
G1 X92.009 Y23.784 E10.95606
G1 X92.384 Y23.858 E10.96136
G1 X95.525 Y24.645 E11.00622
G1 X95.891 Y24.756 E11.01151
G1 X98.940 Y25.847 E11.05637
G1 X99.415 Y26.051 E11.06353
G1 X102.220 Y27.378 E11.10652
G1 X102.557 Y27.558 E11.11182
G1 X105.335 Y29.223 E11.15668
G1 X105.653 Y29.435 E11.16197
G1 X108.254 Y31.364 E11.20683
G1 X108.549 Y31.606 E11.21213
G1 X110.949 Y33.781 E11.25699
G1 X111.219 Y34.051 E11.26228
G1 X113.394 Y36.451 E11.30714
G1 X113.636 Y36.746 E11.31243
G1 X115.565 Y39.347 E11.35730
G1 X115.777 Y39.665 E11.36259
G1 X117.442 Y42.443 E11.40745
G1 X117.622 Y42.780 E11.41274
G1 X119.007 Y45.707 E11.45760
G1 X119.153 Y46.060 E11.46290
G1 X120.244 Y49.109 E11.50776
G1 X120.355 Y49.475 E11.51305
G1 X121.142 Y52.616 E11.55791
G1 X121.216 Y52.991 E11.56321
G1 X121.692 Y56.194 E11.60807
G1 X121.729 Y56.574 E11.61336
G1 X121.888 Y59.809 E11.65822
G1 X121.888 Y60.191 E11.66351
G1 X121.729 Y63.426 E11.70838
G1 X121.692 Y63.806 E11.71367
G1 X121.216 Y67.009 E11.75853
G1 X121.142 Y67.384 E11.76382
G1 X120.355 Y70.525 E11.80869
G1 X120.244 Y70.891 E11.81398
G1 X119.153 Y73.940 E11.85884
G1 X119.007 Y74.293 E11.86413
G1 X117.622 Y77.220 E11.90899
G1 X117.442 Y77.557 E11.91429
G1 X115.777 Y80.335 E11.95915
G1 X115.565 Y80.653 E11.96444
G1 X113.636 Y83.254 E12.00930
G1 X113.394 Y83.549 E12.01460
G1 X111.219 Y85.949 E12.05946
G1 X110.949 Y86.219 E12.06475
G1 X108.549 Y88.394 E12.10961
G1 X108.254 Y88.636 E12.11490
G1 X105.653 Y90.565 E12.15977
G1 X105.219 Y90.847 E12.16693
G1 X102.557 Y92.442 E12.20992
G1 X102.220 Y92.622 E12.21521
G1 X99.293 Y94.007 E12.26007
G1 X98.940 Y94.153 E12.26536
G1 X95.891 Y95.244 E12.31023
G1 X95.525 Y95.355 E12.31552
G1 X92.384 Y96.142 E12.36038
G1 X92.009 Y96.216 E12.36567
G1 X88.806 Y96.692 E12.41054
G1 X88.426 Y96.729 E12.41583
G1 X85.191 Y96.888 E12.46069
G1 X84.809 Y96.888 E12.46598
G1 X81.574 Y96.729 E12.51085
G1 X81.194 Y96.692 E12.51614
G1 X77.991 Y96.216 E12.56100
G1 X77.616 Y96.142 E12.56629
G1 X74.475 Y95.355 E12.61115
G1 X74.109 Y95.244 E12.61645
G1 X71.060 Y94.153 E12.66131
G1 X70.707 Y94.007 E12.66660
G1 X67.780 Y92.622 E12.71146
G1 X67.443 Y92.442 E12.71676
G1 X64.665 Y90.777 E12.76162
G1 X64.347 Y90.565 E12.76691
G1 X61.746 Y88.636 E12.81177
G1 X61.451 Y88.394 E12.81706
G1 X59.051 Y86.219 E12.86193
G1 X58.781 Y85.949 E12.86722
G1 X56.606 Y83.549 E12.91208
G1 X56.364 Y83.254 E12.91737
G1 X54.481 Y80.715 E12.96117
G1 X54.223 Y80.335 E12.96753
G1 X52.558 Y77.557 E13.01239
G1 X52.378 Y77.220 E13.01768
G1 X50.993 Y74.293 E13.06254
G1 X50.847 Y73.940 E13.06783
G1 X49.756 Y70.891 E13.11270
G1 X49.645 Y70.525 E13.11799
G1 X48.858 Y67.384 E13.16285
G1 X48.784 Y67.009 E13.16814
G1 X48.328 Y63.939 E13.21114
G1 X48.271 Y63.426 E13.21830
G1 X48.112 Y60.191 E13.26316
G1 X48.112 Y59.809 E13.26845
G1 X48.271 Y56.574 E13.31331
G1 X48.308 Y56.194 E13.31860
G1 X48.784 Y52.991 E13.36347
G1 X48.858 Y52.616 E13.36876
G1 X49.645 Y49.475 E13.41362
G1 X49.756 Y49.109 E13.41891
G1 X50.847 Y46.060 E13.46378
G1 X50.993 Y45.707 E13.46907
G1 X52.378 Y42.780 E13.51393
G1 X52.558 Y42.443 E13.51922
G1 X54.223 Y39.665 E13.56408
G1 X54.393 Y39.410 E13.56834
G1 X54.793 Y39.613 F9600.000
G4 P30
G1 X56.723 Y37.012 E13.61320 F1800.000
G1 X56.937 Y36.751 E13.61789
G1 X59.112 Y34.351 E13.66275
G1 X59.351 Y34.112 E13.66743
G1 X61.751 Y31.937 E13.71229
G1 X62.012 Y31.723 E13.71698
G1 X64.613 Y29.793 E13.76184
G1 X64.894 Y29.605 E13.76653
G1 X67.672 Y27.941 E13.81139
G1 X67.970 Y27.781 E13.81608
G1 X70.898 Y26.397 E13.86094
G1 X71.210 Y26.267 E13.86562
G1 X74.260 Y25.176 E13.91049
G1 X74.583 Y25.078 E13.91517
G1 X77.725 Y24.291 E13.96003
G1 X78.056 Y24.225 E13.96472
